<?xml version="1.0" encoding="UTF-8"?>
<map version="1.10" tiledversion="1.11.2" orientation="orthogonal" renderorder="right-down" width="308" height="81" tilewidth="4" tileheight="4" infinite="0" nextlayerid="7" nextobjectid="1">
 <tileset firstgid="1" source="code/parallax-demon-woods-mid-trees.tsx"/>
 <tileset firstgid="10065" source="code/mainlev_build.tsx"/>
 <tileset firstgid="75601" source="code/parallax-demon-woods-bg.tsx"/>
 <tileset firstgid="83761" source="code/parallax-demon-woods-close-trees.tsx"/>
 <tileset firstgid="93825" source="code/parallax-demon-woods-far-trees.tsx"/>
 <layer id="1" name="Tile Layer 1" width="308" height="81">
  <data encoding="csv">
0,0,0,0,0,0,0,0,0,0,0,0,0,0,0,0,0,0,0,0,0,0,0,0,0,0,0,0,0,0,0,0,0,0,0,0,0,0,0,0,0,0,0,0,0,0,0,0,0,0,0,0,0,0,0,0,0,0,0,0,0,0,0,0,0,0,0,0,0,0,0,0,0,0,0,0,0,0,0,0,0,0,0,0,0,0,0,0,0,0,0,0,0,0,0,0,0,0,0,0,0,0,0,0,0,0,0,0,0,0,0,0,0,0,0,0,0,0,0,0,0,0,0,0,0,0,0,0,0,0,0,0,0,0,0,0,0,0,0,0,0,0,0,0,0,0,0,0,0,0,0,0,0,0,0,0,0,0,0,0,0,0,0,0,0,0,0,0,0,0,0,0,0,0,0,0,0,0,0,0,0,0,0,0,0,0,0,0,0,0,0,0,0,0,0,0,0,0,0,0,0,0,0,0,0,0,0,0,0,0,0,0,0,0,0,0,0,0,0,0,0,0,0,0,0,0,0,0,0,0,0,0,0,0,0,0,0,0,0,0,0,0,0,0,0,0,0,0,0,0,0,0,0,0,0,0,0,0,0,0,0,0,0,0,0,0,0,0,0,0,0,0,0,0,0,0,0,0,0,0,0,0,0,0,0,0,0,0,0,0,0,0,0,0,0,0,0,0,0,0,0,0,0,0,0,0,0,0,
0,0,0,0,0,0,0,0,0,0,0,0,0,0,0,0,0,0,0,0,0,0,0,0,0,0,0,0,0,0,0,0,0,0,0,0,0,0,0,0,0,0,0,0,0,0,0,0,0,0,0,0,0,0,0,0,0,0,0,0,0,0,0,0,0,0,0,0,0,0,0,0,0,0,0,0,0,0,0,0,0,0,0,0,0,0,0,0,0,0,0,0,0,0,0,0,0,0,0,0,0,0,0,0,0,0,0,0,0,0,0,0,0,0,0,0,0,0,0,0,0,0,0,0,0,0,0,0,0,0,0,0,0,0,0,0,0,0,0,0,0,0,0,0,0,0,0,0,0,0,0,0,0,0,0,0,0,0,0,0,0,0,0,0,0,0,0,0,0,0,0,0,0,0,0,0,0,0,0,0,0,0,0,0,0,0,0,0,0,0,0,0,0,0,0,0,0,0,0,0,0,0,0,0,0,0,0,0,0,0,0,0,0,0,0,0,0,0,0,0,0,0,0,0,0,0,0,0,0,0,0,0,0,0,0,0,0,0,0,0,0,0,0,0,0,0,0,0,0,0,0,0,0,0,0,0,0,0,0,0,0,0,0,0,0,0,0,0,0,0,0,0,0,0,0,0,0,0,0,0,0,0,0,0,0,0,0,0,0,0,0,0,0,0,0,0,0,0,0,0,0,0,0,0,0,0,0,0,
0,0,0,0,0,0,0,0,0,0,0,0,0,0,0,0,0,0,0,0,0,0,0,0,0,0,0,0,0,0,0,0,0,0,0,0,0,0,0,0,0,0,0,0,0,0,0,0,0,0,0,0,0,0,0,0,0,0,0,0,0,0,0,0,0,0,0,0,0,0,0,0,0,0,0,0,0,0,0,0,0,0,0,0,0,0,0,0,0,0,0,0,0,0,0,0,0,0,0,0,0,0,0,0,0,0,0,0,0,0,0,0,0,0,0,0,0,0,0,0,0,0,0,0,0,0,0,0,0,0,0,0,0,0,0,0,0,0,0,0,0,0,0,0,0,0,0,0,0,0,0,0,0,0,0,0,0,0,0,0,0,0,0,0,0,0,0,0,0,0,0,0,0,0,0,0,0,0,0,0,0,0,0,0,0,0,0,0,0,0,0,0,0,0,0,0,0,0,0,0,0,0,0,0,0,0,0,0,0,0,0,0,0,0,0,0,0,0,0,0,0,0,0,0,0,0,0,0,0,0,0,0,0,0,0,0,0,0,0,0,0,0,0,0,0,0,0,0,0,0,0,0,0,0,0,0,0,0,0,0,0,0,0,0,0,0,0,0,0,0,0,0,0,0,0,0,0,0,0,0,0,0,0,0,0,0,0,0,0,0,0,0,0,0,0,0,0,0,0,0,0,0,0,0,0,0,0,0,
0,0,0,0,0,0,0,0,0,0,0,0,0,0,0,0,0,0,0,0,0,0,0,0,0,0,0,0,0,0,0,0,0,0,0,0,0,0,0,0,0,0,0,0,0,0,0,0,0,0,0,0,0,0,0,0,0,0,0,0,0,0,0,0,0,0,0,0,0,0,0,0,0,0,0,0,0,0,0,0,0,0,0,0,0,0,0,0,0,0,0,0,0,0,0,0,0,0,0,0,0,0,0,0,0,0,0,0,0,0,0,0,0,0,0,0,0,0,0,0,0,0,0,0,0,0,0,0,0,0,0,0,0,0,0,0,0,0,0,0,0,0,0,0,0,0,0,0,0,0,0,0,0,0,0,0,0,0,0,0,0,0,0,0,0,0,0,0,0,0,0,0,0,0,0,0,0,0,0,0,0,0,0,0,0,0,0,0,0,0,0,0,0,0,0,0,0,0,0,0,0,0,0,0,0,0,0,0,0,0,0,0,0,0,0,0,0,0,0,0,0,0,0,0,0,0,0,0,0,0,0,0,0,0,0,0,0,0,0,0,0,0,0,0,0,0,0,0,0,0,0,0,0,0,0,0,0,0,0,0,0,0,0,0,0,0,0,0,0,0,0,0,0,0,0,0,0,0,0,0,0,0,0,0,0,0,0,0,0,0,0,0,0,0,0,0,0,0,0,0,0,0,0,0,0,0,0,0,
0,0,0,0,0,0,0,0,0,0,0,0,0,0,0,0,0,0,0,0,0,0,0,0,0,0,0,0,0,0,0,0,0,0,0,0,0,0,0,0,0,0,0,0,0,0,0,0,0,0,0,0,0,0,0,0,0,0,0,0,0,0,0,0,0,0,0,0,0,0,0,0,0,0,0,0,0,0,0,0,0,0,0,0,0,0,0,0,0,0,0,0,0,0,0,0,0,0,0,0,0,0,0,0,0,0,0,0,0,0,0,0,0,0,0,0,0,0,0,0,0,0,0,0,0,0,0,0,0,0,0,0,0,0,0,0,0,0,0,0,0,0,0,0,0,0,0,0,0,0,0,0,0,0,0,0,0,0,0,0,0,0,0,0,0,0,0,0,0,0,0,0,0,0,0,0,0,0,0,0,0,0,0,0,0,0,0,0,0,0,0,0,0,0,0,0,0,0,0,0,0,0,0,0,0,0,0,0,0,0,0,0,0,0,0,0,0,0,0,0,0,0,0,0,0,0,0,0,0,0,0,0,0,0,0,0,0,0,0,0,0,0,0,0,0,0,0,0,0,0,0,0,0,0,0,0,0,0,0,0,0,0,0,0,0,0,0,0,0,0,0,0,0,0,0,0,0,0,0,0,0,0,0,0,0,0,0,0,0,0,0,0,0,0,0,0,0,0,0,0,0,0,0,0,0,0,0,0,
0,0,0,0,0,0,0,0,0,0,0,0,0,0,0,0,0,0,0,0,0,0,0,0,0,0,0,0,0,0,0,0,0,0,0,0,0,0,0,0,0,0,0,0,0,0,0,0,0,0,0,0,0,0,0,0,0,0,0,0,0,0,0,0,0,0,0,0,0,0,0,0,0,0,0,0,0,0,0,0,0,0,0,0,0,0,0,0,0,0,0,0,0,0,0,0,0,0,0,0,0,0,0,0,0,0,0,0,0,0,0,0,0,0,0,0,0,0,0,0,0,0,0,0,0,0,0,0,0,0,0,0,0,0,0,0,0,0,0,0,0,0,0,0,0,0,0,0,0,0,0,0,0,0,0,0,0,0,0,0,0,0,0,0,0,0,0,0,0,0,0,0,0,0,0,0,0,0,0,0,0,0,0,0,0,0,0,0,0,0,0,0,0,0,0,0,0,0,0,0,0,0,0,0,0,0,0,0,0,0,0,0,0,0,0,0,0,0,0,0,0,0,0,0,0,0,0,0,0,0,0,0,0,0,0,0,0,0,0,0,0,0,0,0,0,0,0,0,0,0,0,0,0,0,0,0,0,0,0,0,0,0,0,0,0,0,0,0,0,0,0,0,0,0,0,0,0,0,0,0,0,0,0,0,0,0,0,0,0,0,0,0,0,0,0,0,0,0,0,0,0,0,0,0,0,0,0,0,
0,0,0,0,0,0,0,0,0,0,0,0,0,0,0,0,0,0,0,0,0,0,0,0,0,0,0,0,0,0,0,0,0,0,0,0,0,0,0,0,0,0,0,0,0,0,0,0,0,0,0,0,0,0,0,0,0,0,0,0,0,0,0,0,0,0,0,0,0,0,0,0,0,0,0,0,0,0,0,0,0,0,0,0,0,0,0,0,0,0,0,0,0,0,0,0,0,0,0,0,0,0,0,0,0,0,0,0,0,0,0,0,0,0,0,0,0,0,0,0,0,0,0,0,0,0,0,0,0,0,0,0,0,0,0,0,0,0,0,0,0,0,0,0,0,0,0,0,0,0,0,0,0,0,0,0,0,0,0,0,0,0,0,0,0,0,0,0,0,0,0,0,0,0,0,0,0,0,0,0,0,0,0,0,0,0,0,0,0,0,0,0,0,0,0,0,0,0,0,0,0,0,0,0,0,0,0,0,0,0,0,0,0,0,0,0,0,0,0,0,0,0,0,0,0,0,0,0,0,0,0,0,0,0,0,0,0,0,0,0,0,0,0,0,0,0,0,0,0,0,0,0,0,0,0,0,0,0,0,0,0,0,0,0,0,0,0,0,0,0,0,0,0,0,0,0,0,0,0,0,0,0,0,0,0,0,0,0,0,0,0,0,0,0,0,0,0,0,0,0,0,0,0,0,0,0,0,0,
0,0,0,0,0,0,0,0,0,0,0,0,0,0,0,0,0,0,0,0,0,0,0,0,0,0,0,0,0,0,0,0,0,0,0,0,0,0,0,0,0,0,0,0,0,0,0,0,0,0,0,0,0,0,0,0,0,0,0,0,0,0,0,0,0,0,0,0,0,0,0,0,0,0,0,0,0,0,0,0,0,0,0,0,0,0,0,0,0,0,0,0,0,0,0,0,0,0,0,0,0,0,0,0,0,0,0,0,0,0,0,0,0,0,0,0,0,0,0,0,0,0,0,0,0,0,0,0,0,0,0,0,0,0,0,0,0,0,0,0,0,0,0,0,0,0,0,0,0,0,0,0,0,0,0,0,0,0,0,0,0,0,0,0,0,0,0,0,0,0,0,0,0,0,0,0,0,0,0,0,0,0,0,0,0,0,0,0,0,0,0,0,0,0,0,0,0,0,0,0,0,0,0,0,0,0,0,0,0,0,0,0,0,0,0,0,0,0,0,0,0,0,0,0,0,0,0,0,0,0,0,0,0,0,0,0,0,0,0,0,0,0,0,0,0,0,0,0,0,0,0,0,0,0,0,0,0,0,0,0,0,0,0,0,0,0,0,0,0,0,0,0,0,0,0,0,0,0,0,0,0,0,0,0,0,0,0,0,0,0,0,0,0,0,0,0,0,0,0,0,0,0,0,0,0,0,0,0,
76681,76681,76682,76683,76684,76685,76686,76687,76688,76689,76690,76691,76692,76693,76694,76695,76696,76697,76698,76699,76688,76689,76690,76691,76692,76693,76694,76695,76696,76697,76698,76699,76681,76681,76682,76683,76684,76685,76686,76687,76688,76689,76690,76691,76692,76693,76694,76695,76696,76697,76698,76699,76700,76701,76702,76703,76704,76705,76706,76707,76681,76681,76682,76683,76684,76685,76686,76687,76688,76689,76690,76691,76692,76693,76694,76695,76696,76697,76698,76699,76700,76701,76702,76703,76704,76705,76706,76707,76708,76709,76710,76711,76712,76713,76714,76715,76716,76717,76718,76719,76720,76721,76681,76682,76683,76684,76685,76686,76687,76688,76689,76690,76691,76692,76693,76694,76695,76696,76697,76698,76699,76700,76701,76702,76703,76704,76705,76706,76707,76708,76709,79069,79069,79069,79069,79069,79069,79069,79069,79069,79069,79069,79069,79069,79069,79069,79069,79069,79069,79069,79069,79069,79069,79069,79069,79069,76735,76736,76737,76738,76739,76740,76741,76742,76743,76744,76745,76746,76747,76748,76749,76750,76751,76752,76753,76726,76727,76728,76729,76771,76772,76773,76774,76775,76776,76777,76778,76779,76780,76781,76782,76783,76784,76785,76786,76681,76682,76683,76684,76685,76686,76687,76688,76689,76690,76691,76692,76693,76694,76695,76696,76697,76698,76699,76700,76701,76702,76703,76704,76705,76706,76707,76708,76709,76710,76711,76712,76713,76714,76715,76716,76717,76718,76719,76720,76721,76722,76723,76724,76725,76726,76727,76728,76729,76730,76731,76732,76733,76734,76735,76681,76682,76683,76684,76685,76686,76687,76688,76689,76690,76691,76692,76693,76694,76695,76696,76697,76698,76699,76700,76701,76702,76703,76704,76705,76706,76707,76708,76709,76710,76711,76712,76713,76714,76715,76716,76717,76718,76719,76681,76682,76683,76684,76685,76686,76687,76561,76561,76562,76563,76564,76565,76561,76561,76562,76563,76564,76565,
76801,76801,76802,76803,76804,76805,76806,76807,76808,76809,76810,76811,76812,76813,76814,76815,76816,76817,76818,76819,76808,76809,76810,76811,76812,76813,76814,76815,76816,76817,76818,76819,76801,76801,76802,76803,76804,76805,76806,76807,76808,76809,76810,76811,76812,76813,76814,76815,76816,76817,76818,76819,76820,76821,76822,76823,76824,76825,76826,76827,76801,76801,76802,76803,76804,76805,76806,76807,76808,76809,76810,76811,76812,76813,76814,76815,76816,76817,76818,76819,76820,76821,76822,76823,76824,76825,76826,76827,76828,76829,76830,76831,76832,76833,76834,76835,76836,76837,76838,76839,76840,76841,76801,76802,76803,76804,76805,76806,76807,76808,76809,76810,76811,76812,76813,76814,76815,76816,76817,76818,76819,76820,76821,76822,76823,76824,76825,76826,76827,76828,76829,76830,76831,76832,76833,76834,76835,76836,76837,76838,76839,76840,76841,76842,76843,76844,76845,76846,76847,76848,76849,76850,76851,76852,76853,76854,79069,79069,79069,79069,79069,79069,79069,79069,79069,79069,79069,79069,79069,79069,79069,79069,79069,79069,79069,79069,79069,79069,79069,79069,79069,79069,79069,79069,79069,79069,79069,79069,79069,79069,79069,79069,79069,79069,79069,79069,79069,79069,79069,79069,79069,79069,79069,79069,79069,79069,79069,79069,79069,76815,76816,76817,76818,76819,76820,76821,76822,76823,76824,76825,76826,76827,76828,76829,76830,76831,76832,76833,76834,76835,76836,76837,76838,76839,76840,76841,76842,76843,76844,76845,76846,76847,76848,76849,76850,76851,76852,76853,76854,76855,76801,76802,76803,76804,76805,76806,76807,76808,76809,76810,76811,76812,76813,76814,76815,76816,76817,76818,76819,76820,76821,76822,76823,76824,76825,76826,76827,76828,76829,76830,76831,76832,76833,76834,76835,76836,76837,76838,76839,76801,76802,76803,76804,76805,76806,76807,76681,76681,76682,76683,76684,76685,76681,76681,76682,76683,76684,76685,
76921,76921,76922,76923,76924,76925,76926,76927,76928,76929,76930,76931,76932,76933,76934,76935,76936,76937,76938,76939,76928,76929,76930,76931,76932,76933,76934,76935,76936,76937,76938,76939,76921,76921,76922,76923,76924,76925,76926,76927,76928,76929,76930,76931,76932,76933,76934,76935,76936,76937,76938,76939,76940,76941,76942,76943,76944,76945,76946,76947,76921,76921,76922,76923,76924,76925,76926,76927,76928,76929,76930,76931,76932,76933,76934,76935,76936,76937,76938,76939,76940,76941,76942,76943,76944,76945,76946,76947,76948,76949,76950,76951,76952,76953,76954,76955,76956,76957,76958,76959,76960,76961,76921,76922,76923,76924,76925,76926,76927,76928,76929,76930,76931,76932,76933,76934,76935,76936,76937,76938,76939,76940,76941,76942,76943,76944,76945,76946,76947,76948,76949,76950,76951,76952,76953,76954,76955,76956,76957,76958,76959,76960,76961,76962,76963,76964,76965,76966,76967,76968,76969,76970,76971,76972,76973,76974,76975,76976,76977,76978,76979,76980,76981,76982,76983,76984,76985,76986,76987,76988,76989,76990,76991,76992,76993,76966,76967,76968,76969,77011,77012,77013,77014,77015,77016,77017,77018,77019,77020,77021,77022,77023,77024,77025,77026,76921,76922,76923,76924,76925,76926,76927,76928,76929,76930,76931,76932,76933,76934,76935,76936,76937,76938,76939,76940,76941,76942,76943,76944,76945,76946,76947,76948,76949,76950,76951,76952,76953,76954,76955,76956,76957,76958,76959,76960,76961,76962,76963,76964,76965,76966,76967,76968,76969,76970,76971,76972,76973,76974,76975,76921,76922,76923,76924,76925,76926,76927,76928,76929,76930,76931,76932,76933,76934,76935,76936,76937,76938,76939,76940,76941,76942,76943,76944,76945,76946,76947,76948,76949,76950,76951,76952,76953,76954,76955,76956,76957,76958,76959,76921,76922,76923,76924,76925,76926,76927,76801,76801,76802,76803,76804,76805,76801,76801,76802,76803,76804,76805,
77041,77041,77042,77043,77044,77045,77046,77047,77048,77049,77050,77051,77052,77053,77054,77055,77056,77057,77058,77059,77048,77049,77050,77051,77052,77053,77054,77055,77056,77057,77058,77059,77041,77041,77042,77043,77044,77045,77046,77047,77048,77049,77050,77051,77052,77053,77054,77055,77056,77057,77058,77059,77060,77061,77062,77063,77064,77065,77066,77067,77041,77041,77042,77043,77044,77045,77046,77047,77048,77049,77050,77051,77052,77053,77054,77055,77056,77057,77058,77059,77060,77061,77062,77063,77064,77065,77066,77067,77068,77069,77070,77071,77072,77073,77074,77075,77076,77077,77078,77079,77080,77081,77041,77042,77043,77044,77045,77046,77047,77048,77049,77050,77051,77052,77053,77054,77055,77056,77057,77058,77059,77060,77061,77062,77063,77064,77065,77066,77067,77068,77069,77070,77071,77072,77073,77074,77075,77076,77077,77078,77079,77080,77081,77082,77083,77084,77085,77086,77087,77088,77089,77090,77091,77092,77093,77094,77095,77096,77097,77098,77099,77100,77101,77102,77103,77104,77105,77106,77107,77108,77109,77110,77111,77112,77113,77086,77087,77088,77089,77131,77132,77133,77134,77135,77136,77137,77138,77139,77140,77141,77142,77143,77144,77145,77146,77041,77042,77043,77044,77045,77046,77047,77048,77049,77050,77051,77052,77053,77054,77055,77056,77057,77058,77059,77060,77061,77062,77063,77064,77065,77066,77067,77068,77069,77070,77071,77072,77073,77074,77075,77076,77077,77078,77079,77080,77081,77082,77083,77084,77085,77086,77087,77088,77089,77090,77091,77092,77093,77094,77095,77041,77042,77043,77044,77045,77046,77047,77048,77049,77050,77051,77052,77053,77054,77055,77056,77057,77058,77059,77060,77061,77062,77063,77064,77065,77066,77067,77068,77069,77070,77071,77072,77073,77074,77075,77076,77077,77078,77079,77041,77042,77043,77044,77045,77046,77047,76921,76921,76922,76923,76924,76925,76921,76921,76922,76923,76924,76925,
77161,77161,77162,77163,77164,77165,77166,77167,77168,77169,77170,77171,77172,77173,77174,77175,77176,77177,77178,77179,77168,77169,77170,77171,77172,77173,77174,77175,77176,77177,77178,77179,77161,77161,77162,77163,77164,77165,77166,77167,77168,77169,77170,77171,77172,77173,77174,77175,77176,77177,77178,77179,77180,77181,77182,77183,77184,77185,77186,77187,77161,77161,77162,77163,77164,77165,77166,77167,77168,77169,77170,77171,77172,77173,77174,77175,77176,77177,77178,77179,77180,77181,77182,77183,77184,77185,77186,77187,77188,77189,77190,77191,77192,77193,77194,77195,77196,77197,77198,77199,77200,77201,77161,77162,77163,77164,77165,77166,77167,77168,77169,77170,77171,77172,77173,77174,77175,77176,77177,77178,77179,77180,77181,77182,77183,77184,77185,77186,77187,77188,77189,77190,77191,77192,77193,77194,77195,77196,77197,77198,77199,77200,77201,77202,77203,77204,77205,77206,77207,77208,77209,77210,77211,77212,77213,77214,77215,77216,77217,77218,77219,77220,77221,77222,77223,77224,77225,77226,77227,77228,77229,77230,77231,77232,77233,77206,77207,77208,77209,77251,77252,77253,77254,77255,77256,77257,77258,77259,77260,77261,77262,77263,77264,77265,77266,77161,77162,77163,77164,77165,77166,77167,77168,77169,77170,77171,77172,77173,77174,77175,77176,77177,77178,77179,77180,77181,77182,77183,77184,77185,77186,77187,77188,77189,77190,77191,77192,77193,77194,77195,77196,77197,77198,77199,77200,77201,77202,77203,77204,77205,77206,77207,77208,77209,77210,77211,77212,77213,77214,77215,77161,77162,77163,77164,77165,77166,77167,77168,77169,77170,77171,77172,77173,77174,77175,77176,77177,77178,77179,77180,77181,77182,77183,77184,77185,77186,77187,77188,77189,77190,77191,77192,77193,77194,77195,77196,77197,77198,77199,77161,77162,77163,77164,77165,77166,77167,77041,77041,77042,77043,77044,77045,77041,77041,77042,77043,77044,77045,
77281,77281,77282,77283,77284,77285,77286,77287,77288,77289,77290,77291,77292,77293,77294,77295,77296,77297,77298,77299,77288,77289,77290,77291,77292,77293,77294,77295,77296,77297,77298,77299,77281,77281,77282,77283,77284,77285,77286,77287,77288,77289,77290,77291,77292,77293,77294,77295,77296,77297,77298,77299,77300,77301,77302,77303,77304,77305,77306,77307,77281,77281,77282,77283,77284,77285,77286,77287,77288,77289,77290,77291,77292,77293,77294,77295,77296,77297,77298,77299,77300,77301,77302,77303,77304,77305,77306,77307,77308,77309,77310,77311,77312,77313,77314,77315,77316,77317,77318,77319,77320,77321,77281,77282,77283,77284,77285,77286,77287,77288,77289,77290,77291,77292,77293,77294,77295,77296,77297,77298,77299,77300,77301,77302,77303,77304,77305,77306,77307,77308,77309,77310,77311,77312,77313,77314,77315,77316,77317,77318,77319,77320,77321,77322,77323,77324,77325,77326,77327,77328,77329,77330,77331,77332,77333,77334,77335,77336,77337,77338,77339,77340,77341,77342,77343,77344,77345,77346,77347,77348,77349,77350,77351,77352,77353,77326,77327,77328,77329,77371,77372,77373,77374,77375,77376,77377,77378,77379,77380,77381,77382,77383,77384,77385,77386,77281,77282,77283,77284,77285,77286,77287,77288,77289,77290,77291,77292,77293,77294,77295,77296,77297,77298,77299,77300,77301,77302,77303,77304,77305,77306,77307,77308,77309,77310,77311,77312,77313,77314,77315,77316,77317,77318,77319,77320,77321,77322,77323,77324,77325,77326,77327,77328,77329,77330,77331,77332,77333,77334,77335,77281,77282,77283,77284,77285,77286,77287,77288,77289,77290,77291,77292,77293,77294,77295,77296,77297,77298,77299,77300,77301,77302,77303,77304,77305,77306,77307,77308,77309,77310,77311,77312,77313,77314,77315,77316,77317,77318,77319,77281,77282,77283,77284,77285,77286,77287,77161,77161,77162,77163,77164,77165,77161,77161,77162,77163,77164,77165,
77401,77401,77402,77403,77404,77405,77406,77407,77408,77409,77410,77411,77412,77413,77414,77415,77416,77417,77418,77419,77408,77409,77410,77411,77412,77413,77414,77415,77416,77417,77418,77419,77401,77401,77402,77403,77404,77405,77406,77407,77408,77409,77410,77411,77412,77413,77414,77415,77416,77417,77418,77419,77420,77421,77422,77423,77424,77425,77426,77427,77401,77401,77402,77403,77404,77405,77406,77407,77408,77409,77410,77411,77412,77413,77414,77415,77416,77417,77418,77419,77420,77421,77422,77423,77424,77425,77426,77427,77428,77429,77430,77431,77432,77433,77434,77435,77436,77437,77438,77439,77440,77441,77401,77402,77403,77404,77405,77406,77407,77408,77409,77410,77411,77412,77413,77414,77415,77416,77417,77418,77419,77420,77421,77422,77423,77424,77425,77426,77427,77428,77429,77430,77431,77432,77433,77434,77435,77436,77437,77438,77439,77440,77441,77442,77443,77444,77445,77446,77447,77448,77449,77450,77451,77452,77453,77454,77455,77456,77457,77458,77459,77460,77461,77462,77463,77464,77465,77466,77467,77468,77469,77470,77471,77472,77473,77446,77447,77448,77449,77491,77492,77493,77494,77495,77496,77497,77498,77499,77500,77501,77502,77503,77504,77505,77506,77401,77402,77403,77404,77405,77406,77407,77408,77409,77410,77411,77412,77413,77414,77415,77416,77417,77418,77419,77420,77421,77422,77423,77424,77425,77426,77427,77428,77429,77430,77431,77432,77433,77434,77435,77436,77437,77438,77439,77440,77441,77442,77443,77444,77445,77446,77447,77448,77449,77450,77451,77452,77453,77454,77455,77401,77402,77403,77404,77405,77406,77407,77408,77409,77410,77411,77412,77413,77414,77415,77416,77417,77418,77419,77420,77421,77422,77423,77424,77425,77426,77427,77428,77429,77430,77431,77432,77433,77434,77435,77436,77437,77438,77439,77401,77402,77403,77404,77405,77406,77407,77281,77281,77282,77283,77284,77285,77281,77281,77282,77283,77284,77285,
77521,77521,77522,77523,77524,77525,77526,77527,77528,77529,77530,77531,77532,77533,77534,77535,77536,77537,77538,77539,77528,77529,77530,77531,77532,77533,77534,77535,77536,77537,77538,77539,77521,77521,77522,77523,77524,77525,77526,77527,77528,77529,77530,77531,77532,77533,77534,77535,77536,77537,77538,77539,77540,77541,77542,77543,77544,77545,77546,77547,77521,77521,77522,77523,77524,77525,77526,77527,77528,77529,77530,77531,77532,77533,77534,77535,77536,77537,77538,77539,77540,77541,77542,77543,77544,77545,77546,77547,77548,77549,77550,77551,77552,77553,77554,77555,77556,77557,77558,77559,77560,77561,77521,77522,77523,77524,77525,77526,77527,77528,77529,77530,77531,77532,77533,77534,77535,77536,77537,77538,77539,77540,77541,77542,77543,77544,77545,77546,77547,77548,77549,77550,77551,77552,77553,77554,77555,77556,77557,77558,77559,77560,77561,77562,77563,77564,77565,77566,77567,77568,77569,77570,77571,77572,77573,77574,77575,77576,77577,77578,77579,77580,77581,77582,77583,77584,77585,77586,77587,77588,77589,77590,77591,77592,77593,77566,77567,77568,77569,77611,77612,77613,77614,77615,77616,77617,77618,77619,77620,77621,77622,77623,77624,77625,77626,77521,77522,77523,77524,77525,77526,77527,77528,77529,77530,77531,77532,77533,77534,77535,77536,77537,77538,77539,77540,77541,77542,77543,77544,77545,77546,77547,77548,77549,77550,77551,77552,77553,77554,77555,77556,77557,77558,77559,77560,77561,77562,77563,77564,77565,77566,77567,77568,77569,77570,77571,77572,77573,77574,77575,77521,77522,77523,77524,77525,77526,77527,77528,77529,77530,77531,77532,77533,77534,77535,77536,77537,77538,77539,77540,77541,77542,77543,77544,77545,77546,77547,77548,77549,77550,77551,77552,77553,77554,77555,77556,77557,77558,77559,77521,77522,77523,77524,77525,77526,77527,77401,77401,77402,77403,77404,77405,77401,77401,77402,77403,77404,77405,
77641,77641,77642,77643,77644,77645,77646,77647,77648,77649,77650,77651,77652,77653,77654,77655,77656,77657,77658,77659,77648,77649,77650,77651,77652,77653,77654,77655,77656,77657,77658,77659,77641,77641,77642,77643,77644,77645,77646,77647,77648,77649,77650,77651,77652,77653,77654,77655,77656,77657,77658,77659,77660,77661,77662,77663,77664,77665,77666,77667,77641,77641,77642,77643,77644,77645,77646,77647,77648,77649,77650,77651,77652,77653,77654,77655,77656,77657,77658,77659,77660,77661,77662,77663,77664,77665,77666,77667,77668,77669,77670,77671,77672,77673,77674,77675,77676,77677,77678,77679,77680,77681,77641,77642,77643,77644,77645,77646,77647,77648,77649,77650,77651,77652,77653,77654,77655,77656,77657,77658,77659,77660,77661,77662,77663,77664,77665,77666,77667,77668,77669,77670,77671,77672,77673,77674,77675,77676,77677,77678,77679,77680,77681,77682,77683,77684,77685,77686,77687,77688,77689,77690,77691,77692,77693,77694,77695,77696,77697,77698,77699,77700,77701,77702,77703,77704,77705,77706,77707,77708,77709,77710,77711,77712,77713,77686,77687,77688,77689,77731,77732,77733,77734,77735,77736,77737,77738,77739,77740,77741,77742,77743,77744,77745,77746,77641,77642,77643,77644,77645,77646,77647,77648,77649,77650,77651,77652,77653,77654,77655,77656,77657,77658,77659,77660,77661,77662,77663,77664,77665,77666,77667,77668,77669,77670,77671,77672,77673,77674,77675,77676,77677,77678,77679,77680,77681,77682,77683,77684,77685,77686,77687,77688,77689,77690,77691,77692,77693,77694,77695,77641,77642,77643,77644,77645,77646,77647,77648,77649,77650,77651,77652,77653,77654,77655,77656,77657,77658,77659,77660,77661,77662,77663,77664,77665,77666,77667,77668,77669,77670,77671,77672,77673,77674,77675,77676,77677,77678,77679,77641,77642,77643,77644,77645,77646,77647,76561,76561,76562,76563,76564,76565,76561,76561,76562,76563,76564,76565,
76561,76561,76562,76563,76564,76565,76566,76567,76568,76569,76570,76571,76572,76573,76574,76575,76576,76577,76578,76579,76568,76569,76570,76571,76572,76573,76574,76575,76576,76577,76578,76579,76561,76561,76562,76563,76564,76565,76566,76567,76568,76569,76570,76571,76572,76573,76574,76575,76576,76577,76578,76579,76580,76581,76582,76583,76584,76585,76586,76587,76588,76589,76590,76591,76592,76593,76594,76595,76596,76597,76598,76599,76600,76601,76561,76562,76563,76564,76565,76566,76567,76568,76569,76570,76571,76572,76573,76574,76575,76576,76577,76578,76579,76580,76581,76582,79069,79069,79069,79069,79069,79069,79069,76590,76591,76592,76593,76594,76595,76596,76597,76598,76599,76600,76601,76602,76603,76604,76605,76606,76607,76608,76609,76610,76611,76612,76613,76614,76615,76616,76617,76618,76619,76620,76621,76622,76623,76624,76625,76626,76627,76628,76629,76630,76631,76632,76633,76606,76607,76608,76609,76651,76652,76653,76654,76655,76656,76657,76658,76659,76660,76661,76662,76663,76664,76665,76666,76561,76562,76563,76564,76565,76566,76567,76568,76569,76570,76571,76572,76573,76574,76575,76576,76577,76578,76579,76580,76581,76582,76583,76584,76585,76586,76587,76588,76589,76590,76591,76592,76593,76594,76595,76596,76597,76598,76599,76600,76601,76602,76603,76604,76605,76606,76607,76608,76609,76610,76611,76612,76613,76614,76615,76561,76562,76563,76564,76565,76566,76567,76568,76569,76570,76571,76572,76573,76574,76575,76576,76577,76578,76579,76580,76581,76582,76583,76584,76585,76586,76587,76588,76589,76590,76591,76592,76593,76594,76595,76596,76597,76598,76599,76561,76562,76563,76564,76565,76566,76567,76568,76569,76570,76571,76572,76573,76574,76575,76576,76577,76578,76579,76580,76581,76582,76583,76584,76585,76569,76570,76571,76572,76573,76574,76575,76576,76577,76578,76681,76681,76682,76683,76684,76685,76681,76681,76682,76683,76684,76685,
76681,76681,76682,76683,76684,76685,76686,76687,76688,76689,76690,76691,76692,76693,76694,76695,76696,76697,76698,76699,76688,76689,76690,76691,76692,76693,76694,76695,76696,76697,76698,76699,76681,76681,76682,76683,76684,76685,76686,76687,76688,76689,76690,76691,76692,76693,76694,76695,76696,76697,76698,76699,76700,76701,76702,76703,76704,76705,76706,76707,76708,76709,76710,76711,76712,76713,76714,76715,76716,76717,76718,76719,76720,76721,76681,76682,76683,76684,76685,76686,76687,76688,76689,76690,76691,76692,76693,76694,76695,76696,76697,76698,76699,76700,76701,76702,76703,76704,76705,76706,76707,76708,76709,79069,79069,79069,79069,79069,79069,79069,79069,79069,79069,79069,79069,79069,79069,79069,79069,79069,79069,79069,79069,79069,79069,79069,79069,79069,76735,76736,76737,76738,76739,76740,76741,76742,76743,76744,76745,76746,76747,76748,76749,76750,76751,76752,76753,76726,76727,76728,76729,76771,76772,76773,76774,76775,76776,76777,76778,76779,76780,76781,76782,76783,76784,76785,76786,76681,76682,76683,76684,76685,76686,76687,76688,76689,76690,76691,76692,76693,76694,76695,76696,76697,76698,76699,76700,76701,76702,76703,76704,76705,76706,76707,76708,76709,76710,76711,76712,76713,76714,76715,76716,76717,76718,76719,76720,76721,76722,76723,76724,76725,76726,76727,76728,76729,76730,76731,76732,76733,76734,76735,76681,76682,76683,76684,76685,76686,76687,76688,76689,76690,76691,76692,76693,76694,76695,76696,76697,76698,76699,76700,76701,76702,76703,76704,76705,76706,76707,76708,76709,76710,76711,76712,76713,76714,76715,76716,76717,76718,76719,76681,76682,76683,76684,76685,76686,76687,76688,76689,76690,76691,76692,76693,76694,76695,76696,76697,76698,76699,76700,76701,76702,76703,76704,76705,76689,76690,76691,76692,76693,76694,76695,76696,76697,76698,76801,76801,76802,76803,76804,76805,76801,76801,76802,76803,76804,76805,
76801,76801,76802,76803,76804,76805,76806,76807,76808,76809,76810,76811,76812,76813,76814,76815,76816,76817,76818,76819,76808,76809,76810,76811,76812,76813,76814,76815,76816,76817,76818,76819,76801,76801,76802,76803,76804,76805,76806,76807,76808,76809,76810,76811,76812,76813,76814,76815,76816,76817,76818,76819,76820,76821,76822,76823,76824,76825,76826,76827,76828,76829,76830,76831,76832,76833,76834,76835,76836,76837,76838,76839,76840,76841,76801,76802,76803,76804,76805,76806,76807,76808,76809,76810,76811,76812,76813,76814,76815,76816,76817,76818,76819,76820,76821,76822,76823,76824,76825,76826,76827,76828,76829,76830,76831,76832,76833,76834,76835,76836,76837,76838,76839,76840,76841,76842,76843,76844,76845,76846,76847,76848,76849,76850,76851,76852,76853,76854,79069,79069,79069,79069,79069,79069,79069,79069,79069,79069,79069,79069,79069,79069,79069,79069,79069,79069,79069,79069,79069,79069,79069,79069,79069,79069,79069,79069,79069,79069,79069,79069,79069,79069,79069,79069,79069,79069,79069,79069,79069,79069,79069,79069,79069,79069,79069,79069,79069,79069,79069,79069,79069,76815,76816,76817,76818,76819,76820,76821,76822,76823,76824,76825,76826,76827,76828,76829,76830,76831,76832,76833,76834,76835,76836,76837,76838,76839,76840,76841,76842,76843,76844,76845,76846,76847,76848,76849,76850,76851,76852,76853,76854,76855,76801,76802,76803,76804,76805,76806,76807,76808,76809,76810,76811,76812,76813,76814,76815,76816,76817,76818,76819,76820,76821,76822,76823,76824,76825,76826,76827,76828,76829,76830,76831,76832,76833,76834,76835,76836,76837,76838,76839,76801,76802,76803,76804,76805,76806,76807,76808,76809,76810,76811,76812,76813,76814,76815,76816,76817,76818,76819,76820,76821,76822,76823,76824,76825,76809,76810,76811,76812,76813,76814,76815,76816,76817,76818,76921,76921,76922,76923,76924,76925,76921,76921,76922,76923,76924,76925,
76921,76921,76922,76923,76924,76925,76926,76927,76928,76929,76930,76931,76932,76933,76934,76935,76936,76937,76938,76939,76928,76929,76930,76931,76932,76933,76934,76935,76936,76937,76938,76939,76921,76921,76922,76923,76924,76925,76926,76927,76928,76929,76930,76931,76932,76933,76934,76935,76936,76937,76938,76939,76940,76941,76942,76943,76944,76945,76946,76947,76948,76949,76950,76951,76952,76953,76954,76955,76956,76957,76958,76959,76960,76961,76921,76922,76923,76924,76925,76926,76927,76928,76929,76930,76931,76932,76933,76934,76935,76936,76937,76938,76939,76940,76941,76942,76943,76944,76945,76946,76947,76948,76949,76950,76951,76952,76953,76954,76955,76956,76957,76958,76959,76960,76961,76962,76963,76964,76965,76966,76967,76968,76969,76970,76971,76972,76973,76974,76975,76976,76977,76978,76979,76980,76981,76982,76983,76984,76985,76986,76987,76988,76989,76990,76991,76992,76993,76966,76967,76968,76969,77011,77012,77013,77014,77015,77016,77017,77018,77019,77020,77021,77022,77023,77024,77025,77026,76921,76922,76923,76924,76925,76926,76927,76928,76929,76930,76931,76932,76933,76934,76935,76936,76937,76938,76939,76940,76941,76942,76943,76944,76945,76946,76947,76948,76949,76950,76951,76952,76953,76954,76955,76956,76957,76958,76959,76960,76961,76962,76963,76964,76965,76966,76967,76968,76969,76970,76971,76972,76973,76974,76975,76921,76922,76923,76924,76925,76926,76927,76928,76929,76930,76931,76932,76933,76934,76935,76936,76937,76938,76939,76940,76941,76942,76943,76944,76945,76946,76947,76948,76949,76950,76951,76952,76953,76954,76955,76956,76957,76958,76959,76921,76922,76923,76924,76925,76926,76927,76928,76929,76930,76931,76932,76933,76934,76935,76936,76937,76938,76939,76940,76941,76942,76943,76944,76945,76929,76930,76931,76932,76933,76934,76935,76936,76937,76938,77041,77041,77042,77043,77044,77045,77041,77041,77042,77043,77044,77045,
77041,77041,77042,77043,77044,77045,77046,77047,77048,77049,77050,77051,77052,77053,77054,77055,77056,77057,77058,77059,77048,77049,77050,77051,77052,77053,77054,77055,77056,77057,77058,77059,77041,77041,77042,77043,77044,77045,77046,77047,77048,77049,77050,77051,77052,77053,77054,77055,77056,77057,77058,77059,77060,77061,77062,77063,77064,77065,77066,77067,77068,77069,77070,77071,77072,77073,77074,77075,77076,77077,77078,77079,77080,77081,77041,77042,77043,77044,77045,77046,77047,77048,77049,77050,77051,77052,77053,77054,77055,77056,77057,77058,77059,77060,77061,77062,77063,77064,77065,77066,77067,77068,77069,77070,77071,77072,77073,77074,77075,77076,77077,77078,77079,77080,77081,77082,77083,77084,77085,77086,77087,77088,77089,77090,77091,77092,77093,77094,77095,77096,77097,77098,77099,77100,77101,77102,77103,77104,77105,77106,77107,77108,77109,77110,77111,77112,77113,77086,77087,77088,77089,77131,77132,77133,77134,77135,77136,77137,77138,77139,77140,77141,77142,77143,77144,77145,77146,77041,77042,77043,77044,77045,77046,77047,77048,77049,77050,77051,77052,77053,77054,77055,77056,77057,77058,77059,77060,77061,77062,77063,77064,77065,77066,77067,77068,77069,77070,77071,77072,77073,77074,77075,77076,77077,77078,77079,77080,77081,77082,77083,77084,77085,77086,77087,77088,77089,77090,77091,77092,77093,77094,77095,77041,77042,77043,77044,77045,77046,77047,77048,77049,77050,77051,77052,77053,77054,77055,77056,77057,77058,77059,77060,77061,77062,77063,77064,77065,77066,77067,77068,77069,77070,77071,77072,77073,77074,77075,77076,77077,77078,77079,77041,77042,77043,77044,77045,77046,77047,77048,77049,77050,77051,77052,77053,77054,77055,77056,77057,77058,77059,77060,77061,77062,77063,77064,77065,77049,77050,77051,77052,77053,77054,77055,77056,77057,77058,77161,77161,77162,77163,77164,77165,77161,77161,77162,77163,77164,77165,
77161,77161,77162,77163,77164,77165,77166,77167,77168,77169,77170,77171,77172,77173,77174,77175,77176,77177,77178,77179,77168,77169,77170,77171,77172,77173,77174,77175,77176,77177,77178,77179,77161,77161,77162,77163,77164,77165,77166,77167,77168,77169,77170,77171,77172,77173,77174,77175,77176,77177,77178,77179,77180,77181,77182,77183,77184,77185,77186,77187,77188,77189,77190,77191,77192,77193,77194,77195,77196,77197,77198,77199,77200,77201,77161,77162,77163,77164,77165,77166,77167,77168,77169,77170,77171,77172,77173,77174,77175,77176,77177,77178,77179,77180,77181,77182,77183,77184,77185,77186,77187,77188,77189,77190,77191,77192,77193,77194,77195,77196,77197,77198,77199,77200,77201,77202,77203,77204,77205,77206,77207,77208,77209,77210,77211,77212,77213,77214,77215,77216,77217,77218,77219,77220,77221,77222,77223,77224,77225,77226,77227,77228,77229,77230,77231,77232,77233,77206,77207,77208,77209,77251,77252,77253,77254,77255,77256,77257,77258,77259,77260,77261,77262,77263,77264,77265,77266,77161,77162,77163,77164,77165,77166,77167,77168,77169,77170,77171,77172,77173,77174,77175,77176,77177,77178,77179,77180,77181,77182,77183,77184,77185,77186,77187,77188,77189,77190,77191,77192,77193,77194,77195,77196,77197,77198,77199,77200,77201,77202,77203,77204,77205,77206,77207,77208,77209,77210,77211,77212,77213,77214,77215,77161,77162,77163,77164,77165,77166,77167,77168,77169,77170,77171,77172,77173,77174,77175,77176,77177,77178,77179,77180,77181,77182,77183,77184,77185,77186,77187,77188,77189,77190,77191,77192,77193,77194,77195,77196,77197,77198,77199,77161,77162,77163,77164,77165,77166,77167,77168,77169,77170,77171,77172,77173,77174,77175,77176,77177,77178,77179,77180,77181,77182,77183,77184,77185,77169,77170,77171,77172,77173,77174,77175,77176,77177,77178,77281,77281,77282,77283,77284,77285,77281,77281,77282,77283,77284,77285,
77281,77281,77282,77283,77284,77285,77286,77287,77288,77289,77290,77291,77292,77293,77294,77295,77296,77297,77298,77299,77288,77289,77290,77291,77292,77293,77294,77295,77296,77297,77298,77299,77281,77281,77282,77283,77284,77285,77286,77287,77288,77289,77290,77291,77292,77293,77294,77295,77296,77297,77298,77299,77300,77301,77302,77303,77304,77305,77306,77307,77308,77309,77310,77311,77312,77313,77314,77315,77316,77317,77318,77319,77320,77321,77281,77282,77283,77284,77285,77286,77287,77288,77289,77290,77291,77292,77293,77294,77295,77296,77297,77298,77299,77300,77301,77302,77303,77304,77305,77306,77307,77308,77309,77310,77311,77312,77313,77314,77315,77316,77317,77318,77319,77320,77321,77322,77323,77324,77325,77326,77327,77328,77329,77330,77331,77332,77333,77334,77335,77336,77337,77338,77339,77340,77341,77342,77343,77344,77345,77346,77347,77348,77349,77350,77351,77352,77353,77326,77327,77328,77329,77371,77372,77373,77374,77375,77376,77377,77378,77379,77380,77381,77382,77383,77384,77385,77386,77281,77282,77283,77284,77285,77286,77287,77288,77289,77290,77291,77292,77293,77294,77295,77296,77297,77298,77299,77300,77301,77302,77303,77304,77305,77306,77307,77308,77309,77310,77311,77312,77313,77314,77315,77316,77317,77318,77319,77320,77321,77322,77323,77324,77325,77326,77327,77328,77329,77330,77331,77332,77333,77334,77335,77281,77282,77283,77284,77285,77286,77287,77288,77289,77290,77291,77292,77293,77294,77295,77296,77297,77298,77299,77300,77301,77302,77303,77304,77305,77306,77307,77308,77309,77310,77311,77312,77313,77314,77315,77316,77317,77318,77319,77281,77282,77283,77284,77285,77286,77287,77288,77289,77290,77291,77292,77293,77294,77295,77296,77297,77298,77299,77300,77301,77302,77303,77304,77305,77289,77290,77291,77292,77293,77294,77295,77296,77297,77298,77401,77401,77402,77403,77404,77405,77401,77401,77402,77403,77404,77405,
77401,77401,77402,77403,77404,77405,77406,77407,77408,77409,77410,77411,77412,77413,77414,77415,77416,77417,77418,77419,77408,77409,77410,77411,77412,77413,77414,77415,77416,77417,77418,77419,77401,77401,77402,77403,77404,77405,77406,77407,77408,77409,77410,77411,77412,77413,77414,77415,77416,77417,77418,77419,77420,77421,77422,77423,77424,77425,77426,77427,77428,77429,77430,77431,77432,77433,77434,77435,77436,77437,77438,77439,77440,77441,77401,77402,77403,77404,77405,77406,77407,77408,77409,77410,77411,77412,77413,77414,77415,77416,77417,77418,77419,77420,77421,77422,77423,77424,77425,77426,77427,77428,77429,77430,77431,77432,77433,77434,77435,77436,77437,77438,77439,77440,77441,77442,77443,77444,77445,77446,77447,77448,77449,77450,77451,77452,77453,77454,77455,77456,77457,77458,77459,77460,77461,77462,77463,77464,77465,77466,77467,77468,77469,77470,77471,77472,77473,77446,77447,77448,77449,77491,77492,77493,77494,77495,77496,77497,77498,77499,77500,77501,77502,77503,77504,77505,77506,77401,77402,77403,77404,77405,77406,77407,77408,77409,77410,77411,77412,77413,77414,77415,77416,77417,77418,77419,77420,77421,77422,77423,77424,77425,77426,77427,77428,77429,77430,77431,77432,77433,77434,77435,77436,77437,77438,77439,77440,77441,77442,77443,77444,77445,77446,77447,77448,77449,77450,77451,77452,77453,77454,77455,77401,77402,77403,77404,77405,77406,77407,77408,77409,77410,77411,77412,77413,77414,77415,77416,77417,77418,77419,77420,77421,77422,77423,77424,77425,77426,77427,77428,77429,77430,77431,77432,77433,77434,77435,77436,77437,77438,77439,77401,77402,77403,77404,77405,77406,77407,77408,77409,77410,77411,77412,77413,77414,77415,77416,77417,77418,77419,77420,77421,77422,77423,77424,77425,77409,77410,77411,77412,77413,77414,77415,77416,77417,77418,76561,76561,76562,76563,76564,76565,76561,76561,76562,76563,76564,76565,
77521,77521,77522,77523,77524,77525,77526,77527,77528,77529,77530,77531,77532,77533,77534,77535,77536,77537,77538,77539,77528,77529,77530,77531,77532,77533,77534,77535,77536,77537,77538,77539,77521,77521,77522,77523,77524,77525,77526,77527,77528,77529,77530,77531,77532,77533,77534,77535,77536,77537,77538,77539,77540,77541,77542,77543,77544,77545,77546,77547,77548,77549,77550,77551,77552,77553,77554,77555,77556,77557,77558,77559,77560,77561,77521,77522,77523,77524,77525,77526,77527,77528,77529,77530,77531,77532,77533,77534,77535,77536,77537,77538,77539,77540,77541,77542,77543,77544,77545,77546,77547,77548,77549,77550,77551,77552,77553,77554,77555,77556,77557,77558,77559,77560,77561,77562,77563,77564,77565,77566,77567,77568,77569,77570,77571,77572,77573,77574,77575,77576,77577,77578,77579,77580,77581,77582,77583,77584,77585,77586,77587,77588,77589,77590,77591,77592,77593,77566,77567,77568,77569,77611,77612,77613,77614,77615,77616,77617,77618,77619,77620,77621,77622,77623,77624,77625,77626,77521,77522,77523,77524,77525,77526,77527,77528,77529,77530,77531,77532,77533,77534,77535,77536,77537,77538,77539,77540,77541,77542,77543,77544,77545,77546,77547,77548,77549,77550,77551,77552,77553,77554,77555,77556,77557,77558,77559,77560,77561,77562,77563,77564,77565,77566,77567,77568,77569,77570,77571,77572,77573,77574,77575,77521,77522,77523,77524,77525,77526,77527,77528,77529,77530,77531,77532,77533,77534,77535,77536,77537,77538,77539,77540,77541,77542,77543,77544,77545,77546,77547,77548,77549,77550,77551,77552,77553,77554,77555,77556,77557,77558,77559,77521,77522,77523,77524,77525,77526,77527,77528,77529,77530,77531,77532,77533,77534,77535,77536,77537,77538,77539,77540,77541,77542,77543,77544,77545,77529,77530,77531,77532,77533,77534,77535,77536,77537,77538,76681,76681,76682,76683,76684,76685,76681,76681,76682,76683,76684,76685,
77641,77641,77642,77643,77644,77645,77646,77647,77648,77649,77650,77651,77652,77653,77654,77655,77656,77657,77658,77659,77648,77649,77650,77651,77652,77653,77654,77655,77656,77657,77658,77659,77641,77641,77642,77643,77644,77645,77646,77647,77648,77649,77650,77651,77652,77653,77654,77655,77656,77657,77658,77659,77660,77661,77662,77663,77664,77665,77666,77667,77668,77669,77670,77671,77672,77673,77674,77675,77676,77677,77678,77679,77680,77681,77641,77642,77643,77644,77645,77646,77647,77648,77649,77650,77651,77652,77653,77654,77655,77656,77657,77658,77659,77660,77661,77662,77663,77664,77665,77666,77667,77668,77669,77670,77671,77672,77673,77674,77675,77676,77677,77678,77679,77680,77681,77682,77683,77684,77685,77686,77687,77688,77689,77690,77691,77692,77693,77694,77695,77696,77697,77698,77699,77700,77701,77702,77703,77704,77705,77706,77707,77708,77709,77710,77711,77712,77713,77686,77687,77688,77689,77731,77732,77733,77734,77735,77736,77737,77738,77739,77740,77741,77742,77743,77744,77745,77746,77641,77642,77643,77644,77645,77646,77647,77648,77649,77650,77651,77652,77653,77654,77655,77656,77657,77658,77659,77660,77661,77662,77663,77664,77665,77666,77667,77668,77669,77670,77671,77672,77673,77674,77675,77676,77677,77678,77679,77680,77681,77682,77683,77684,77685,77686,77687,77688,77689,77690,77691,77692,77693,77694,77695,77641,77642,77643,77644,77645,77646,77647,77648,77649,77650,77651,77652,77653,77654,77655,77656,77657,77658,77659,77660,77661,77662,77663,77664,77665,77666,77667,77668,77669,77670,77671,77672,77673,77674,77675,77676,77677,77678,77679,77641,77642,77643,77644,77645,77646,77647,77648,77649,77650,77651,77652,77653,77654,77655,77656,77657,77658,77659,77660,77661,77662,77663,77664,77665,77649,77650,77651,77652,77653,77654,77655,77656,77657,77658,76801,76801,76802,76803,76804,76805,76801,76801,76802,76803,76804,76805,
77761,77761,77762,77763,77764,77765,77766,77767,77768,77769,77770,77771,77772,77773,77774,77775,77776,77777,77778,77779,77768,77769,77770,77771,77772,77773,77774,77775,77776,77777,77778,77779,77761,77761,77762,77763,77764,77765,77766,77767,77768,77769,77770,77771,77772,77773,77774,77775,77776,77777,77778,77779,77780,77781,77782,77783,77784,77785,77786,77787,77788,77789,77790,77791,77792,77793,77794,77795,77796,77797,77798,77799,77800,77801,77761,77762,77763,77764,77765,77766,77767,77768,77769,77770,77771,77772,77773,77774,77775,77776,77777,77778,77779,77780,77781,77782,77783,77784,77785,77786,77787,77788,77789,77790,77791,77792,77793,77794,77795,77796,77797,77798,77799,77800,77801,77802,77803,77804,77805,77806,77807,77808,77809,77810,77811,77812,77813,77814,77815,77816,77817,77818,77819,77820,77821,77822,77823,77824,77825,77826,77827,77828,77829,77830,77831,77832,77833,77806,77807,77808,77809,77851,77852,77853,77854,77855,77856,77857,77858,77859,77860,77861,77862,77863,77864,77865,77866,77761,77762,77763,77764,77765,77766,77767,77768,77769,77770,77771,77772,77773,77774,77775,77776,77777,77778,77779,77780,77781,77782,77783,77784,77785,77786,77787,77788,77789,77790,77791,77792,77793,77794,77795,77796,77797,77798,77799,77800,77801,77802,77803,77804,77805,77806,77807,77808,77809,77810,77811,77812,77813,77814,77815,77761,77762,77763,77764,77765,77766,77767,77768,77769,77770,77771,77772,77773,77774,77775,77776,77777,77778,77779,77780,77781,77782,77783,77784,77785,77786,77787,77788,77789,77790,77791,77792,77793,77794,77795,77796,77797,77798,77799,77761,77762,77763,77764,77765,77766,77767,77768,77769,77770,77771,77772,77773,77774,77775,77776,77777,77778,77779,77780,77781,77782,77783,77784,77785,77769,77770,77771,77772,77773,77774,77775,77776,77777,77778,76921,76921,76922,76923,76924,76925,76921,76921,76922,76923,76924,76925,
77881,77881,77882,77883,77884,77885,77886,77887,77888,77889,77890,77891,77892,77893,77894,77895,77896,77897,77898,77899,77888,77889,77890,77891,77892,77893,77894,77895,77896,77897,77898,77899,77881,77881,77882,77883,77884,77885,77886,77887,77888,77889,77890,77891,77892,77893,77894,77895,77896,77897,77898,77899,77900,77901,77902,77903,77904,77905,77906,77907,77908,77909,77910,77911,77912,77913,77914,77915,77916,77917,77918,77919,77920,77921,77881,77882,77883,77884,77885,77886,77887,77888,77889,77890,77891,77892,77893,77894,77895,77896,77897,77898,77899,77900,77901,77902,77903,77904,77905,77906,77907,77908,77909,77910,77911,77912,77913,77914,77915,77916,77917,77918,77919,77920,77921,77922,77923,77924,77925,77926,77927,77928,77929,77930,77931,77932,77933,77934,77935,77936,77937,77938,77939,77940,77941,77942,77943,77944,77945,77946,77947,77948,77949,77950,77951,77952,77953,77926,77927,77928,77929,77971,77972,77973,77974,77975,77976,77977,77978,77979,77980,77981,77982,77983,77984,77985,77986,77881,77882,77883,77884,77885,77886,77887,77888,77889,77890,77891,77892,77893,77894,77895,77896,77897,77898,77899,77900,77901,77902,77903,77904,77905,77906,77907,77908,77909,77910,77911,77912,77913,77914,77915,77916,77917,77918,77919,77920,77921,77922,77923,77924,77925,77926,77927,77928,77929,77930,77931,77932,77933,77934,77935,77881,77882,77883,77884,77885,77886,77887,77888,77889,77890,77891,77892,77893,77894,77895,77896,77897,77898,77899,77900,77901,77902,77903,77904,77905,77906,77907,77908,77909,77910,77911,77912,77913,77914,77915,77916,77917,77918,77919,77881,77882,77883,77884,77885,77886,77887,77888,77889,77890,77891,77892,77893,77894,77895,77896,77897,77898,77899,77900,77901,77902,77903,77904,77905,77889,77890,77891,77892,77893,77894,77895,77896,77897,77898,77041,77041,77042,77043,77044,77045,77041,77041,77042,77043,77044,77045,
78001,78001,78002,78003,78004,78005,78006,78007,78008,78009,78010,78011,78012,78013,78014,78015,78016,78017,78018,78019,78008,78009,78010,78011,78012,78013,78014,78015,78016,78017,78018,78019,78001,78001,78002,78003,78004,78005,78006,78007,78008,78009,78010,78011,78012,78013,78014,78015,78016,78017,78018,78019,78020,78021,78022,78023,78024,78025,78026,78027,78028,78029,78030,78031,78032,78033,78034,78035,78036,78037,78038,78039,78040,78041,78001,78002,78003,78004,78005,78006,78007,78008,78009,78010,78011,78012,78013,78014,78015,78016,78017,78018,78019,78020,78021,78022,78023,78024,78025,78026,78027,78028,78029,78030,78031,78032,78033,78034,78035,78036,78037,78038,78039,78040,78041,78042,78043,78044,78045,78046,78047,78048,78049,78050,78051,78052,78053,78054,78055,78056,78057,78058,78059,78060,78061,78062,78063,78064,78065,78066,78067,78068,78069,78070,78071,78072,78073,78046,78047,78048,78049,78091,78092,78093,78094,78095,78096,78097,78098,78099,78100,78101,78102,78103,78104,78105,78106,78001,78002,78003,78004,78005,78006,78007,78008,78009,78010,78011,78012,78013,78014,78015,78016,78017,78018,78019,78020,78021,78022,78023,78024,78025,78026,78027,78028,78029,78030,78031,78032,78033,78034,78035,78036,78037,78038,78039,78040,78041,78042,78043,78044,78045,78046,78047,78048,78049,78050,78051,78052,78053,78054,78055,78001,78002,78003,78004,78005,78006,78007,78008,78009,78010,78011,78012,78013,78014,78015,78016,78017,78018,78019,78020,78021,78022,78023,78024,78025,78026,78027,78028,78029,78030,78031,78032,78033,78034,78035,78036,78037,78038,78039,78001,78002,78003,78004,78005,78006,78007,78008,78009,78010,78011,78012,78013,78014,78015,78016,78017,78018,78019,78020,78021,78022,78023,78024,78025,78009,78010,78011,78012,78013,78014,78015,78016,78017,78018,77161,77161,77162,77163,77164,77165,77161,77161,77162,77163,77164,77165,
78121,78121,78122,78123,78124,78125,78126,78127,78128,78129,78130,78131,78132,78133,78134,78135,78136,78137,78138,78139,78128,78129,78130,78131,78132,78133,78134,78135,78136,78137,78138,78139,78121,78121,78122,78123,78124,78125,78126,78127,78128,78129,78130,78131,78132,78133,78134,78135,78136,78137,78138,78139,78140,78141,78142,78143,78144,78145,78146,78147,78148,78149,78150,78151,78152,78153,78154,78155,78156,78157,78158,78159,78160,78161,78121,78122,78123,78124,78125,78126,78127,78128,78129,78130,78131,78132,78133,78134,78135,78136,78137,78138,78139,78140,78141,78142,78143,78144,78145,78146,78147,78148,78149,78150,78151,78152,78153,78154,78155,78156,78157,78158,78159,78160,78161,78162,78163,78164,78165,78166,78167,78168,78169,78170,78171,78172,78173,78174,78175,78176,78177,78178,78179,78180,78181,78182,78183,78184,78185,78186,78187,78188,78189,78190,78191,78192,78193,78166,78167,78168,78169,78211,78212,78213,78214,78215,78216,78217,78218,78219,78220,78221,78222,78223,78224,78225,78226,78121,78122,78123,78124,78125,78126,78127,78128,78129,78130,78131,78132,78133,78134,78135,78136,78137,78138,78139,78140,78141,78142,78143,78144,78145,78146,78147,78148,78149,78150,78151,78152,78153,78154,78155,78156,78157,78158,78159,78160,78161,78162,78163,78164,78165,78166,78167,78168,78169,78170,78171,78172,78173,78174,78175,78121,78122,78123,78124,78125,78126,78127,78128,78129,78130,78131,78132,78133,78134,78135,78136,78137,78138,78139,78140,78141,78142,78143,78144,78145,78146,78147,78148,78149,78150,78151,78152,78153,78154,78155,78156,78157,78158,78159,78121,78122,78123,78124,78125,78126,78127,78128,78129,78130,78131,78132,78133,78134,78135,78136,78137,78138,78139,78140,78141,78142,78143,78144,78145,78129,78130,78131,78132,78133,78134,78135,78136,78137,78138,77281,77281,77282,77283,77284,77285,77281,77281,77282,77283,77284,77285,
78241,78241,78242,78243,78244,78245,78246,78247,78248,78249,78250,78251,78252,78253,78254,78255,78256,78257,78258,78259,78248,78249,78250,78251,78252,78253,78254,78255,78256,78257,78258,78259,78241,78241,78242,78243,78244,78245,78246,78247,78248,78249,78250,78251,78252,78253,78254,78255,78256,78257,78258,78259,78260,78261,78262,78263,78264,78265,78266,78267,78268,78269,78270,78271,78272,78273,78274,78275,78276,78277,78278,78279,78280,78281,78241,78242,78243,78244,78245,78246,78247,78248,78249,78250,78251,78252,78253,78254,78255,78256,78257,78258,78259,78260,78261,78262,78263,78264,78265,78266,78267,78268,78269,78270,78271,78272,78273,78274,78275,78276,78277,78278,78279,78280,78281,78282,78283,78284,78285,78286,78287,78288,78289,78290,78291,78292,78293,78294,78295,78296,78297,78298,78299,78300,78301,78302,78303,78304,78305,78306,78307,78308,78309,78310,78311,78312,78313,78286,78287,78288,78289,78331,78332,78333,78334,78335,78336,78337,78338,78339,78340,78341,78342,78343,78344,78345,78346,78241,78242,78243,78244,78245,78246,78247,78248,78249,78250,78251,78252,78253,78254,78255,78256,78257,78258,78259,78260,78261,78262,78263,78264,78265,78266,78267,78268,78269,78270,78271,78272,78273,78274,78275,78276,78277,78278,78279,78280,78281,78282,78283,78284,78285,78286,78287,78288,78289,78290,78291,78292,78293,78294,78295,78241,78242,78243,78244,78245,78246,78247,78248,78249,78250,78251,78252,78253,78254,78255,78256,78257,78258,78259,78260,78261,78262,78263,78264,78265,78266,78267,78268,78269,78270,78271,78272,78273,78274,78275,78276,78277,78278,78279,78241,78242,78243,78244,78245,78246,78247,78248,78249,78250,78251,78252,78253,78254,78255,78256,78257,78258,78259,78260,78261,78262,78263,78264,78265,78249,78250,78251,78252,78253,78254,78255,78256,78257,78258,77401,77401,77402,77403,77404,77405,77401,77401,77402,77403,77404,77405,
78361,78361,78362,78363,78364,78365,78366,78367,78368,78369,78370,78371,78372,78373,78374,78375,78376,78377,78378,78379,78368,78369,78370,78371,78372,78373,78374,78375,78376,78377,78378,78379,78361,78361,78362,78363,78364,78365,78366,78367,78368,78369,78370,78371,78372,78373,78374,78375,78376,78377,78378,78379,78380,78381,78382,78383,78384,78385,78386,78387,78388,78389,78390,78391,78392,78393,78394,78395,78396,78397,78398,78399,78400,78401,78361,78362,78363,78364,78365,78366,78367,78368,78369,78370,78371,78372,78373,78374,78375,78376,78377,78378,78379,78380,78381,78382,78383,78384,78385,78386,78387,78388,78389,78390,78391,78392,78393,78394,78395,78396,78397,78398,78399,78400,78401,78402,78403,78404,78405,78406,78407,78408,78409,78410,78411,78412,78413,78414,78415,78416,78417,78418,78419,78420,78421,78422,78423,78424,78425,78426,78427,78428,78429,78430,78431,78432,78433,78406,78407,78408,78409,78451,78452,78453,78454,78455,78456,78457,78458,78459,78460,78461,78462,78463,78464,78465,78466,78361,78362,78363,78364,78365,78366,78367,78368,78369,78370,78371,78372,78373,78374,78375,78376,78377,78378,78379,78380,78381,78382,78383,78384,78385,78386,78387,78388,78389,78390,78391,78392,78393,78394,78395,78396,78397,78398,78399,78400,78401,78402,78403,78404,78405,78406,78407,78408,78409,78410,78411,78412,78413,78414,78415,78361,78362,78363,78364,78365,78366,78367,78368,78369,78370,78371,78372,78373,78374,78375,78376,78377,78378,78379,78380,78381,78382,78383,78384,78385,78386,78387,78388,78389,78390,78391,78392,78393,78394,78395,78396,78397,78398,78399,78361,78362,78363,78364,78365,78366,78367,78368,78369,78370,78371,78372,78373,78374,78375,78376,78377,78378,78379,78380,78381,78382,78383,78384,78385,78369,78370,78371,78372,78373,78374,78375,78376,78377,78378,76561,76561,76562,76563,76564,76565,76561,76561,76562,76563,76564,76565,
78481,78481,78482,78483,78484,78485,78486,78487,78488,78489,78490,78491,78492,78493,78494,78495,78496,78497,78498,78499,78488,78489,78490,78491,78492,78493,78494,78495,78496,78497,78498,78499,78481,78481,78482,78483,78484,78485,78486,78487,78488,78489,78490,78491,78492,78493,78494,78495,78496,78497,78498,78499,78500,78501,78502,78503,78504,78505,78506,78507,78508,78509,78510,78511,78512,78513,78514,78515,78516,78517,78518,78519,78520,78521,78481,78482,78483,78484,78485,78486,78487,78488,78489,78490,78491,78492,78493,78494,78495,78496,78497,78498,78499,78500,78501,78502,78503,78504,78505,78506,78507,78508,78509,78510,78511,78512,78513,78514,78515,78516,78517,78518,78519,78520,78521,78522,78523,78524,78525,78526,78527,78528,78529,78530,78531,78532,78533,78534,78535,78536,78537,78538,78539,78540,78541,78542,78543,78544,78545,78546,78547,78548,78549,78550,78551,78552,78553,78526,78527,78528,78529,78571,78572,78573,78574,78575,78576,78577,78578,78579,78580,78581,78582,78583,78584,78585,78586,78481,78482,78483,78484,78485,78486,78487,78488,78489,78490,78491,78492,78493,78494,78495,78496,78497,78498,78499,78500,78501,78502,78503,78504,78505,78506,78507,78508,78509,78510,78511,78512,78513,78514,78515,78516,78517,78518,78519,78520,78521,78522,78523,78524,78525,78526,78527,78528,78529,78530,78531,78532,78533,78534,78535,78481,78482,78483,78484,78485,78486,78487,78488,78489,78490,78491,78492,78493,78494,78495,78496,78497,78498,78499,78500,78501,78502,78503,78504,78505,78506,78507,78508,78509,78510,78511,78512,78513,78514,78515,78516,78517,78518,78519,78481,78482,78483,78484,78485,78486,78487,78488,78489,78490,78491,78492,78493,78494,78495,78496,78497,78498,78499,78500,78501,78502,78503,78504,78505,78489,78490,78491,78492,78493,78494,78495,78496,78497,78498,76681,76681,76682,76683,76684,76685,76681,76681,76682,76683,76684,76685,
78601,78601,78602,78603,78604,78605,78606,78607,78608,78609,78610,78611,78612,78613,78614,78615,78616,78617,78618,78619,78608,78609,78610,78611,78612,78613,78614,78615,78616,78617,78618,78619,78601,78601,78602,78603,78604,78605,78606,78607,78608,78609,78610,78611,78612,78613,78614,78615,78616,78617,78618,78619,78620,78621,78622,78623,78624,78625,78626,78627,78628,78629,78630,78631,78632,78633,78634,78635,78636,78637,78638,78639,78640,78641,78601,78602,78603,78604,78605,78606,78607,78608,78609,78610,78611,78612,78613,78614,78615,78616,78617,78618,78619,78620,78621,78622,78623,78624,78625,78626,78627,78628,78629,78630,78631,78632,78633,78634,78635,78636,78637,78638,78639,78640,78641,78642,78643,78644,78645,78646,78647,78648,78649,78650,78651,78652,78653,78654,78655,78656,78657,78658,78659,78660,78661,78662,78663,78664,78665,78666,78667,78668,78669,78670,78671,78672,78673,78646,78647,78648,78649,78691,78692,78693,78694,78695,78696,78697,78698,78699,78700,78701,78702,78703,78704,78705,78706,78601,78602,78603,78604,78605,78606,78607,78608,78609,78610,78611,78612,78613,78614,78615,78616,78617,78618,78619,78620,78621,78622,78623,78624,78625,78626,78627,78628,78629,78630,78631,78632,78633,78634,78635,78636,78637,78638,78639,78640,78641,78642,78643,78644,78645,78646,78647,78648,78649,78650,78651,78652,78653,78654,78655,78601,78602,78603,78604,78605,78606,78607,78608,78609,78610,78611,78612,78613,78614,78615,78616,78617,78618,78619,78620,78621,78622,78623,78624,78625,78626,78627,78628,78629,78630,78631,78632,78633,78634,78635,78636,78637,78638,78639,78601,78602,78603,78604,78605,78606,78607,78608,78609,78610,78611,78612,78613,78614,78615,78616,78617,78618,78619,78620,78621,78622,78623,78624,78625,78609,78610,78611,78612,78613,78614,78615,78616,78617,78618,76801,76801,76802,76803,76804,76805,76801,76801,76802,76803,76804,76805,
78721,78721,78722,78723,78724,78725,78726,78727,78728,78729,78730,78731,78732,78733,78734,78735,78736,78737,78738,78739,78728,78729,78730,78731,78732,78733,78734,78735,78736,78737,78738,78739,78721,78721,78722,78723,78724,78725,78726,78727,78728,78729,78730,78731,78732,78733,78734,78735,78736,78737,78738,78739,78740,78741,78742,78743,78744,78745,78746,78747,78748,78749,78750,78751,78752,78753,78754,78755,78756,78757,78758,78759,78760,78761,78721,78722,78723,78724,78725,78726,78727,78728,78729,78730,78731,78732,78733,78734,78735,78736,78737,78738,78739,78740,78741,78742,78743,78744,78745,78746,78747,78748,78749,78750,78751,78752,78753,78754,78755,78756,78757,78758,78759,78760,78761,78762,78763,78764,78765,78766,78767,78768,78769,78770,78771,78772,78773,78774,78775,78776,78777,78778,78779,78780,78781,78782,78783,78784,78785,78786,78787,78788,78789,78790,78791,78792,78793,78766,78767,78768,78769,78811,78812,78813,78814,78815,78816,78817,78818,78819,78820,78821,78822,78823,78824,78825,78826,78721,78722,78723,78724,78725,78726,78727,78728,78729,78730,78731,78732,78733,78734,78735,78736,78737,78738,78739,78740,78741,78742,78743,78744,78745,78746,78747,78748,78749,78750,78751,78752,78753,78754,78755,78756,78757,78758,78759,78760,78761,78762,78763,78764,78765,78766,78767,78768,78769,78770,78771,78772,78773,78774,78775,78721,78722,78723,78724,78725,78726,78727,78728,78729,78730,78731,78732,78733,78734,78735,78736,78737,78738,78739,78740,78741,78742,78743,78744,78745,78746,78747,78748,78749,78750,78751,78752,78753,78754,78755,78756,78757,78758,78759,78721,78722,78723,78724,78725,78726,78727,78728,78729,78730,78731,78732,78733,78734,78735,78736,78737,78738,78739,78740,78741,78742,78743,78744,78745,78729,78730,78731,78732,78733,78734,78735,78736,78737,78738,76921,76921,76922,76923,76924,76925,76921,76921,76922,76923,76924,76925,
78841,78841,78842,78843,78844,78845,78846,78847,78848,78849,78850,78851,78852,78853,78854,78855,78856,78857,78858,78859,78848,78849,78850,78851,78852,78853,78854,78855,78856,78857,78858,78859,78841,78841,78842,78843,78844,78845,78846,78847,78848,78849,78850,78851,78852,78853,78854,78855,78856,78857,78858,78859,78860,78861,78862,78863,78864,78865,78866,78867,78868,78869,78870,78871,78872,78873,78874,78875,78876,78877,78878,78879,78880,78881,78841,78842,78843,78844,78845,78846,78847,78848,78849,78850,78851,78852,78853,78854,78855,78856,78857,78858,78859,78860,78861,78862,78863,78864,78865,78866,78867,78868,78869,78870,78871,78872,78873,78874,78875,78876,78877,78878,78879,78880,78881,78882,78883,78884,78885,78886,78887,78888,78889,78890,78891,78892,78893,78894,78895,78896,78897,78898,78899,78900,78901,78902,78903,78904,78905,78906,78907,78908,78909,78910,78911,78912,78913,78886,78887,78888,78889,78931,78932,78933,78934,78935,78936,78937,78938,78939,78940,78941,78942,78943,78944,78945,78946,78841,78842,78843,78844,78845,78846,78847,78848,78849,78850,78851,78852,78853,78854,78855,78856,78857,78858,78859,78860,78861,78862,78863,78864,78865,78866,78867,78868,78869,78870,78871,78872,78873,78874,78875,78876,78877,78878,78879,78880,78881,78882,78883,78884,78885,78886,78887,78888,78889,78890,78891,78892,78893,78894,78895,78841,78842,78843,78844,78845,78846,78847,78848,78849,78850,78851,78852,78853,78854,78855,78856,78857,78858,78859,78860,78861,78862,78863,78864,78865,78866,78867,78868,78869,78870,78871,78872,78873,78874,78875,78876,78877,78878,78879,78841,78842,78843,78844,78845,78846,78847,78848,78849,78850,78851,78852,78853,78854,78855,78856,78857,78858,78859,78860,78861,78862,78863,78864,78865,78849,78850,78851,78852,78853,78854,78855,78856,78857,78858,77041,77041,77042,77043,77044,77045,77041,77041,77042,77043,77044,77045,
78961,78961,78962,78963,78964,78965,78966,78967,78968,78969,78970,78971,78972,78973,78974,78975,78976,78977,78978,78979,78968,78969,78970,78971,78972,78973,78974,78975,78976,78977,78978,78979,78961,78961,78962,78963,78964,78965,78966,78967,78968,78969,78970,78971,78972,78973,78974,78975,78976,78977,78978,78979,78980,78981,78982,78983,78984,78985,78986,78987,78988,78989,78990,78991,78992,78993,78994,78995,78996,78997,78998,78999,79000,79001,78961,78962,78963,78964,78965,78966,78967,78968,78969,78970,78971,78972,78973,78974,78975,78976,78977,78978,78979,78980,78981,78982,78983,78984,78985,78986,78987,78988,78989,78990,78991,78992,78993,78994,78995,78996,78997,78998,78999,79000,79001,79002,79003,79004,79005,79006,79007,79008,79009,79010,79011,79012,79013,79014,79015,79016,79017,79018,79019,79020,79021,79022,79023,79024,79025,79026,79027,79028,79029,79030,79031,79032,79033,79006,79007,79008,79009,79051,79052,79053,79054,79055,79056,79057,79058,79059,79060,79061,79062,79063,79064,79065,79066,78961,78962,78963,78964,78965,78966,78967,78968,78969,78970,78971,78972,78973,78974,78975,78976,78977,78978,78979,78980,78981,78982,78983,78984,78985,78986,78987,78988,78989,78990,78991,78992,78993,78994,78995,78996,78997,78998,78999,79000,79001,79002,79003,79004,79005,79006,79007,79008,79009,79010,79011,79012,79013,79014,79015,78961,78962,78963,78964,78965,78966,78967,78968,78969,78970,78971,78972,78973,78974,78975,78976,78977,78978,78979,78980,78981,78982,78983,78984,78985,78986,78987,78988,78989,78990,78991,78992,78993,78994,78995,78996,78997,78998,78999,78961,78962,78963,78964,78965,78966,78967,78968,78969,78970,78971,78972,78973,78974,78975,78976,78977,78978,78979,78980,78981,78982,78983,78984,78985,78969,78970,78971,78972,78973,78974,78975,78976,78977,78978,77161,77161,77162,77163,77164,77165,77161,77161,77162,77163,77164,77165,
79081,79081,79082,79083,79084,79085,79086,79087,79088,79089,79090,79091,79092,79093,79094,79095,79096,79097,79098,79099,79088,79089,79090,79091,79092,79093,79094,79095,79096,79097,79098,79099,79081,79081,79082,79083,79084,79085,79086,79087,79088,79089,79090,79091,79092,79093,79094,79095,79096,79097,79098,79099,79100,79101,79102,79103,79104,79105,79106,79107,79108,79109,79110,79111,79112,79113,79114,79115,79116,79117,79118,79119,79120,79121,79081,79082,79083,79084,79085,79086,79087,79088,79089,79090,79091,79092,79093,79094,79095,79096,79097,79098,79099,79100,79101,79102,79103,79104,79105,79106,79107,79108,79109,79110,79111,79112,79113,79114,79115,79116,79117,79118,79119,79120,79121,79122,79123,79124,79125,79126,79127,79128,79129,79130,79131,79132,79133,79134,79135,79136,79137,79138,79139,79140,79141,79142,79143,79144,79145,79146,79147,79148,79149,79150,79151,79152,79153,79126,79127,79128,79129,79171,79172,79173,79174,79175,79176,79177,79178,79179,79180,79181,79182,79183,79184,79185,79186,79081,79082,79083,79084,79085,79086,79087,79088,79089,79090,79091,79092,79093,79094,79095,79096,79097,79098,79099,79100,79101,79102,79103,79104,79105,79106,79107,79108,79109,79110,79111,79112,79113,79114,79115,79116,79117,79118,79119,79120,79121,79122,79123,79124,79125,79126,79127,79128,79129,79130,79131,79132,79133,79134,79135,79081,79082,79083,79084,79085,79086,79087,79088,79089,79090,79091,79092,79093,79094,79095,79096,79097,79098,79099,79100,79101,79102,79103,79104,79105,79106,79107,79108,79109,79110,79111,79112,79113,79114,79115,79116,79117,79118,79119,79081,79082,79083,79084,79085,79086,79087,79088,79089,79090,79091,79092,79093,79094,79095,79096,79097,79098,79099,79100,79101,79102,79103,79104,79105,79089,79090,79091,79092,79093,79094,79095,79096,79097,79098,77281,77281,77282,77283,77284,77285,77281,77281,77282,77283,77284,77285,
79201,79201,79202,79203,79204,79205,79206,79207,79208,79209,79210,79211,79212,79213,79214,79215,79216,79217,79218,79219,79208,79209,79210,79211,79212,79213,79214,79215,79216,79217,79218,79219,79201,79201,79202,79203,79204,79205,79206,79207,79208,79209,79210,79211,79212,79213,79214,79215,79216,79217,79218,79219,79220,79221,79222,79223,79224,79225,79226,79227,79228,79229,79230,79231,79232,79233,79234,79235,79236,79237,79238,79239,79240,79241,79201,79202,79203,79204,79205,79206,79207,79208,79209,79210,79211,79212,79213,79214,79215,79216,79217,79218,79219,79220,79221,79222,79223,79224,79225,79226,79227,79228,79229,79230,79231,79232,79233,79234,79235,79236,79237,79238,79239,79240,79241,79242,79243,79244,79245,79246,79247,79248,79249,79250,79251,79252,79253,79254,79255,79256,79257,79258,79259,79260,79261,79262,79263,79264,79265,79266,79267,79268,79269,79270,79271,79272,79273,79246,79247,79248,79249,79291,79292,79293,79294,79295,79296,79297,79298,79299,79300,79301,79302,79303,79304,79305,79306,79201,79202,79203,79204,79205,79206,79207,79208,79209,79210,79211,79212,79213,79214,79215,79216,79217,79218,79219,79220,79221,79222,79223,79224,79225,79226,79227,79228,79229,79230,79231,79232,79233,79234,79235,79236,79237,79238,79239,79240,79241,79242,79243,79244,79245,79246,79247,79248,79249,79250,79251,79252,79253,79254,79255,79201,79202,79203,79204,79205,79206,79207,79208,79209,79210,79211,79212,79213,79214,79215,79216,79217,79218,79219,79220,79221,79222,79223,79224,79225,79226,79227,79228,79229,79230,79231,79232,79233,79234,79235,79236,79237,79238,79239,79201,79202,79203,79204,79205,79206,79207,79208,79209,79210,79211,79212,79213,79214,79215,79216,79217,79218,79219,79220,79221,79222,79223,79224,79225,79209,79210,79211,79212,79213,79214,79215,79216,79217,79218,77401,77401,77402,77403,77404,77405,77401,77401,77402,77403,77404,77405,
79321,79321,79322,79323,79324,79325,79326,79327,79328,79329,79330,79331,79332,79333,79334,79335,79336,79337,79338,79339,79328,79329,79330,79331,79332,79333,79334,79335,79336,79337,79338,79339,79321,79321,79322,79323,79324,79325,79326,79327,79328,79329,79330,79331,79332,79333,79334,79335,79336,79337,79338,79339,79340,79341,79342,79343,79344,79345,79346,79347,79348,79349,79350,79351,79352,79353,79354,79355,79356,79357,79358,79359,79360,79361,79321,79322,79323,79324,79325,79326,79327,79328,79329,79330,79331,79332,79333,79334,79335,79336,79337,79338,79339,79340,79341,79342,79343,79344,79345,79346,79347,79348,79349,79350,79351,79352,79353,79354,79355,79356,79357,79358,79359,79360,79361,79362,79363,79364,79365,79366,79367,79368,79369,79370,79371,79372,79373,79374,79375,79376,79377,79378,79379,79380,79381,79382,79383,79384,79385,79386,79387,79388,79389,79390,79391,79392,79393,79366,79367,79368,79369,79411,79412,79413,79414,79415,79416,79417,79418,79419,79420,79421,79422,79423,79424,79425,79426,79321,79322,79323,79324,79325,79326,79327,79328,79329,79330,79331,79332,79333,79334,79335,79336,79337,79338,79339,79340,79341,79342,79343,79344,79345,79346,79347,79348,79349,79350,79351,79352,79353,79354,79355,79356,79357,79358,79359,79360,79361,79362,79363,79364,79365,79366,79367,79368,79369,79370,79371,79372,79373,79374,79375,79321,79322,79323,79324,79325,79326,79327,79328,79329,79330,79331,79332,79333,79334,79335,79336,79337,79338,79339,79340,79341,79342,79343,79344,79345,79346,79347,79348,79349,79350,79351,79352,79353,79354,79355,79356,79357,79358,79359,79321,79322,79323,79324,79325,79326,79327,79328,79329,79330,79331,79332,79333,79334,79335,79336,79337,79338,79339,79340,79341,79342,79343,79344,79345,79329,79330,79331,79332,79333,79334,79335,79336,79337,79338,76561,76561,76562,76563,76564,76565,76561,76561,76562,76563,76564,76565,
79441,79441,79442,79443,79444,79445,79446,79447,79448,79449,79450,79451,79452,79453,79454,79455,79456,79457,79458,79459,79448,79449,79450,79451,79452,79453,79454,79455,79456,79457,79458,79459,79441,79441,79442,79443,79444,79445,79446,79447,79448,79449,79450,79451,79452,79453,79454,79455,79456,79457,79458,79459,79460,79461,79462,79463,79464,79465,79466,79467,79468,79469,79470,79471,79472,79473,79474,79475,79476,79477,79478,79479,79480,79481,79441,79442,79443,79444,79445,79446,79447,79448,79449,79450,79451,79452,79453,79454,79455,79456,79457,79458,79459,79460,79461,79462,79463,79464,79465,79466,79467,79468,79469,79470,79471,79472,79473,79474,79475,79476,79477,79478,79479,79480,79481,79482,79483,79484,79485,79486,79487,79488,79489,79490,79491,79492,79493,79494,79495,79496,79497,79498,79499,79500,79501,79502,79503,79504,79505,79506,79507,79508,79509,79510,79511,79512,79513,79486,79487,79488,79489,79531,79532,79533,79534,79535,79536,79537,79538,79539,79540,79541,79542,79543,79544,79545,79546,79441,79442,79443,79444,79445,79446,79447,79448,79449,79450,79451,79452,79453,79454,79455,79456,79457,79458,79459,79460,79461,79462,79463,79464,79465,79466,79467,79468,79469,79470,79471,79472,79473,79474,79475,79476,79477,79478,79479,79480,79481,79482,79483,79484,79485,79486,79487,79488,79489,79490,79491,79492,79493,79494,79495,79441,79442,79443,79444,79445,79446,79447,79448,79449,79450,79451,79452,79453,79454,79455,79456,79457,79458,79459,79460,79461,79462,79463,79464,79465,79466,79467,79468,79469,79470,79471,79472,79473,79474,79475,79476,79477,79478,79479,79441,79442,79443,79444,79445,79446,79447,79448,79449,79450,79451,79452,79453,79454,79455,79456,79457,79458,79459,79460,79461,79462,79463,79464,79465,79449,79450,79451,79452,79453,79454,79455,79456,79457,79458,76681,76681,76682,76683,76684,76685,76681,76681,76682,76683,76684,76685,
79561,79561,79562,79563,79564,79565,79566,79567,79568,79569,79570,79571,79572,79573,79574,79575,79576,79577,79578,79579,79568,79569,79570,79571,79572,79573,79574,79575,79576,79577,79578,79579,79561,79561,79562,79563,79564,79565,79566,79567,79568,79569,79570,79571,79572,79573,79574,79575,79576,79577,79578,79579,79580,79581,79582,79583,79584,79585,79586,79587,79588,79589,79590,79591,79592,79593,79594,79595,79596,79597,79598,79599,79600,79601,79561,79562,79563,79564,79565,79566,79567,79568,79569,79570,79571,79572,79573,79574,79575,79576,79577,79578,79579,79580,79581,79582,79583,79584,79585,79586,79587,79588,79589,79590,79591,79592,79593,79594,79595,79596,79597,79598,79599,79600,79601,79602,79603,79604,79605,79606,79607,79608,79609,79610,79611,79612,79613,79614,79615,79616,79617,79618,79619,79620,79621,79622,79623,79624,79625,79626,79627,79628,79629,79630,79631,79632,79633,79606,79607,79608,79609,79651,79652,79653,79654,79655,79656,79657,79658,79659,79660,79661,79662,79663,79664,79665,79666,79561,79562,79563,79564,79565,79566,79567,79568,79569,79570,79571,79572,79573,79574,79575,79576,79577,79578,79579,79580,79581,79582,79583,79584,79585,79586,79587,79588,79589,79590,79591,79592,79593,79594,79595,79596,79597,79598,79599,79600,79601,79602,79603,79604,79605,79606,79607,79608,79609,79610,79611,79612,79613,79614,79615,79561,79562,79563,79564,79565,79566,79567,79568,79569,79570,79571,79572,79573,79574,79575,79576,79577,79578,79579,79580,79581,79582,79583,79584,79585,79586,79587,79588,79589,79590,79591,79592,79593,79594,79595,79596,79597,79598,79599,79561,79562,79563,79564,79565,79566,79567,79568,79569,79570,79571,79572,79573,79574,79575,79576,79577,79578,79579,79580,79581,79582,79583,79584,79585,79569,79570,79571,79572,79573,79574,79575,79576,79577,79578,76801,76801,76802,76803,76804,76805,76801,76801,76802,76803,76804,76805,
79681,79681,79682,79683,79684,79685,79686,79687,79688,79689,79690,79691,79692,79693,79694,79695,79696,79697,79698,79699,79688,79689,79690,79691,79692,79693,79694,79695,79696,79697,79698,79699,79681,79681,79682,79683,79684,79685,79686,79687,79688,79689,79690,79691,79692,79693,79694,79695,79696,79697,79698,79699,79700,79701,79702,79703,79704,79705,79706,79707,79708,79709,79710,79711,79712,79713,79714,79715,79716,79717,79718,79719,79720,79721,79681,79682,79683,79684,79685,79686,79687,79688,79689,79690,79691,79692,79693,79694,79695,79696,79697,79698,79699,79700,79701,79702,79703,79704,79705,79706,79707,79708,79709,79710,79711,79712,79713,79714,79715,79716,79717,79718,79719,79720,79721,79722,79723,79724,79725,79726,79727,79728,79729,79730,79731,79732,79733,79734,79735,79736,79737,79738,79739,79740,79741,79742,79743,79744,79745,79746,79747,79748,79749,79750,79751,79752,79753,79726,79727,79728,79729,79771,79772,79773,79774,79775,79776,79777,79778,79779,79780,79781,79782,79783,79784,79785,79786,79681,79682,79683,79684,79685,79686,79687,79688,79689,79690,79691,79692,79693,79694,79695,79696,79697,79698,79699,79700,79701,79702,79703,79704,79705,79706,79707,79708,79709,79710,79711,79712,79713,79714,79715,79716,79717,79718,79719,79720,79721,79722,79723,79724,79725,79726,79727,79728,79729,79730,79731,79732,79733,79734,79735,79681,79682,79683,79684,79685,79686,79687,79688,79689,79690,79691,79692,79693,79694,79695,79696,79697,79698,79699,79700,79701,79702,79703,79704,79705,79706,79707,79708,79709,79710,79711,79712,79713,79714,79715,79716,79717,79718,79719,79681,79682,79683,79684,79685,79686,79687,79688,79689,79690,79691,79692,79693,79694,79695,79696,79697,79698,79699,79700,79701,79702,79703,79704,79705,79689,79690,79691,79692,79693,79694,79695,79696,79697,79698,76921,76921,76922,76923,76924,76925,76921,76921,76922,76923,76924,76925,
79801,79801,79802,79803,79804,79805,79806,79807,79808,79809,79810,79811,79812,79813,79814,79815,79816,79817,79818,79819,79808,79809,79810,79811,79812,79813,79814,79815,79816,79817,79818,79819,79801,79801,79802,79803,79804,79805,79806,79807,79808,79809,79810,79811,79812,79813,79814,79815,79816,79817,79818,79819,79820,79821,79822,79823,79824,79825,79826,79827,79828,79829,79830,79831,79832,79833,79834,79835,79836,79837,79838,79839,79840,79841,79801,79802,79803,79804,79805,79806,79807,79808,79809,79810,79811,79812,79813,79814,79815,79816,79817,79818,79819,79820,79821,79822,79823,79824,79825,79826,79827,79828,79829,79830,79831,79832,79833,79834,79835,79836,79837,79838,79839,79840,79841,79842,79843,79844,79845,79846,79847,79848,79849,79850,79851,79852,79853,79854,79855,79856,79857,79858,79859,79860,79861,79862,79863,79864,79865,79866,79867,79868,79869,79870,79871,79872,79873,79846,79847,79848,79849,79891,79892,79893,79894,79895,79896,79897,79898,79899,79900,79901,79902,79903,79904,79905,79906,79801,79802,79803,79804,79805,79806,79807,79808,79809,79810,79811,79812,79813,79814,79815,79816,79817,79818,79819,79820,79821,79822,79823,79824,79825,79826,79827,79828,79829,79830,79831,79832,79833,79834,79835,79836,79837,79838,79839,79840,79841,79842,79843,79844,79845,79846,79847,79848,79849,79850,79851,79852,79853,79854,79855,79801,79802,79803,79804,79805,79806,79807,79808,79809,79810,79811,79812,79813,79814,79815,79816,79817,79818,79819,79820,79821,79822,79823,79824,79825,79826,79827,79828,79829,79830,79831,79832,79833,79834,79835,79836,79837,79838,79839,79801,79802,79803,79804,79805,79806,79807,79808,79809,79810,79811,79812,79813,79814,79815,79816,79817,79818,79819,79820,79821,79822,79823,79824,79825,79809,79810,79811,79812,79813,79814,79815,79816,79817,79818,77041,77041,77042,77043,77044,77045,77041,77041,77042,77043,77044,77045,
79921,79921,79922,79923,79924,79925,79926,79927,79928,79929,79930,79931,79932,79933,79934,79935,79936,79937,79938,79939,79928,79929,79930,79931,79932,79933,79934,79935,79936,79937,79938,79939,79921,79921,79922,79923,79924,79925,79926,79927,79928,79929,79930,79931,79932,79933,79934,79935,79936,79937,79938,79939,79940,79941,79942,79943,79944,79945,79946,79947,79948,79949,79950,79951,79952,79953,79954,79955,79956,79957,79958,79959,79960,79961,79921,79922,79923,79924,79925,79926,79927,79928,79929,79930,79931,79932,79933,79934,79935,79936,79937,79938,79939,79940,79941,79942,79943,79944,79945,79946,79947,79948,79949,79950,79951,79952,79953,79954,79955,79956,79957,79958,79959,79960,79961,79962,79963,79964,79965,79966,79967,79968,79969,79970,79971,79972,79973,79974,79975,79976,79977,79978,79979,79980,79981,79982,79983,79984,79985,79986,79987,79988,79989,79990,79991,79992,79993,79966,79967,79968,79969,80011,80012,80013,80014,80015,80016,80017,80018,80019,80020,80021,80022,80023,80024,80025,80026,79921,79922,79923,79924,79925,79926,79927,79928,79929,79930,79931,79932,79933,79934,79935,79936,79937,79938,79939,79940,79941,79942,79943,79944,79945,79946,79947,79948,79949,79950,79951,79952,79953,79954,79955,79956,79957,79958,79959,79960,79961,79962,79963,79964,79965,79966,79967,79968,79969,79970,79971,79972,79973,79974,79975,79921,79922,79923,79924,79925,79926,79927,79928,79929,79930,79931,79932,79933,79934,79935,79936,79937,79938,79939,79940,79941,79942,79943,79944,79945,79946,79947,79948,79949,79950,79951,79952,79953,79954,79955,79956,79957,79958,79959,79921,79922,79923,79924,79925,79926,79927,79928,79929,79930,79931,79932,79933,79934,79935,79936,79937,79938,79939,79940,79941,79942,79943,79944,79945,79929,79930,79931,79932,79933,79934,79935,79936,79937,79938,77161,77161,77162,77163,77164,77165,77161,77161,77162,77163,77164,77165,
80041,80041,80042,80043,80044,80045,80046,80047,80048,80049,80050,80051,80052,80053,80054,80055,80056,80057,80058,80059,80048,80049,80050,80051,80052,80053,80054,80055,80056,80057,80058,80059,80041,80041,80042,80043,80044,80045,80046,80047,80048,80049,80050,80051,80052,80053,80054,80055,80056,80057,80058,80059,80060,80061,80062,80063,80064,80065,80066,80067,80068,80069,80070,80071,80072,80073,80074,80075,80076,80077,80078,80079,80080,80081,80041,80042,80043,80044,80045,80046,80047,80048,80049,80050,80051,80052,80053,80054,80055,80056,80057,80058,80059,80060,80061,80062,80063,80064,80065,80066,80067,80068,80069,80070,80071,80072,80073,80074,80075,80076,80077,80078,80079,80080,80081,80082,80083,80084,80085,80086,80087,80088,80089,80090,80091,80092,80093,80094,80095,80096,80097,80098,80099,80100,80101,80102,80103,80104,80105,80106,80107,80108,80109,80110,80111,80112,80113,80086,80087,80088,80089,80131,80132,80133,80134,80135,80136,80137,80138,80139,80140,80141,80142,80143,80144,80145,80146,80041,80042,80043,80044,80045,80046,80047,80048,80049,80050,80051,80052,80053,80054,80055,80056,80057,80058,80059,80060,80061,80062,80063,80064,80065,80066,80067,80068,80069,80070,80071,80072,80073,80074,80075,80076,80077,80078,80079,80080,80081,80082,80083,80084,80085,80086,80087,80088,80089,80090,80091,80092,80093,80094,80095,80041,80042,80043,80044,80045,80046,80047,80048,80049,80050,80051,80052,80053,80054,80055,80056,80057,80058,80059,80060,80061,80062,80063,80064,80065,80066,80067,80068,80069,80070,80071,80072,80073,80074,80075,80076,80077,80078,80079,80041,80042,80043,80044,80045,80046,80047,80048,80049,80050,80051,80052,80053,80054,80055,80056,80057,80058,80059,80060,80061,80062,80063,80064,80065,80049,80050,80051,80052,80053,80054,80055,80056,80057,80058,77281,77281,77282,77283,77284,77285,77281,77281,77282,77283,77284,77285,
80161,80161,80162,80163,80164,80165,80166,80167,80168,80169,80170,80171,80172,80173,80174,80175,80176,80177,80178,80179,80168,80169,80170,80171,80172,80173,80174,80175,80176,80177,80178,80179,80161,80161,80162,80163,80164,80165,80166,80167,80168,80169,80170,80171,80172,80173,80174,80175,80176,80177,80178,80179,80180,80181,80182,80183,80184,80185,80186,80187,80188,80189,80190,80191,80192,80193,80194,80195,80196,80197,80198,80199,80200,80201,80161,80162,80163,80164,80165,80166,80167,80168,80169,80170,80171,80172,80173,80174,80175,80176,80177,80178,80179,80180,80181,80182,80183,80184,80185,80186,80187,80188,80189,80190,80191,80192,80193,80194,80195,80196,80197,80198,80199,80200,80201,80202,80203,80204,80205,80206,80207,80208,80209,80210,80211,80212,80213,80214,80215,80216,80217,80218,80219,80220,80221,80222,80223,80224,80225,80226,80227,80228,80229,80230,80231,80232,80233,80206,80207,80208,80209,80251,80252,80253,80254,80255,80256,80257,80258,80259,80260,80261,80262,80263,80264,80265,80266,80161,80162,80163,80164,80165,80166,80167,80168,80169,80170,80171,80172,80173,80174,80175,80176,80177,80178,80179,80180,80181,80182,80183,80184,80185,80186,80187,80188,80189,80190,80191,80192,80193,80194,80195,80196,80197,80198,80199,80200,80201,80202,80203,80204,80205,80206,80207,80208,80209,80210,80211,80212,80213,80214,80215,80161,80162,80163,80164,80165,80166,80167,80168,80169,80170,80171,80172,80173,80174,80175,80176,80177,80178,80179,80180,80181,80182,80183,80184,80185,80186,80187,80188,80189,80190,80191,80192,80193,80194,80195,80196,80197,80198,80199,80161,80162,80163,80164,80165,80166,80167,80168,80169,80170,80171,80172,80173,80174,80175,80176,80177,80178,80179,80180,80181,80182,80183,80184,80185,80169,80170,80171,80172,80173,80174,80175,80176,80177,80178,77401,77401,77402,77403,77404,77405,77401,77401,77402,77403,77404,77405,
80281,80281,80282,80283,80284,80285,80286,80287,80288,80289,80290,80291,80292,80293,80294,80295,80296,80297,80298,80299,80288,80289,80290,80291,80292,80293,80294,80295,80296,80297,80298,80299,80281,80281,80282,80283,80284,80285,80286,80287,80288,80289,80290,80291,80292,80293,80294,80295,80296,80297,80298,80299,80300,80301,80302,80303,80304,80305,80306,80307,80308,80309,80310,80311,80312,80313,80314,80315,80316,80317,80318,80319,80320,80321,80281,80282,80283,80284,80285,80286,80287,80288,80289,80290,80291,80292,80293,80294,80295,80296,80297,80298,80299,80300,80301,80302,80303,80304,80305,80306,80307,80308,80309,80310,80311,80312,80313,80314,80315,80316,80317,80318,80319,80320,80321,80322,80323,80324,80325,80326,80327,80328,80329,80330,80331,80332,80333,80334,80335,80336,80337,80338,80339,80340,80341,80342,80343,80344,80345,80346,80347,80348,80349,80350,80351,80352,80353,80326,80327,80328,80329,80371,80372,80373,80374,80375,80376,80377,80378,80379,80380,80381,80382,80383,80384,80385,80386,80281,80282,80283,80284,80285,80286,80287,80288,80289,80290,80291,80292,80293,80294,80295,80296,80297,80298,80299,80300,80301,80302,80303,80304,80305,80306,80307,80308,80309,80310,80311,80312,80313,80314,80315,80316,80317,80318,80319,80320,80321,80322,80323,80324,80325,80326,80327,80328,80329,80330,80331,80332,80333,80334,80335,80281,80282,80283,80284,80285,80286,80287,80288,80289,80290,80291,80292,80293,80294,80295,80296,80297,80298,80299,80300,80301,80302,80303,80304,80305,80306,80307,80308,80309,80310,80311,80312,80313,80314,80315,80316,80317,80318,80319,80281,80282,80283,80284,80285,80286,80287,80288,80289,80290,80291,80292,80293,80294,80295,80296,80297,80298,80299,80300,80301,80302,80303,80304,80305,80289,80290,80291,80292,80293,80294,80295,80296,80297,80298,76561,76561,76562,76563,76564,76565,76561,76561,76562,76563,76564,76565,
80401,80401,80402,80403,80404,80405,80406,80407,80408,80409,80410,80411,80412,80413,80414,80415,80416,80417,80418,80419,80408,80409,80410,80411,80412,80413,80414,80415,80416,80417,80418,80419,80401,80401,80402,80403,80404,80405,80406,80407,80408,80409,80410,80411,80412,80413,80414,80415,80416,80417,80418,80419,80420,80421,80422,80423,80424,80425,80426,80427,80428,80429,80430,80431,80432,80433,80434,80435,80436,80437,80438,80439,80440,80441,80401,80402,80403,80404,80405,80406,80407,80408,80409,80410,80411,80412,80413,80414,80415,80416,80417,80418,80419,80420,80421,80422,80423,80424,80425,80426,80427,80428,80429,80430,80431,80432,80433,80434,80435,80436,80437,80438,80439,80440,80441,80442,80443,80444,80445,80446,80447,80448,80449,80450,80451,80452,80453,80454,80455,80456,80457,80458,80459,80460,80461,80462,80463,80464,80465,80466,80467,80468,80469,80470,80471,80472,80473,80446,80447,80448,80449,80491,80492,80493,80494,80495,80496,80497,80498,80499,80500,80501,80502,80503,80504,80505,80506,80401,80402,80403,80404,80405,80406,80407,80408,80409,80410,80411,80412,80413,80414,80415,80416,80417,80418,80419,80420,80421,80422,80423,80424,80425,80426,80427,80428,80429,80430,80431,80432,80433,80434,80435,80436,80437,80438,80439,80440,80441,80442,80443,80444,80445,80446,80447,80448,80449,80450,80451,80452,80453,80454,80455,80401,80402,80403,80404,80405,80406,80407,80408,80409,80410,80411,80412,80413,80414,80415,80416,80417,80418,80419,80420,80421,80422,80423,80424,80425,80426,80427,80428,80429,80430,80431,80432,80433,80434,80435,80436,80437,80438,80439,80401,80402,80403,80404,80405,80406,80407,80408,80409,80410,80411,80412,80413,80414,80415,80416,80417,80418,80419,80420,80421,80422,80423,80424,80425,80409,80410,80411,80412,80413,80414,80415,80416,80417,80418,76681,76681,76682,76683,76684,76685,76681,76681,76682,76683,76684,76685,
80521,80521,80522,80523,80524,80525,80526,80527,80528,80529,80530,80531,80532,80533,80534,80535,80536,80537,80538,80539,80528,80529,80530,80531,80532,80533,80534,80535,80536,80537,80538,80539,80521,80521,80522,80523,80524,80525,80526,80527,80528,80529,80530,80531,80532,80533,80534,80535,80536,80537,80538,80539,80540,80541,80542,80543,80544,80545,80546,80547,80548,80549,80550,80551,80552,80553,80554,80555,80556,80557,80558,80559,80560,80561,80521,80522,80523,80524,80525,80526,80527,80528,80529,80530,80531,80532,80533,80534,80535,80536,80537,80538,80539,80540,80541,80542,80543,80544,80545,80546,80547,80548,80549,80550,80551,80552,80553,80554,80555,80556,80557,80558,80559,80560,80561,80562,80563,80564,80565,80566,80567,80568,80569,80570,80571,80572,80573,80574,80575,80576,80577,80578,80579,80580,80581,80582,80583,80584,80585,80586,80587,80588,80589,80590,80591,80592,80593,80566,80567,80568,80569,80611,80612,80613,80614,80615,80616,80617,80618,80619,80620,80621,80622,80623,80624,80625,80626,80521,80522,80523,80524,80525,80526,80527,80528,80529,80530,80531,80532,80533,80534,80535,80536,80537,80538,80539,80540,80541,80542,80543,80544,80545,80546,80547,80548,80549,80550,80551,80552,80553,80554,80555,80556,80557,80558,80559,80560,80561,80562,80563,80564,80565,80566,80567,80568,80569,80570,80571,80572,80573,80574,80575,80521,80522,80523,80524,80525,80526,80527,80528,80529,80530,80531,80532,80533,80534,80535,80536,80537,80538,80539,80540,80541,80542,80543,80544,80545,80546,80547,80548,80549,80550,80551,80552,80553,80554,80555,80556,80557,80558,80559,80521,80522,80523,80524,80525,80526,80527,80528,80529,80530,80531,80532,80533,80534,80535,80536,80537,80538,80539,80540,80541,80542,80543,80544,80545,80529,80530,80531,80532,80533,80534,80535,80536,80537,80538,76801,76801,76802,76803,76804,76805,76801,76801,76802,76803,76804,76805,
80641,80641,80642,80643,80644,80645,80646,80647,80648,80649,80650,80651,80652,80653,80654,80655,80656,80657,80658,80659,80648,80649,80650,80651,80652,80653,80654,80655,80656,80657,80658,80659,80641,80641,80642,80643,80644,80645,80646,80647,80648,80649,80650,80651,80652,80653,80654,80655,80656,80657,80658,80659,80660,80661,80662,80663,80664,80665,80666,80667,80668,80669,80670,80671,80672,80673,80674,80675,80676,80677,80678,80679,80680,80681,80641,80642,80643,80644,80645,80646,80647,80648,80649,80650,80651,80652,80653,80654,80655,80656,80657,80658,80659,80660,80661,80662,80663,80664,80665,80666,80667,80668,80669,80670,80671,80672,80673,80674,80675,80676,80677,80678,80679,80680,80681,80682,80683,80684,80685,80686,80687,80688,80689,80690,80691,80692,80693,80694,80695,80696,80697,80698,80699,80700,80701,80702,80703,80704,80705,80706,80707,80708,80709,80710,80711,80712,80713,80686,80687,80688,80689,80731,80732,80733,80734,80735,80736,80737,80738,80739,80740,80741,80742,80743,80744,80745,80746,80641,80642,80643,80644,80645,80646,80647,80648,80649,80650,80651,80652,80653,80654,80655,80656,80657,80658,80659,80660,80661,80662,80663,80664,80665,80666,80667,80668,80669,80670,80671,80672,80673,80674,80675,80676,80677,80678,80679,80680,80681,80682,80683,80684,80685,80686,80687,80688,80689,80690,80691,80692,80693,80694,80695,80641,80642,80643,80644,80645,80646,80647,80648,80649,80650,80651,80652,80653,80654,80655,80656,80657,80658,80659,80660,80661,80662,80663,80664,80665,80666,80667,80668,80669,80670,80671,80672,80673,80674,80675,80676,80677,80678,80679,80641,80642,80643,80644,80645,80646,80647,80648,80649,80650,80651,80652,80653,80654,80655,80656,80657,80658,80659,80660,80661,80662,80663,80664,80665,80649,80650,80651,80652,80653,80654,80655,80656,80657,80658,76921,76921,76922,76923,76924,76925,76921,76921,76922,76923,76924,76925,
80761,80761,80762,80763,80764,80765,80766,80767,80768,80769,80770,80771,80772,80773,80774,80775,80776,80777,80778,80779,80768,80769,80770,80771,80772,80773,80774,80775,80776,80777,80778,80779,80761,80761,80762,80763,80764,80765,80766,80767,80768,80769,80770,80771,80772,80773,80774,80775,80776,80777,80778,80779,80780,80781,80782,80783,80784,80785,80786,80787,80788,80789,80790,80791,80792,80793,80794,80795,80796,80797,80798,80799,80800,80801,80761,80762,80763,80764,80765,80766,80767,80768,80769,80770,80771,80772,80773,80774,80775,80776,80777,80778,80779,80780,80781,80782,80783,80784,80785,80786,80787,80788,80789,80790,80791,80792,80793,80794,80795,80796,80797,80798,80799,80800,80801,80802,80803,80804,80805,80806,80807,80808,80809,80810,80811,80812,80813,80814,80815,80816,80817,80818,80819,80820,80821,80822,80823,80824,80825,80826,80827,80828,80829,80830,80831,80832,80833,80806,80807,80808,80809,80851,80852,80853,80854,80855,80856,80857,80858,80859,80860,80861,80862,80863,80864,80865,80866,80761,80762,80763,80764,80765,80766,80767,80768,80769,80770,80771,80772,80773,80774,80775,80776,80777,80778,80779,80780,80781,80782,80783,80784,80785,80786,80787,80788,80789,80790,80791,80792,80793,80794,80795,80796,80797,80798,80799,80800,80801,80802,80803,80804,80805,80806,80807,80808,80809,80810,80811,80812,80813,80814,80815,80761,80762,80763,80764,80765,80766,80767,80768,80769,80770,80771,80772,80773,80774,80775,80776,80777,80778,80779,80780,80781,80782,80783,80784,80785,80786,80787,80788,80789,80790,80791,80792,80793,80794,80795,80796,80797,80798,80799,80761,80762,80763,80764,80765,80766,80767,80768,80769,80770,80771,80772,80773,80774,80775,80776,80777,80778,80779,80780,80781,80782,80783,80784,80785,80769,80770,80771,80772,80773,80774,80775,80776,80777,80778,77041,77041,77042,77043,77044,77045,77041,77041,77042,77043,77044,77045,
80881,80881,80882,80883,80884,80885,80886,80887,80888,80889,80890,80891,80892,80893,80894,80895,80896,80897,80898,80899,80888,80889,80890,80891,80892,80893,80894,80895,80896,80897,80898,80899,80881,80881,80882,80883,80884,80885,80886,80887,80888,80889,80890,80891,80892,80893,80894,80895,80896,80897,80898,80899,80900,80901,80902,80903,80904,80905,80906,80907,80908,80909,80910,80911,80912,80913,80914,80915,80916,80917,80918,80919,80920,80921,80881,80882,80883,80884,80885,80886,80887,80888,80889,80890,80891,80892,80893,80894,80895,80896,80897,80898,80899,80900,80901,80902,80903,80904,80905,80906,80907,80908,80909,80910,80911,80912,80913,80914,80915,80916,80917,80918,80919,80920,80921,80922,80923,80924,80925,80926,80927,80928,80929,80930,80931,80932,80933,80934,80935,80936,80937,80938,80939,80940,80941,80942,80943,80944,80945,80946,80947,80948,80949,80950,80951,80952,80953,80926,80927,80928,80929,80971,80972,80973,80974,80975,80976,80977,80978,80979,80980,80981,80982,80983,80984,80985,80986,80881,80882,80883,80884,80885,80886,80887,80888,80889,80890,80891,80892,80893,80894,80895,80896,80897,80898,80899,80900,80901,80902,80903,80904,80905,80906,80907,80908,80909,80910,80911,80912,80913,80914,80915,80916,80917,80918,80919,80920,80921,80922,80923,80924,80925,80926,80927,80928,80929,80930,80931,80932,80933,80934,80935,80881,80882,80883,80884,80885,80886,80887,80888,80889,80890,80891,80892,80893,80894,80895,80896,80897,80898,80899,80900,80901,80902,80903,80904,80905,80906,80907,80908,80909,80910,80911,80912,80913,80914,80915,80916,80917,80918,80919,80881,80882,80883,80884,80885,80886,80887,80888,80889,80890,80891,80892,80893,80894,80895,80896,80897,80898,80899,80900,80901,80902,80903,80904,80905,80889,80890,80891,80892,80893,80894,80895,80896,80897,80898,77161,77161,77162,77163,77164,77165,77161,77161,77162,77163,77164,77165,
81001,81001,81002,81003,81004,81005,81006,81007,81008,81009,81010,81011,81012,81013,81014,81015,81016,81017,81018,81019,81008,81009,81010,81011,81012,81013,81014,81015,81016,81017,81018,81019,81001,81001,81002,81003,81004,81005,81006,81007,81008,81009,81010,81011,81012,81013,81014,81015,81016,81017,81018,81019,81020,81021,81022,81023,81024,81025,81026,81027,81028,81029,81030,81031,81032,81033,81034,81035,81036,81037,81038,81039,81040,81041,81001,81002,81003,81004,81005,81006,81007,81008,81009,81010,81011,81012,81013,81014,81015,81016,81017,81018,81019,81020,81021,81022,81023,81024,81025,81026,81027,81028,81029,81030,81031,81032,81033,81034,81035,81036,81037,81038,81039,81040,81041,81042,81043,81044,81045,81046,81047,81048,81049,81050,81051,81052,81053,81054,81055,81056,81057,81058,81059,81060,81061,81062,81063,81064,81065,81066,81067,81068,81069,81070,81071,81072,81073,81046,81047,81048,81049,81091,81092,81093,81094,81095,81096,81097,81098,81099,81100,81101,81102,81103,81104,81105,81106,81001,81002,81003,81004,81005,81006,81007,81008,81009,81010,81011,81012,81013,81014,81015,81016,81017,81018,81019,81020,81021,81022,81023,81024,81025,81026,81027,81028,81029,81030,81031,81032,81033,81034,81035,81036,81037,81038,81039,81040,81041,81042,81043,81044,81045,81046,81047,81048,81049,81050,81051,81052,81053,81054,81055,81001,81002,81003,81004,81005,81006,81007,81008,81009,81010,81011,81012,81013,81014,81015,81016,81017,81018,81019,81020,81021,81022,81023,81024,81025,81026,81027,81028,81029,81030,81031,81032,81033,81034,81035,81036,81037,81038,81039,81001,81002,81003,81004,81005,81006,81007,81008,81009,81010,81011,81012,81013,81014,81015,81016,81017,81018,81019,81020,81021,81022,81023,81024,81025,81009,81010,81011,81012,81013,81014,81015,81016,81017,81018,77281,77281,77282,77283,77284,77285,77281,77281,77282,77283,77284,77285,
81121,81121,81122,81123,81124,81125,81126,81127,81128,81129,81130,81131,81132,81133,81134,81135,81136,81137,81138,81139,81128,81129,81130,81131,81132,81133,81134,81135,81136,81137,81138,81139,81121,81121,81122,81123,81124,81125,81126,81127,81128,81129,81130,81131,81132,81133,81134,81135,81136,81137,81138,81139,81140,81141,81142,81143,81144,81145,81146,81147,81148,81149,81150,81151,81152,81153,81154,81155,81156,81157,81158,81159,81160,81161,81121,81122,81123,81124,81125,81126,81127,81128,81129,81130,81131,81132,81133,81134,81135,81136,81137,81138,81139,81140,81141,81142,81143,81144,81145,81146,81147,81148,81149,81150,81151,81152,81153,81154,81155,81156,81157,81158,81159,81160,81161,81162,81163,81164,81165,81166,81167,81168,81169,81170,81171,81172,81173,81174,81175,81176,81177,81178,81179,81180,81181,81182,81183,81184,81185,81186,81187,81188,81189,81190,81191,81192,81193,81166,81167,81168,81169,81211,81212,81213,81214,81215,81216,81217,81218,81219,81220,81221,81222,81223,81224,81225,81226,81121,81122,81123,81124,81125,81126,81127,81128,81129,81130,81131,81132,81133,81134,81135,81136,81137,81138,81139,81140,81141,81142,81143,81144,81145,81146,81147,81148,81149,81150,81151,81152,81153,81154,81155,81156,81157,81158,81159,81160,81161,81162,81163,81164,81165,81166,81167,81168,81169,81170,81171,81172,81173,81174,81175,81121,81122,81123,81124,81125,81126,81127,81128,81129,81130,81131,81132,81133,81134,81135,81136,81137,81138,81139,81140,81141,81142,81143,81144,81145,81146,81147,81148,81149,81150,81151,81152,81153,81154,81155,81156,81157,81158,81159,81121,81122,81123,81124,81125,81126,81127,81128,81129,81130,81131,81132,81133,81134,81135,81136,81137,81138,81139,81140,81141,81142,81143,81144,81145,81129,81130,81131,81132,81133,81134,81135,81136,81137,81138,77401,77401,77402,77403,77404,77405,77401,77401,77402,77403,77404,77405,
81241,81241,81242,81243,81244,81245,81246,81247,81248,81249,81250,81251,81252,81253,81254,81255,81256,81257,81258,81259,81248,81249,81250,81251,81252,81253,81254,81255,81256,81257,81258,81259,81241,81241,81242,81243,81244,81245,81246,81247,81248,81249,81250,81251,81252,81253,81254,81255,81256,81257,81258,81259,81260,81261,81262,81263,81264,81265,81266,81267,81268,81269,81270,81271,81272,81273,81274,81275,81276,81277,81278,81279,81280,81281,81241,81242,81243,81244,81245,81246,81247,81248,81249,81250,81251,81252,81253,81254,81255,81256,81257,81258,81259,81260,81261,81262,81263,81264,81265,81266,81267,81268,81269,81270,81271,81272,81273,81274,81275,81276,81277,81278,81279,81280,81281,81282,81283,81284,81285,81286,81287,81288,81289,81290,81291,81292,81293,81294,81295,81296,81297,81298,81299,81300,81301,81302,81303,81304,81305,81306,81307,81308,81309,81310,81311,81312,81313,81286,81287,81288,81289,81331,81332,81333,81334,81335,81336,81337,81338,81339,81340,81341,81342,81343,81344,81345,81346,81241,81242,81243,81244,81245,81246,81247,81248,81249,81250,81251,81252,81253,81254,81255,81256,81257,81258,81259,81260,81261,81262,81263,81264,81265,81266,81267,81268,81269,81270,81271,81272,81273,81274,81275,81276,81277,81278,81279,81280,81281,81282,81283,81284,81285,81286,81287,81288,81289,81290,81291,81292,81293,81294,81295,81241,81242,81243,81244,81245,81246,81247,81248,81249,81250,81251,81252,81253,81254,81255,81256,81257,81258,81259,81260,81261,81262,81263,81264,81265,81266,81267,81268,81269,81270,81271,81272,81273,81274,81275,81276,81277,81278,81279,81241,81242,81243,81244,81245,81246,81247,81248,81249,81250,81251,81252,81253,81254,81255,81256,81257,81258,81259,81260,81261,81262,81263,81264,81265,81249,81250,81251,81252,81253,81254,81255,81256,81257,81258,76561,76561,76562,76563,76564,76565,76561,76561,76562,76563,76564,76565,
81361,81361,81362,81363,81364,81365,81366,81367,81368,81369,81370,81371,81372,81373,81374,81375,81376,81377,81378,81379,81368,81369,81370,81371,81372,81373,81374,81375,81376,81377,81378,81379,81361,81361,81362,81363,81364,81365,81366,81367,81368,81369,81370,81371,81372,81373,81374,81375,81376,81377,81378,81379,81380,81381,81382,81383,81384,81385,81386,81387,81388,81389,81390,81391,81392,81393,81394,81395,81396,81397,81398,81399,81400,81401,81361,81362,81363,81364,81365,81366,81367,81368,81369,81370,81371,81372,81373,81374,81375,81376,81377,81378,81379,81380,81381,81382,81383,81384,81385,81386,81387,81388,81389,81390,81391,81392,81393,81394,81395,81396,81397,81398,81399,81400,81401,81402,81403,81404,81405,81406,81407,81408,81409,81410,81411,81412,81413,81414,81415,81416,81417,81418,81419,81420,81421,81422,81423,81424,81425,81426,81427,81428,81429,81430,81431,81432,81433,81406,81407,81408,81409,81451,81452,81453,81454,81455,81456,81457,81458,81459,81460,81461,81462,81463,81464,81465,81466,81361,81362,81363,81364,81365,81366,81367,81368,81369,81370,81371,81372,81373,81374,81375,81376,81377,81378,81379,81380,81381,81382,81383,81384,81385,81386,81387,81388,81389,81390,81391,81392,81393,81394,81395,81396,81397,81398,81399,81400,81401,81402,81403,81404,81405,81406,81407,81408,81409,81410,81411,81412,81413,81414,81415,81361,81362,81363,81364,81365,81366,81367,81368,81369,81370,81371,81372,81373,81374,81375,81376,81377,81378,81379,81380,81381,81382,81383,81384,81385,81386,81387,81388,81389,81390,81391,81392,81393,81394,81395,81396,81397,81398,81399,81361,81362,81363,81364,81365,81366,81367,81368,81369,81370,81371,81372,81373,81374,81375,81376,81377,81378,81379,81380,81381,81382,81383,81384,81385,81369,81370,81371,81372,81373,81374,81375,81376,81377,81378,76681,76681,76682,76683,76684,76685,76681,76681,76682,76683,76684,76685,
81481,81481,81482,81483,81484,81485,81486,81487,81488,81489,81490,81491,81492,81493,81494,81495,81496,81497,81498,81499,81488,81489,81490,81491,81492,81493,81494,81495,81496,81497,81498,81499,81481,81481,81482,81483,81484,81485,81486,81487,81488,81489,81490,81491,81492,81493,81494,81495,81496,81497,81498,81499,81500,81501,81502,81503,81504,81505,81506,81507,81508,81509,81510,81511,81512,81513,81514,81515,81516,81517,81518,81519,81520,81521,81481,81482,81483,81484,81485,81486,81487,81488,81489,81490,81491,81492,81493,81494,81495,81496,81497,81498,81499,81500,81501,81502,81503,81504,81505,81506,81507,81508,81509,81510,81511,81512,81513,81514,81515,81516,81517,81518,81519,81520,81521,81522,81523,81524,81525,81526,81527,81528,81529,81530,81531,81532,81533,81534,81535,81536,81537,81538,81539,81540,81541,81542,81543,81544,81545,81546,81547,81548,81549,81550,81551,81552,81553,81526,81527,81528,81529,81571,81572,81573,81574,81575,81576,81577,81578,81579,81580,81581,81582,81583,81584,81585,81586,81481,81482,81483,81484,81485,81486,81487,81488,81489,81490,81491,81492,81493,81494,81495,81496,81497,81498,81499,81500,81501,81502,81503,81504,81505,81506,81507,81508,81509,81510,81511,81512,81513,81514,81515,81516,81517,81518,81519,81520,81521,81522,81523,81524,81525,81526,81527,81528,81529,81530,81531,81532,81533,81534,81535,81481,81482,81483,81484,81485,81486,81487,81488,81489,81490,81491,81492,81493,81494,81495,81496,81497,81498,81499,81500,81501,81502,81503,81504,81505,81506,81507,81508,81509,81510,81511,81512,81513,81514,81515,81516,81517,81518,81519,81481,81482,81483,81484,81485,81486,81487,81488,81489,81490,81491,81492,81493,81494,81495,81496,81497,81498,81499,81500,81501,81502,81503,81504,81505,81489,81490,81491,81492,81493,81494,81495,81496,81497,81498,76801,76801,76802,76803,76804,76805,76801,76801,76802,76803,76804,76805,
81601,81601,81602,81603,81604,81605,81606,81607,81608,81609,81610,81611,81612,81613,81614,81615,81616,81617,81618,81619,81608,81609,81610,81611,81612,81613,81614,81615,81616,81617,81618,81619,81601,81601,81602,81603,81604,81605,81606,81607,81608,81609,81610,81611,81612,81613,81614,81615,81616,81617,81618,81619,81620,81621,81622,81623,81624,81625,81626,81627,81628,81629,81630,81631,81632,81633,81634,81635,81636,81637,81638,81639,81640,81641,81601,81602,81603,81604,81605,81606,81607,81608,81609,81610,81611,81612,81613,81614,81615,81616,81617,81618,81619,81620,81621,81622,81623,81624,81625,81626,81627,81628,81629,81630,81631,81632,81633,81634,81635,81636,81637,81638,81639,81640,81641,81642,81643,81644,81645,81646,81647,81648,81649,81650,81651,81652,81653,81654,81655,81656,81657,81658,81659,81660,81661,81662,81663,81664,81665,81666,81667,81668,81669,81670,81671,81672,81673,81646,81647,81648,81649,81691,81692,81693,81694,81695,81696,81697,81698,81699,81700,81701,81702,81703,81704,81705,81706,81601,81602,81603,81604,81605,81606,81607,81608,81609,81610,81611,81612,81613,81614,81615,81616,81617,81618,81619,81620,81621,81622,81623,81624,81625,81626,81627,81628,81629,81630,81631,81632,81633,81634,81635,81636,81637,81638,81639,81640,81641,81642,81643,81644,81645,81646,81647,81648,81649,81650,81651,81652,81653,81654,81655,81601,81602,81603,81604,81605,81606,81607,81608,81609,81610,81611,81612,81613,81614,81615,81616,81617,81618,81619,81620,81621,81622,81623,81624,81625,81626,81627,81628,81629,81630,81631,81632,81633,81634,81635,81636,81637,81638,81639,81601,81602,81603,81604,81605,81606,81607,81608,81609,81610,81611,81612,81613,81614,81615,81616,81617,81618,81619,81620,81621,81622,81623,81624,81625,81609,81610,81611,81612,81613,81614,81615,81616,81617,81618,76921,76921,76922,76923,76924,76925,76921,76921,76922,76923,76924,76925,
81721,81721,81722,81723,81724,81725,81726,81727,81728,81729,81730,81731,81732,81733,81734,81735,81736,81737,81738,81739,81728,81729,81730,81731,81732,81733,81734,81735,81736,81737,81738,81739,81721,81721,81722,81723,81724,81725,81726,81727,81728,81729,81730,81731,81732,81733,81734,81735,81736,81737,81738,81739,81740,81741,81742,81743,81744,81745,81746,81747,81748,81749,81750,81751,81752,81753,81754,81755,81756,81757,81758,81759,81760,81761,81721,81722,81723,81724,81725,81726,81727,81728,81729,81730,81731,81732,81733,81734,81735,81736,81737,81738,81739,81740,81741,81742,81743,81744,81745,81746,81747,81748,81749,81750,81751,81752,81753,81754,81755,81756,81757,81758,81759,81760,81761,81762,81763,81764,81765,81766,81767,81768,81769,81770,81771,81772,81773,81774,81775,81776,81777,81778,81779,81780,81781,81782,81783,81784,81785,81786,81787,81788,81789,81790,81791,81792,81793,81766,81767,81768,81769,81811,81812,81813,81814,81815,81816,81817,81818,81819,81820,81821,81822,81823,81824,81825,81826,81721,81722,81723,81724,81725,81726,81727,81728,81729,81730,81731,81732,81733,81734,81735,81736,81737,81738,81739,81740,81741,81742,81743,81744,81745,81746,81747,81748,81749,81750,81751,81752,81753,81754,81755,81756,81757,81758,81759,81760,81761,81762,81763,81764,81765,81766,81767,81768,81769,81770,81771,81772,81773,81774,81775,81721,81722,81723,81724,81725,81726,81727,81728,81729,81730,81731,81732,81733,81734,81735,81736,81737,81738,81739,81740,81741,81742,81743,81744,81745,81746,81747,81748,81749,81750,81751,81752,81753,81754,81755,81756,81757,81758,81759,81721,81722,81723,81724,81725,81726,81727,81728,81729,81730,81731,81732,81733,81734,81735,81736,81737,81738,81739,81740,81741,81742,81743,81744,81745,81729,81730,81731,81732,81733,81734,81735,81736,81737,81738,77041,77041,77042,77043,77044,77045,77041,77041,77042,77043,77044,77045,
81841,81841,81842,81843,81844,81845,81846,81847,81848,81849,81850,81851,81852,81853,81854,81855,81856,81857,81858,81859,81848,81849,81850,81851,81852,81853,81854,81855,81856,81857,81858,81859,81841,81841,81842,81843,81844,81845,81846,81847,81848,81849,81850,81851,81852,81853,81854,81855,81856,81857,81858,81859,81860,81861,81862,81863,81864,81865,81866,81867,81868,81869,81870,81871,81872,81873,81874,81875,81876,81877,81878,81879,81880,81881,81841,81842,81843,81844,81845,81846,81847,81848,81849,81850,81851,81852,81853,81854,81855,81856,81857,81858,81859,81860,81861,81862,81863,81864,81865,81866,81867,81868,81869,81870,81871,81872,81873,81874,81875,81876,81877,81878,81879,81880,81881,81882,81883,81884,81885,81886,81887,81888,81889,81890,81891,81892,81893,81894,81895,81896,81897,81898,81899,81900,81901,81902,81903,81904,81905,81906,81907,81908,81909,81910,81911,81912,81913,81886,81887,81888,81889,81931,81932,81933,81934,81935,81936,81937,81938,81939,81940,81941,81942,81943,81944,81945,81946,81841,81842,81843,81844,81845,81846,81847,81848,81849,81850,81851,81852,81853,81854,81855,81856,81857,81858,81859,81860,81861,81862,81863,81864,81865,81866,81867,81868,81869,81870,81871,81872,81873,81874,81875,81876,81877,81878,81879,81880,81881,81882,81883,81884,81885,81886,81887,81888,81889,81890,81891,81892,81893,81894,81895,81841,81842,81843,81844,81845,81846,81847,81848,81849,81850,81851,81852,81853,81854,81855,81856,81857,81858,81859,81860,81861,81862,81863,81864,81865,81866,81867,81868,81869,81870,81871,81872,81873,81874,81875,81876,81877,81878,81879,81841,81842,81843,81844,81845,81846,81847,81848,81849,81850,81851,81852,81853,81854,81855,81856,81857,81858,81859,81860,81861,81862,81863,81864,81865,81849,81850,81851,81852,81853,81854,81855,81856,81857,81858,77161,77161,77162,77163,77164,77165,77161,77161,77162,77163,77164,77165,
81961,81961,81962,81963,81964,81965,81966,81967,81968,81969,81970,81971,81972,81973,81974,81975,81976,81977,81978,81979,81968,81969,81970,81971,81972,81973,81974,81975,81976,81977,81978,81979,81961,81961,81962,81963,81964,81965,81966,81967,81968,81969,81970,81971,81972,81973,81974,81975,81976,81977,81978,81979,81980,81981,81982,81983,81984,81985,81986,81987,81988,81989,81990,81991,81992,81993,81994,81995,81996,81997,81998,81999,82000,82001,81961,81962,81963,81964,81965,81966,81967,81968,81969,81970,81971,81972,81973,81974,81975,81976,81977,81978,81979,81980,81981,81982,81983,81984,81985,81986,81987,81988,81989,81990,81991,81992,81993,81994,81995,81996,81997,81998,81999,82000,82001,82002,82003,82004,82005,82006,82007,82008,82009,82010,82011,82012,82013,82014,82015,82016,82017,82018,82019,82020,82021,82022,82023,82024,82025,82026,82027,82028,82029,82030,82031,82032,82033,82006,82007,82008,82009,82051,82052,82053,82054,82055,82056,82057,82058,82059,82060,82061,82062,82063,82064,82065,82066,81961,81962,81963,81964,81965,81966,81967,81968,81969,81970,81971,81972,81973,81974,81975,81976,81977,81978,81979,81980,81981,81982,81983,81984,81985,81986,81987,81988,81989,81990,81991,81992,81993,81994,81995,81996,81997,81998,81999,82000,82001,82002,82003,82004,82005,82006,82007,82008,82009,82010,82011,82012,82013,82014,82015,81961,81962,81963,81964,81965,81966,81967,81968,81969,81970,81971,81972,81973,81974,81975,81976,81977,81978,81979,81980,81981,81982,81983,81984,81985,81986,81987,81988,81989,81990,81991,81992,81993,81994,81995,81996,81997,81998,81999,81961,81962,81963,81964,81965,81966,81967,81968,81969,81970,81971,81972,81973,81974,81975,81976,81977,81978,81979,81980,81981,81982,81983,81984,81985,81969,81970,81971,81972,81973,81974,81975,81976,81977,81978,77281,77281,77282,77283,77284,77285,77281,77281,77282,77283,77284,77285,
82081,82081,82082,82083,82084,82085,82086,82087,82088,82089,82090,82091,82092,82093,82094,82095,82096,82097,82098,82099,82088,82089,82090,82091,82092,82093,82094,82095,82096,82097,82098,82099,82081,82081,82082,82083,82084,82085,82086,82087,82088,82089,82090,82091,82092,82093,82094,82095,82096,82097,82098,82099,82100,82101,82102,82103,82104,82105,82106,82107,82108,82109,82110,82111,82112,82113,82114,82115,82116,82117,82118,82119,82120,82121,82081,82082,82083,82084,82085,82086,82087,82088,82089,82090,82091,82092,82093,82094,82095,82096,82097,82098,82099,82100,82101,82102,82103,82104,82105,82106,82107,82108,82109,82110,82111,82112,82113,82114,82115,82116,82117,82118,82119,82120,82121,82122,82123,82124,82125,82126,82127,82128,82129,82130,82131,82132,82133,82134,82135,82136,82137,82138,82139,82140,82141,82142,82143,82144,82145,82146,82147,82148,82149,82150,82151,82152,82153,82126,82127,82128,82129,82171,82172,82173,82174,82175,82176,82177,82178,82179,82180,82181,82182,82183,82184,82185,82186,82081,82082,82083,82084,82085,82086,82087,82088,82089,82090,82091,82092,82093,82094,82095,82096,82097,82098,82099,82100,82101,82102,82103,82104,82105,82106,82107,82108,82109,82110,82111,82112,82113,82114,82115,82116,82117,82118,82119,82120,82121,82122,82123,82124,82125,82126,82127,82128,82129,82130,82131,82132,82133,82134,82135,82081,82082,82083,82084,82085,82086,82087,82088,82089,82090,82091,82092,82093,82094,82095,82096,82097,82098,82099,82100,82101,82102,82103,82104,82105,82106,82107,82108,82109,82110,82111,82112,82113,82114,82115,82116,82117,82118,82119,82081,82082,82083,82084,82085,82086,82087,82088,82089,82090,82091,82092,82093,82094,82095,82096,82097,82098,82099,82100,82101,82102,82103,82104,82105,82089,82090,82091,82092,82093,82094,82095,82096,82097,82098,77401,77401,77402,77403,77404,77405,77401,77401,77402,77403,77404,77405,
82201,82201,82202,82203,82204,82205,82206,82207,82208,82209,82210,82211,82212,82213,82214,82215,82216,82217,82218,82219,82208,82209,82210,82211,82212,82213,82214,82215,82216,82217,82218,82219,82201,82201,82202,82203,82204,82205,82206,82207,82208,82209,82210,82211,82212,82213,82214,82215,82216,82217,82218,82219,82220,82221,82222,82223,82224,82225,82226,82227,82228,82229,82230,82231,82232,82233,82234,82235,82236,82237,82238,82239,82240,82241,82201,82202,82203,82204,82205,82206,82207,82208,82209,82210,82211,82212,82213,82214,82215,82216,82217,82218,82219,82220,82221,82222,82223,82224,82225,82226,82227,82228,82229,82230,82231,82232,82233,82234,82235,82236,82237,82238,82239,82240,82241,82242,82243,82244,82245,82246,82247,82248,82249,82250,82251,82252,82253,82254,82255,82256,82257,82258,82259,82260,82261,82262,82263,82264,82265,82266,82267,82268,82269,82270,82271,82272,82273,82246,82247,82248,82249,82291,82292,82293,82294,82295,82296,82297,82298,82299,82300,82301,82302,82303,82304,82305,82306,82201,82202,82203,82204,82205,82206,82207,82208,82209,82210,82211,82212,82213,82214,82215,82216,82217,82218,82219,82220,82221,82222,82223,82224,82225,82226,82227,82228,82229,82230,82231,82232,82233,82234,82235,82236,82237,82238,82239,82240,82241,82242,82243,82244,82245,82246,82247,82248,82249,82250,82251,82252,82253,82254,82255,82201,82202,82203,82204,82205,82206,82207,82208,82209,82210,82211,82212,82213,82214,82215,82216,82217,82218,82219,82220,82221,82222,82223,82224,82225,82226,82227,82228,82229,82230,82231,82232,82233,82234,82235,82236,82237,82238,82239,82201,82202,82203,82204,82205,82206,82207,82208,82209,82210,82211,82212,82213,82214,82215,82216,82217,82218,82219,82220,82221,82222,82223,82224,82225,82209,82210,82211,82212,82213,82214,82215,82216,82217,82218,76561,76561,76562,76563,76564,76565,76561,76561,76562,76563,76564,76565,
82321,82321,82322,82323,82324,82325,82326,82327,82328,82329,82330,82331,82332,82333,82334,82335,82336,82337,82338,82339,82328,82329,82330,82331,82332,82333,82334,82335,82336,82337,82338,82339,82321,82321,82322,82323,82324,82325,82326,82327,82328,82329,82330,82331,82332,82333,82334,82335,82336,82337,82338,82339,82340,82341,82342,82343,82344,82345,82346,82347,82348,82349,82350,82351,82352,82353,82354,82355,82356,82357,82358,82359,82360,82361,82321,82322,82323,82324,82325,82326,82327,82328,82329,82330,82331,82332,82333,82334,82335,82336,82337,82338,82339,82340,82341,82342,82343,82344,82345,82346,82347,82348,82349,82350,82351,82352,82353,82354,82355,82356,82357,82358,82359,82360,82361,82362,82363,82364,82365,82366,82367,82368,82369,82370,82371,82372,82373,82374,82375,82376,82377,82378,82379,82380,82381,82382,82383,82384,82385,82386,82387,82388,82389,82390,82391,82392,82393,82366,82367,82368,82369,82411,82412,82413,82414,82415,82416,82417,82418,82419,82420,82421,82422,82423,82424,82425,82426,82321,82322,82323,82324,82325,82326,82327,82328,82329,82330,82331,82332,82333,82334,82335,82336,82337,82338,82339,82340,82341,82342,82343,82344,82345,82346,82347,82348,82349,82350,82351,82352,82353,82354,82355,82356,82357,82358,82359,82360,82361,82362,82363,82364,82365,82366,82367,82368,82369,82370,82371,82372,82373,82374,82375,82321,82322,82323,82324,82325,82326,82327,82328,82329,82330,82331,82332,82333,82334,82335,82336,82337,82338,82339,82340,82341,82342,82343,82344,82345,82346,82347,82348,82349,82350,82351,82352,82353,82354,82355,82356,82357,82358,82359,82321,82322,82323,82324,82325,82326,82327,82328,82329,82330,82331,82332,82333,82334,82335,82336,82337,82338,82339,82340,82341,82342,82343,82344,82345,82329,82330,82331,82332,82333,82334,82335,82336,82337,82338,76681,76681,76682,76683,76684,76685,76681,76681,76682,76683,76684,76685,
82441,82441,82442,82443,82444,82445,82446,82447,82448,82449,82450,82451,82452,82453,82454,82455,82456,82457,82458,82459,82448,82449,82450,82451,82452,82453,82454,82455,82456,82457,82458,82459,82441,82441,82442,82443,82444,82445,82446,82447,82448,82449,82450,82451,82452,82453,82454,82455,82456,82457,82458,82459,82460,82461,82462,82463,82464,82465,82466,82467,82468,82469,82470,82471,82472,82473,82474,82475,82476,82477,82478,82479,82480,82481,82441,82442,82443,82444,82445,82446,82447,82448,82449,82450,82451,82452,82453,82454,82455,82456,82457,82458,82459,82460,82461,82462,82463,82464,82465,82466,82467,82468,82469,82470,82471,82472,82473,82474,82475,82476,82477,82478,82479,82480,82481,82482,82483,82484,82485,82486,82487,82488,82489,82490,82491,82492,82493,82494,82495,82496,82497,82498,82499,82500,82501,82502,82503,82504,82505,82506,82507,82508,82509,82510,82511,82512,82513,82486,82487,82488,82489,82531,82532,82533,82534,82535,82536,82537,82538,82539,82540,82541,82542,82543,82544,82545,82546,82441,82442,82443,82444,82445,82446,82447,82448,82449,82450,82451,82452,82453,82454,82455,82456,82457,82458,82459,82460,82461,82462,82463,82464,82465,82466,82467,82468,82469,82470,82471,82472,82473,82474,82475,82476,82477,82478,82479,82480,82481,82482,82483,82484,82485,82486,82487,82488,82489,82490,82491,82492,82493,82494,82495,82441,82442,82443,82444,82445,82446,82447,82448,82449,82450,82451,82452,82453,82454,82455,82456,82457,82458,82459,82460,82461,82462,82463,82464,82465,82466,82467,82468,82469,82470,82471,82472,82473,82474,82475,82476,82477,82478,82479,82441,82442,82443,82444,82445,82446,82447,82448,82449,82450,82451,82452,82453,82454,82455,82456,82457,82458,82459,82460,82461,82462,82463,82464,82465,82449,82450,82451,82452,82453,82454,82455,82456,82457,82458,76801,76801,76802,76803,76804,76805,76801,76801,76802,76803,76804,76805,
82561,82561,82562,82563,82564,82565,82566,82567,82568,82569,82570,82571,82572,82573,82574,82575,82576,82577,82578,82579,82568,82569,82570,82571,82572,82573,82574,82575,82576,82577,82578,82579,82561,82561,82562,82563,82564,82565,82566,82567,82568,82569,82570,82571,82572,82573,82574,82575,82576,82577,82578,82579,82580,82581,82582,82583,82584,82585,82586,82587,82588,82589,82590,82591,82592,82593,82594,82595,82596,82597,82598,82599,82600,82601,82561,82562,82563,82564,82565,82566,82567,82568,82569,82570,82571,82572,82573,82574,82575,82576,82577,82578,82579,82580,82581,82582,82583,82584,82585,82586,82587,82588,82589,82590,82591,82592,82593,82594,82595,82596,82597,82598,82599,82600,82601,82602,82603,82604,82605,82606,82607,82608,82609,82610,82611,82612,82613,82614,82615,82616,82617,82618,82619,82620,82621,82622,82623,82624,82625,82626,82627,82628,82629,82630,82631,82632,82633,82606,82607,82608,82609,82651,82652,82653,82654,82655,82656,82657,82658,82659,82660,82661,82662,82663,82664,82665,82666,82561,82562,82563,82564,82565,82566,82567,82568,82569,82570,82571,82572,82573,82574,82575,82576,82577,82578,82579,82580,82581,82582,82583,82584,82585,82586,82587,82588,82589,82590,82591,82592,82593,82594,82595,82596,82597,82598,82599,82600,82601,82602,82603,82604,82605,82606,82607,82608,82609,82610,82611,82612,82613,82614,82615,82561,82562,82563,82564,82565,82566,82567,82568,82569,82570,82571,82572,82573,82574,82575,82576,82577,82578,82579,82580,82581,82582,82583,82584,82585,82586,82587,82588,82589,82590,82591,82592,82593,82594,82595,82596,82597,82598,82599,82561,82562,82563,82564,82565,82566,82567,82568,82569,82570,82571,82572,82573,82574,82575,82576,82577,82578,82579,82580,82581,82582,82583,82584,82585,82569,82570,82571,82572,82573,82574,82575,82576,82577,82578,76921,76921,76922,76923,76924,76925,76921,76921,76922,76923,76924,76925,
82681,82681,82682,82683,82684,82685,82686,82687,82688,82689,82690,82691,82692,82693,82694,82695,82696,82697,82698,82699,82688,82689,82690,82691,82692,82693,82694,82695,82696,82697,82698,82699,82681,82681,82682,82683,82684,82685,82686,82687,82688,82689,82690,82691,82692,82693,82694,82695,82696,82697,82698,82699,82700,82701,82702,82703,82704,82705,82706,82707,82708,82709,82710,82711,82712,82713,82714,82715,82716,82717,82718,82719,82720,82721,82681,82682,82683,82684,82685,82686,82687,82688,82689,82690,82691,82692,82693,82694,82695,82696,82697,82698,82699,82700,82701,82702,82703,82704,82705,82706,82707,82708,82709,82710,82711,82712,82713,82714,82715,82716,82717,82718,82719,82720,82721,82722,82723,82724,82725,82726,82727,82728,82729,82730,82731,82732,82733,82734,82735,82736,82737,82738,82739,82740,82741,82742,82743,82744,82745,82746,82747,82748,82749,82750,82751,82752,82753,82726,82727,82728,82729,82771,82772,82773,82774,82775,82776,82777,82778,82779,82780,82781,82782,82783,82784,82785,82786,82681,82682,82683,82684,82685,82686,82687,82688,82689,82690,82691,82692,82693,82694,82695,82696,82697,82698,82699,82700,82701,82702,82703,82704,82705,82706,82707,82708,82709,82710,82711,82712,82713,82714,82715,82716,82717,82718,82719,82720,82721,82722,82723,82724,82725,82726,82727,82728,82729,82730,82731,82732,82733,82734,82735,82681,82682,82683,82684,82685,82686,82687,82688,82689,82690,82691,82692,82693,82694,82695,82696,82697,82698,82699,82700,82701,82702,82703,82704,82705,82706,82707,82708,82709,82710,82711,82712,82713,82714,82715,82716,82717,82718,82719,82681,82682,82683,82684,82685,82686,82687,82688,82689,82690,82691,82692,82693,82694,82695,82696,82697,82698,82699,82700,82701,82702,82703,82704,82705,82689,82690,82691,82692,82693,82694,82695,82696,82697,82698,77041,77041,77042,77043,77044,77045,77041,77041,77042,77043,77044,77045,
82801,82801,82802,82803,82804,82805,82806,82807,82808,82809,82810,82811,82812,82813,82814,82815,82816,82817,82818,82819,82808,82809,82810,82811,82812,82813,82814,82815,82816,82817,82818,82819,82801,82801,82802,82803,82804,82805,82806,82807,82808,82809,82810,82811,82812,82813,82814,82815,82816,82817,82818,82819,82820,82821,82822,82823,82824,82825,82826,82827,82828,82829,82830,82831,82832,82833,82834,82835,82836,82837,82838,82839,82840,82841,82801,82802,82803,82804,82805,82806,82807,82808,82809,82810,82811,82812,82813,82814,82815,82816,82817,82818,82819,82820,82821,82822,82823,82824,82825,82826,82827,82828,82829,82830,82831,82832,82833,82834,82835,82836,82837,82838,82839,82840,82841,82842,82843,82844,82845,82846,82847,82848,82849,82850,82851,82852,82853,82854,82855,82856,82857,82858,82859,82860,82861,82862,82863,82864,82865,82866,82867,82868,82869,82870,82871,82872,82873,82846,82847,82848,82849,82891,82892,82893,82894,82895,82896,82897,82898,82899,82900,82901,82902,82903,82904,82905,82906,82801,82802,82803,82804,82805,82806,82807,82808,82809,82810,82811,82812,82813,82814,82815,82816,82817,82818,82819,82820,82821,82822,82823,82824,82825,82826,82827,82828,82829,82830,82831,82832,82833,82834,82835,82836,82837,82838,82839,82840,82841,82842,82843,82844,82845,82846,82847,82848,82849,82850,82851,82852,82853,82854,82855,82801,82802,82803,82804,82805,82806,82807,82808,82809,82810,82811,82812,82813,82814,82815,82816,82817,82818,82819,82820,82821,82822,82823,82824,82825,82826,82827,82828,82829,82830,82831,82832,82833,82834,82835,82836,82837,82838,82839,82801,82802,82803,82804,82805,82806,82807,82808,82809,82810,82811,82812,82813,82814,82815,82816,82817,82818,82819,82820,82821,82822,82823,82824,82825,82809,82810,82811,82812,82813,82814,82815,82816,82817,82818,77161,77161,77162,77163,77164,77165,77161,77161,77162,77163,77164,77165,
82921,82921,82922,82923,82924,82925,82926,82927,82928,82929,82930,82931,82932,82933,82934,82935,82936,82937,82938,82939,82928,82929,82930,82931,82932,82933,82934,82935,82936,82937,82938,82939,82921,82921,82922,82923,82924,82925,82926,82927,82928,82929,82930,82931,82932,82933,82934,82935,82936,82937,82938,82939,82940,82941,82942,82943,82944,82945,82946,82947,82948,82949,82950,82951,82952,82953,82954,82955,82956,82957,82958,82959,82960,82961,82921,82922,82923,82924,82925,82926,82927,82928,82929,82930,82931,82932,82933,82934,82935,82936,82937,82938,82939,82940,82941,82942,82943,82944,82945,82946,82947,82948,82949,82950,82951,82952,82953,82954,82955,82956,82957,82958,82959,82960,82961,82962,82963,82964,82965,82966,82967,82968,82969,82970,82971,82972,82973,82974,82975,82976,82977,82978,82979,82980,82981,82982,82983,82984,82985,82986,82987,82988,82989,82990,82991,82992,82993,82966,82967,82968,82969,83011,83012,83013,83014,83015,83016,83017,83018,83019,83020,83021,83022,83023,83024,83025,83026,82921,82922,82923,82924,82925,82926,82927,82928,82929,82930,82931,82932,82933,82934,82935,82936,82937,82938,82939,82940,82941,82942,82943,82944,82945,82946,82947,82948,82949,82950,82951,82952,82953,82954,82955,82956,82957,82958,82959,82960,82961,82962,82963,82964,82965,82966,82967,82968,82969,82970,82971,82972,82973,82974,82975,82921,82922,82923,82924,82925,82926,82927,82928,82929,82930,82931,82932,82933,82934,82935,82936,82937,82938,82939,82940,82941,82942,82943,82944,82945,82946,82947,82948,82949,82950,82951,82952,82953,82954,82955,82956,82957,82958,82959,82921,82922,82923,82924,82925,82926,82927,82928,82929,82930,82931,82932,82933,82934,82935,82936,82937,82938,82939,82940,82941,82942,82943,82944,82945,82929,82930,82931,82932,82933,82934,82935,82936,82937,82938,77281,77281,77282,77283,77284,77285,77281,77281,77282,77283,77284,77285,
83041,83041,83042,83043,83044,83045,83046,83047,83048,83049,83050,83051,83052,83053,83054,83055,83056,83057,83058,83059,83048,83049,83050,83051,83052,83053,83054,83055,83056,83057,83058,83059,83041,83041,83042,83043,83044,83045,83046,83047,83048,83049,83050,83051,83052,83053,83054,83055,83056,83057,83058,83059,83060,83061,83062,83063,83064,83065,83066,83067,83068,83069,83070,83071,83072,83073,83074,83075,83076,83077,83078,83079,83080,83081,83041,83042,83043,83044,83045,83046,83047,83048,83049,83050,83051,83052,83053,83054,83055,83056,83057,83058,83059,83060,83061,83062,83063,83064,83065,83066,83067,83068,83069,83070,83071,83072,83073,83074,83075,83076,83077,83078,83079,83080,83081,83082,83083,83084,83085,83086,83087,83088,83089,83090,83091,83092,83093,83094,83095,83096,83097,83098,83099,83100,83101,83102,83103,83104,83105,83106,83107,83108,83109,83110,83111,83112,83113,83086,83087,83088,83089,83131,83132,83133,83134,83135,83136,83137,83138,83139,83140,83141,83142,83143,83144,83145,83146,83041,83042,83043,83044,83045,83046,83047,83048,83049,83050,83051,83052,83053,83054,83055,83056,83057,83058,83059,83060,83061,83062,83063,83064,83065,83066,83067,83068,83069,83070,83071,83072,83073,83074,83075,83076,83077,83078,83079,83080,83081,83082,83083,83084,83085,83086,83087,83088,83089,83090,83091,83092,83093,83094,83095,83041,83042,83043,83044,83045,83046,83047,83048,83049,83050,83051,83052,83053,83054,83055,83056,83057,83058,83059,83060,83061,83062,83063,83064,83065,83066,83067,83068,83069,83070,83071,83072,83073,83074,83075,83076,83077,83078,83079,83041,83042,83043,83044,83045,83046,83047,83048,83049,83050,83051,83052,83053,83054,83055,83056,83057,83058,83059,83060,83061,83062,83063,83064,83065,83049,83050,83051,83052,83053,83054,83055,83056,83057,83058,77401,77401,77402,77403,77404,77405,77401,77401,77402,77403,77404,77405,
83161,83161,83162,83163,83164,83165,83166,83167,83168,83169,83170,83171,83172,83173,83174,83175,83176,83177,83178,83179,83168,83169,83170,83171,83172,83173,83174,83175,83176,83177,83178,83179,83161,83161,83162,83163,83164,83165,83166,83167,83168,83169,83170,83171,83172,83173,83174,83175,83176,83177,83178,83179,83180,83181,83182,83183,83184,83185,83186,83187,83188,83189,83190,83191,83192,83193,83194,83195,83196,83197,83198,83199,83200,83201,83161,83162,83163,83164,83165,83166,83167,83168,83169,83170,83171,83172,83173,83174,83175,83176,83177,83178,83179,83180,83181,83182,83183,83184,83185,83186,83187,83188,83189,83190,83191,83192,83193,83194,83195,83196,83197,83198,83199,83200,83201,83202,83203,83204,83205,83206,83207,83208,83209,83210,83211,83212,83213,83214,83215,83216,83217,83218,83219,83220,83221,83222,83223,83224,83225,83226,83227,83228,83229,83230,83231,83232,83233,83206,83207,83208,83209,83251,83252,83253,83254,83255,83256,83257,83258,83259,83260,83261,83262,83263,83264,83265,83266,83161,83162,83163,83164,83165,83166,83167,83168,83169,83170,83171,83172,83173,83174,83175,83176,83177,83178,83179,83180,83181,83182,83183,83184,83185,83186,83187,83188,83189,83190,83191,83192,83193,83194,83195,83196,83197,83198,83199,83200,83201,83202,83203,83204,83205,83206,83207,83208,83209,83210,83211,83212,83213,83214,83215,83161,83162,83163,83164,83165,83166,83167,83168,83169,83170,83171,83172,83173,83174,83175,83176,83177,83178,83179,83180,83181,83182,83183,83184,83185,83186,83187,83188,83189,83190,83191,83192,83193,83194,83195,83196,83197,83198,83199,83161,83162,83163,83164,83165,83166,83167,83168,83169,83170,83171,83172,83173,83174,83175,83176,83177,83178,83179,83180,83181,83182,83183,83184,83185,83169,83170,83171,83172,83173,83174,83175,83176,83177,83178,76561,76561,76562,76563,76564,76565,76561,76561,76562,76563,76564,76565,
83281,83281,83282,83283,83284,83285,83286,83287,83288,83289,83290,83291,83292,83293,83294,83295,83296,83297,83298,83299,83288,83289,83290,83291,83292,83293,83294,83295,83296,83297,83298,83299,83281,83281,83282,83283,83284,83285,83286,83287,83288,83289,83290,83291,83292,83293,83294,83295,83296,83297,83298,83299,83300,83301,83302,83303,83304,83305,83306,83307,83308,83309,83310,83311,83312,83313,83314,83315,83316,83317,83318,83319,83320,83321,83281,83282,83283,83284,83285,83286,83287,83288,83289,83290,83291,83292,83293,83294,83295,83296,83297,83298,83299,83300,83301,83302,83303,83304,83305,83306,83307,83308,83309,83310,83311,83312,83313,83314,83315,83316,83317,83318,83319,83320,83321,83322,83323,83324,83325,83326,83327,83328,83329,83330,83331,83332,83333,83334,83335,83336,83337,83338,83339,83340,83341,83342,83343,83344,83345,83346,83347,83348,83349,83350,83351,83352,83353,83326,83327,83328,83329,83371,83372,83373,83374,83375,83376,83377,83378,83379,83380,83381,83382,83383,83384,83385,83386,83281,83282,83283,83284,83285,83286,83287,83288,83289,83290,83291,83292,83293,83294,83295,83296,83297,83298,83299,83300,83301,83302,83303,83304,83305,83306,83307,83308,83309,83310,83311,83312,83313,83314,83315,83316,83317,83318,83319,83320,83321,83322,83323,83324,83325,83326,83327,83328,83329,83330,83331,83332,83333,83334,83335,83281,83282,83283,83284,83285,83286,83287,83288,83289,83290,83291,83292,83293,83294,83295,83296,83297,83298,83299,83300,83301,83302,83303,83304,83305,83306,83307,83308,83309,83310,83311,83312,83313,83314,83315,83316,83317,83318,83319,83281,83282,83283,83284,83285,83286,83287,83288,83289,83290,83291,83292,83293,83294,83295,83296,83297,83298,83299,83300,83301,83302,83303,83304,83305,83289,83290,83291,83292,83293,83294,83295,83296,83297,83298,76681,76681,76682,76683,76684,76685,76681,76681,76682,76683,76684,76685,
83401,83401,83402,83403,83404,83405,83406,83407,83408,83409,83410,83411,83412,83413,83414,83415,83416,83417,83418,83419,83408,83409,83410,83411,83412,83413,83414,83415,83416,83417,83418,83419,83401,83401,83402,83403,83404,83405,83406,83407,83408,83409,83410,83411,83412,83413,83414,83415,83416,83417,83418,83419,83420,83421,83422,83423,83424,83425,83426,83427,83428,83429,83430,83431,83432,83433,83434,83435,83436,83437,83438,83439,83440,83441,83401,83402,83403,83404,83405,83406,83407,83408,83409,83410,83411,83412,83413,83414,83415,83416,83417,83418,83419,83420,83421,83422,83423,83424,83425,83426,83427,83428,83429,83430,83431,83432,83433,83434,83435,83436,83437,83438,83439,83440,83441,83442,83443,83444,83445,83446,83447,83448,83449,83450,83451,83452,83453,83454,83455,83456,83457,83458,83459,83460,83461,83462,83463,83464,83465,83466,83467,83468,83469,83470,83471,83472,83473,83446,83447,83448,83449,83491,83492,83493,83494,83495,83496,83497,83498,83499,83500,83501,83502,83503,83504,83505,83506,83401,83402,83403,83404,83405,83406,83407,83408,83409,83410,83411,83412,83413,83414,83415,83416,83417,83418,83419,83420,83421,83422,83423,83424,83425,83426,83427,83428,83429,83430,83431,83432,83433,83434,83435,83436,83437,83438,83439,83440,83441,83442,83443,83444,83445,83446,83447,83448,83449,83450,83451,83452,83453,83454,83455,83401,83402,83403,83404,83405,83406,83407,83408,83409,83410,83411,83412,83413,83414,83415,83416,83417,83418,83419,83420,83421,83422,83423,83424,83425,83426,83427,83428,83429,83430,83431,83432,83433,83434,83435,83436,83437,83438,83439,83401,83402,83403,83404,83405,83406,83407,83408,83409,83410,83411,83412,83413,83414,83415,83416,83417,83418,83419,83420,83421,83422,83423,83424,83425,83409,83410,83411,83412,83413,83414,83415,83416,83417,83418,76801,76801,76802,76803,76804,76805,76801,76801,76802,76803,76804,76805,
83521,83521,83522,83523,83524,83525,83526,83527,83528,83529,83530,83531,83532,83533,83534,83535,83536,83537,83538,83539,83528,83529,83530,83531,83532,83533,83534,83535,83536,83537,83538,83539,83521,83521,83522,83523,83524,83525,83526,83527,83528,83529,83530,83531,83532,83533,83534,83535,83536,83537,83538,83539,83540,83541,83542,83543,83544,83545,83546,83547,83548,83549,83550,83551,83552,83553,83554,83555,83556,83557,83558,83559,83560,83561,83521,83522,83523,83524,83525,83526,83527,83528,83529,83530,83531,83532,83533,83534,83535,83536,83537,83538,83539,83540,83541,83542,83543,83544,83545,83546,83547,83548,83549,83550,83551,83552,83553,83554,83555,83556,83557,83558,83559,83560,83561,83562,83563,83564,83565,83566,83567,83568,83569,83570,83571,83572,83573,83574,83575,83576,83577,83578,83579,83580,83581,83582,83583,83584,83585,83586,83587,83588,83589,83590,83591,83592,83593,83566,83567,83568,83569,83611,83612,83613,83614,83615,83616,83617,83618,83619,83620,83621,83622,83623,83624,83625,83626,83521,83522,83523,83524,83525,83526,83527,83528,83529,83530,83531,83532,83533,83534,83535,83536,83537,83538,83539,83540,83541,83542,83543,83544,83545,83546,83547,83548,83549,83550,83551,83552,83553,83554,83555,83556,83557,83558,83559,83560,83561,83562,83563,83564,83565,83566,83567,83568,83569,83570,83571,83572,83573,83574,83575,83521,83522,83523,83524,83525,83526,83527,83528,83529,83530,83531,83532,83533,83534,83535,83536,83537,83538,83539,83540,83541,83542,83543,83544,83545,83546,83547,83548,83549,83550,83551,83552,83553,83554,83555,83556,83557,83558,83559,83521,83522,83523,83524,83525,83526,83527,83528,83529,83530,83531,83532,83533,83534,83535,83536,83537,83538,83539,83540,83541,83542,83543,83544,83545,83529,83530,83531,83532,83533,83534,83535,83536,83537,83538,76921,76921,76922,76923,76924,76925,76921,76921,76922,76923,76924,76925,
83641,83641,83642,83643,83644,83645,83646,83647,83648,83649,83650,83651,83652,83653,83654,83655,83656,83657,83658,83659,83648,83649,83650,83651,83652,83653,83654,83655,83656,83657,83658,83659,83641,83641,83642,83643,83644,83645,83646,83647,83648,83649,83650,83651,83652,83653,83654,83655,83656,83657,83658,83659,83660,83661,83662,83663,83664,83665,83666,83667,83668,83669,83670,83671,83672,83673,83674,83675,83676,83677,83678,83679,83680,83681,83641,83642,83643,83644,83645,83646,83647,83648,83649,83650,83651,83652,83653,83654,83655,83656,83657,83658,83659,83660,83661,83662,83663,83664,83665,83666,83667,83668,83669,83670,83671,83672,83673,83674,83675,83676,83677,83678,83679,83680,83681,83682,83683,83684,83685,83686,83687,83688,83689,83690,83691,83692,83693,83694,83695,83696,83697,83698,83699,83700,83701,83702,83703,83704,83705,83706,83707,83708,83709,83710,83711,83712,83713,83686,83687,83688,83689,83731,83732,83733,83734,83735,83736,83737,83738,83739,83740,83741,83742,83743,83744,83745,83746,83641,83642,83643,83644,83645,83646,83647,83648,83649,83650,83651,83652,83653,83654,83655,83656,83657,83658,83659,83660,83661,83662,83663,83664,83665,83666,83667,83668,83669,83670,83671,83672,83673,83674,83675,83676,83677,83678,83679,83680,83681,83682,83683,83684,83685,83686,83687,83688,83689,83690,83691,83692,83693,83694,83695,83641,83642,83643,83644,83645,83646,83647,83648,83649,83650,83651,83652,83653,83654,83655,83656,83657,83658,83659,83660,83661,83662,83663,83664,83665,83666,83667,83668,83669,83670,83671,83672,83673,83674,83675,83676,83677,83678,83679,83641,83642,83643,83644,83645,83646,83647,83648,83649,83650,83651,83652,83653,83654,83655,83656,83657,83658,83659,83660,83661,83662,83663,83664,83665,83649,83650,83651,83652,83653,83654,83655,83656,83657,83658,77041,77041,77042,77043,77044,77045,77041,77041,77042,77043,77044,77045,
12122,15193,15194,15195,15196,15197,15198,15199,15200,83289,83290,83291,83292,83293,83294,83295,83296,15193,15194,15195,15196,15197,15198,15199,15200,12128,83294,83295,83296,83297,83298,83299,83281,83281,83282,83283,83284,83285,83286,83287,83288,83289,83290,83291,83292,83293,83294,83295,83296,83297,83298,83299,83300,83301,83302,83281,83281,83282,83283,83284,83285,83286,83287,83288,83289,83290,83291,83292,83293,83294,83295,83296,83297,83298,83299,83288,83289,83290,83291,83292,83293,83294,83295,83296,83297,83298,83299,83281,83281,83282,83283,83284,83285,83286,83287,83288,83289,83290,83291,83292,83293,83294,83295,83296,83297,83298,83299,83300,83301,83302,83303,83304,83305,83306,83307,83308,83309,83310,83311,83312,83313,83314,83315,83316,83317,83318,83319,83320,83321,83281,83282,83283,83284,83285,83286,83287,83288,83289,83290,83291,83292,83293,83294,83295,83296,83297,83298,83299,83300,83301,83302,83303,83304,83305,83306,83307,83308,83309,83310,83311,83312,83313,83314,83315,83316,83317,83318,83319,83320,83321,83322,83323,83324,83325,83326,83327,83328,83329,83330,83331,83332,83333,83334,83335,83336,83337,83338,83339,83340,83341,83342,83343,83344,83345,83346,83347,83348,83349,83350,83351,83352,83353,83326,83327,83328,83329,83371,83372,83373,83374,83375,83376,83377,83378,83379,83380,83381,83382,83383,83384,83385,83386,83281,83282,83283,83284,83285,83286,83287,83288,83289,83290,83291,83292,83293,83294,83295,83296,83297,83298,83299,83300,83301,83302,83303,83304,83305,83306,83307,83308,83309,83310,83311,83312,83313,83314,83315,83316,83317,83318,83319,83320,83321,83322,83323,83324,83325,83326,83327,83328,83329,83330,83331,83332,83333,83334,83335,83281,83282,83283,83284,83285,83286,83287,83288,83289,83290,83291,83292,83293,83294,83295,83296,83297,83298,83299,77161,77161,77162,77163,77164,77165,77161,77161,77162,77163,77164,77165,
12378,15449,15450,15451,15452,15453,15454,15455,15456,83409,83410,83411,83412,83413,83414,83415,83416,15449,15450,15451,15452,15453,15454,15455,15456,12384,83414,83415,83416,83417,83418,83419,83401,83401,83402,83403,83404,83405,83406,83407,83408,83409,83410,83411,83412,83413,83414,83415,83416,83417,83418,83419,83420,83421,83422,83401,83401,83402,83403,83404,83405,83406,83407,83408,83409,83410,83411,83412,83413,83414,83415,83416,83417,83418,83419,83408,83409,83410,83411,83412,83413,83414,83415,83416,83417,83418,83419,83401,83401,83402,83403,83404,83405,83406,83407,83408,83409,83410,83411,83412,83413,83414,83415,83416,83417,83418,83419,83420,83421,83422,83423,83424,83425,83426,83427,83428,83429,83430,83431,83432,83433,83434,83435,83436,83437,83438,83439,83440,83441,83401,83402,83403,83404,83405,83406,83407,83408,83409,83410,83411,83412,83413,83414,83415,83416,83417,83418,83419,83420,83421,83422,83423,83424,83425,83426,83427,83428,83429,83430,83431,83432,83433,83434,83435,83436,83437,83438,83439,83440,83441,83442,83443,83444,83445,83446,83447,83448,83449,83450,83451,83452,83453,83454,83455,83456,83457,83458,83459,83460,83461,83462,83463,83464,83465,83466,83467,83468,83469,83470,83471,83472,83473,83446,83447,83448,83449,83491,83492,83493,83494,83495,83496,83497,83498,83499,83500,83501,83502,83503,83504,83505,83506,83401,83402,83403,83404,83405,83406,83407,83408,83409,83410,83411,83412,83413,83414,83415,83416,83417,83418,83419,83420,83421,83422,83423,83424,83425,83426,83427,83428,83429,83430,83431,83432,83433,83434,83435,83436,83437,83438,83439,83440,83441,83442,83443,83444,83445,83446,83447,83448,83449,83450,83451,83452,83453,83454,83455,83401,83402,83403,83404,83405,83406,83407,83408,83409,83410,83411,83412,83413,83414,83415,83416,83417,83418,83419,77281,77281,77282,77283,77284,77285,77281,77281,77282,77283,77284,77285,
12634,15705,15706,15707,15708,15709,15710,15711,15712,83529,83530,83531,83532,83533,83534,83535,83536,15705,15706,15707,15708,15709,15710,15711,15712,12640,83534,83535,83536,83537,83538,83539,83521,83521,83522,83523,83524,83525,83526,83527,83528,83529,83530,83531,83532,83533,83534,83535,83536,83537,83538,83539,83540,83541,83542,83521,83521,83522,83523,83524,83525,83526,83527,83528,83529,83530,83531,83532,83533,83534,83535,83536,83537,83538,83539,83528,83529,83530,83531,83532,83533,83534,83535,83536,83537,83538,83539,83521,83521,83522,83523,83524,83525,83526,83527,83528,83529,83530,83531,83532,83533,83534,83535,83536,83537,83538,83539,83540,83541,83542,83543,83544,83545,83546,83547,83548,83549,83550,83551,83552,83553,83554,83555,83556,83557,83558,83559,83560,83561,83521,83522,83523,83524,83525,83526,83527,83528,83529,83530,83531,83532,83533,83534,83535,83536,83537,83538,83539,83540,83541,83542,83543,83544,83545,83546,83547,83548,83549,83550,83551,83552,83553,83554,83555,83556,83557,83558,83559,83560,83561,83562,83563,83564,83565,83566,83567,83568,83569,83570,83571,83572,83573,83574,83575,83576,83577,83578,83579,83580,83581,83582,83583,83584,83585,83586,83587,83588,83589,83590,83591,83592,83593,83566,83567,83568,83569,83611,83612,83613,83614,83615,83616,83617,83618,83619,83620,83621,83622,83623,83624,83625,83626,83521,83522,83523,83524,83525,83526,83527,83528,83529,83530,83531,83532,83533,83534,83535,83536,83537,83538,83539,83540,83541,83542,83543,83544,83545,83546,83547,83548,83549,83550,83551,83552,83553,83554,83555,83556,83557,83558,83559,83560,83561,83562,83563,83564,83565,83566,83567,83568,83569,83570,83571,83572,83573,83574,83575,83521,83522,83523,83524,83525,83526,83527,83528,83529,83530,83531,83532,83533,83534,83535,83536,83537,83538,83539,77401,77401,77402,77403,77404,77405,77401,77401,77402,77403,77404,77405,
12890,15961,15962,15963,15964,15965,15966,15967,15968,83649,83650,83651,83652,83653,83654,83655,83656,15961,15962,15963,15964,15965,15966,15967,15968,12896,83654,83655,83656,83657,83658,83659,83641,83641,83642,83643,83644,83645,83646,83647,83648,83649,83650,83651,83652,83653,83654,83655,83656,83657,83658,83659,83660,83661,83662,83641,83641,83642,83643,83644,83645,83646,83647,83648,83649,83650,83651,83652,83653,83654,83655,83656,83657,83658,83659,83648,83649,83650,83651,83652,83653,83654,83655,83656,83657,83658,83659,83641,83641,83642,83643,83644,83645,83646,83647,83648,83649,83650,83651,83652,83653,83654,83655,83656,83657,83658,83659,83660,83661,83662,83663,83664,83665,83666,83667,83668,83669,83670,83671,83672,83673,83674,83675,83676,83677,83678,83679,83680,83681,83641,83642,83643,83644,83645,83646,83647,83648,83649,83650,83651,83652,83653,83654,83655,83656,83657,83658,83659,83660,83661,83662,83663,83664,83665,83666,83667,83668,83669,83670,83671,83672,83673,83674,83675,83676,83677,83678,83679,83680,83681,83682,83683,83684,83685,83686,83687,83688,83689,83690,83691,83692,83693,83694,83695,83696,83697,83698,83699,83700,83701,83702,83703,83704,83705,83706,83707,83708,83709,83710,83711,83712,83713,83686,83687,83688,83689,83731,83732,83733,83734,83735,83736,83737,83738,83739,83740,83741,83742,83743,83744,83745,83746,83641,83642,83643,83644,83645,83646,83647,83648,83649,83650,83651,83652,83653,83654,83655,83656,83657,83658,83659,83660,83661,83662,83663,83664,83665,83666,83667,83668,83669,83670,83671,83672,83673,83674,83675,83676,83677,83678,83679,83680,83681,83682,83683,83684,83685,83686,83687,83688,83689,83690,83691,83692,83693,83694,83695,83641,83642,83643,83644,83645,83646,83647,83648,83649,83650,83651,83652,83653,83654,83655,83656,83657,83658,83659,76561,76561,76562,76563,76564,76565,76561,76561,76562,76563,76564,76565
</data>
 </layer>
 <layer id="2" name="2" width="308" height="81">
  <data encoding="csv">
0,0,0,0,0,0,0,0,0,0,0,0,0,0,0,0,0,0,0,0,0,0,0,0,0,0,0,0,0,0,0,0,0,0,0,0,0,0,0,0,0,0,0,0,0,0,0,0,0,0,0,0,0,0,0,0,0,0,0,0,0,0,0,0,0,0,0,0,0,0,0,0,0,0,0,0,0,0,0,0,0,0,0,0,0,0,0,0,0,0,0,0,0,0,0,0,0,0,0,0,0,0,0,0,0,0,0,0,0,0,0,0,0,0,0,0,0,0,0,0,0,0,0,0,0,0,0,0,0,0,0,0,0,0,0,0,0,0,0,0,0,0,0,0,0,0,0,0,0,0,0,0,0,0,0,0,0,0,0,0,0,0,0,0,0,0,0,0,0,0,0,0,0,0,0,0,0,0,0,0,0,0,0,0,0,0,0,0,0,0,0,0,0,0,0,0,0,0,0,0,0,0,0,0,0,0,0,0,0,0,0,0,0,0,0,0,0,0,0,0,0,0,0,0,0,0,0,0,0,0,0,0,0,0,0,0,0,0,0,0,0,0,0,0,0,0,0,0,0,0,0,0,0,0,0,0,0,0,0,0,0,0,0,0,0,0,0,0,0,0,0,0,0,0,0,0,0,0,0,0,0,0,0,0,0,0,0,0,0,0,0,0,0,0,0,0,0,0,0,0,0,0,0,0,0,0,0,0,
0,0,0,0,0,0,0,0,0,0,0,0,0,0,0,0,0,0,0,0,0,0,0,0,0,0,0,0,0,0,0,0,0,0,0,0,0,0,0,0,0,0,0,0,0,0,0,0,0,0,0,0,0,0,0,0,0,0,0,0,0,0,0,0,0,0,0,0,0,0,0,0,0,0,0,0,0,0,0,0,0,0,0,0,0,0,0,0,0,0,0,0,0,0,0,0,0,0,0,0,0,0,0,0,0,0,0,0,0,0,0,0,0,0,0,0,0,0,0,0,0,0,0,0,0,0,0,0,0,0,0,0,0,0,0,0,0,0,0,0,0,0,0,0,0,0,0,0,0,0,0,0,0,0,0,0,0,0,0,0,0,0,0,0,0,0,0,0,0,0,0,0,0,0,0,0,0,0,0,0,0,0,0,0,0,0,0,0,0,0,0,0,0,0,0,0,0,0,0,0,0,0,0,0,0,0,0,0,0,0,0,0,0,0,0,0,0,0,0,0,0,0,0,0,0,0,0,0,0,0,0,0,0,0,0,0,0,0,0,0,0,0,0,0,0,0,0,0,0,0,0,0,0,0,0,0,0,0,0,0,0,0,0,0,0,0,0,0,0,0,0,0,0,0,0,0,0,0,0,0,0,0,0,0,0,0,0,0,0,0,0,0,0,0,0,0,0,0,0,0,0,0,0,0,0,0,0,0,
0,0,0,0,0,0,0,0,0,0,0,0,0,0,0,0,0,0,0,0,0,0,0,0,0,0,0,0,0,0,0,0,0,0,0,0,0,0,0,0,0,0,0,0,0,0,0,0,0,0,0,0,0,0,0,0,0,0,0,0,0,0,0,0,0,0,0,0,0,0,0,0,0,0,0,0,0,0,0,0,0,0,0,0,0,0,0,0,0,0,0,0,0,0,0,0,0,0,0,0,0,0,0,0,0,0,0,0,0,0,0,0,0,0,0,0,0,0,0,0,0,0,0,0,0,0,0,0,0,0,0,0,0,0,0,0,0,0,0,0,0,0,0,0,0,0,0,0,0,0,0,0,0,0,0,0,0,0,0,0,0,0,0,0,0,0,0,0,0,0,0,0,0,0,0,0,0,0,0,0,0,0,0,0,0,0,0,0,0,0,0,0,0,0,0,0,0,0,0,0,0,0,0,0,0,0,0,0,0,0,0,0,0,0,0,0,0,0,0,0,0,0,0,0,0,0,0,0,0,0,0,0,0,0,0,0,0,0,0,0,0,0,0,0,0,0,0,0,0,0,0,0,0,0,0,0,0,0,0,0,0,0,0,0,0,0,0,0,0,0,0,0,0,0,0,0,0,0,0,0,0,0,0,0,0,0,0,0,0,0,0,0,0,0,0,0,0,0,0,0,0,0,0,0,0,0,0,0,
0,0,0,0,0,0,0,0,0,0,0,0,0,0,0,0,0,0,0,0,0,0,0,0,0,0,0,0,0,0,0,0,0,0,0,0,0,0,0,0,0,0,0,0,0,0,0,0,0,0,0,0,0,0,0,0,0,0,0,0,0,0,0,0,0,0,0,0,0,0,0,0,0,0,0,0,0,0,0,0,0,0,0,0,0,0,0,0,0,0,0,0,0,0,0,0,0,0,0,0,0,0,0,0,0,0,0,0,0,0,0,0,0,0,0,0,0,0,0,0,0,0,0,0,0,0,0,0,0,0,0,0,0,0,0,0,0,0,0,0,0,0,0,0,0,0,0,0,0,0,0,0,0,0,0,0,0,0,0,0,0,0,0,0,0,0,0,0,0,0,0,0,0,0,0,0,0,0,0,0,0,0,0,0,0,0,0,0,0,0,0,0,0,0,0,0,0,0,0,0,0,0,0,0,0,0,0,0,0,0,0,0,0,0,0,0,0,0,0,0,0,0,0,0,0,0,0,0,0,0,0,0,0,0,0,0,0,0,0,0,0,0,0,0,0,0,0,0,0,0,0,0,0,0,0,0,0,0,0,0,0,0,0,0,0,0,0,0,0,0,0,0,0,0,0,0,0,0,0,0,0,0,0,0,0,0,0,0,0,0,0,0,0,0,0,0,0,0,0,0,0,0,0,0,0,0,0,0,
0,0,0,0,0,0,0,0,0,0,0,0,0,0,0,0,0,0,0,0,0,0,0,0,0,0,0,0,0,0,0,0,0,0,0,0,0,0,0,0,0,0,0,0,0,0,0,0,0,0,0,0,0,0,0,0,0,0,0,0,0,0,0,0,0,0,0,0,0,0,0,0,0,0,0,0,0,0,0,0,0,0,0,0,0,0,0,0,0,0,0,0,0,0,0,0,0,0,0,0,0,0,0,0,0,0,0,0,0,0,0,0,0,0,0,0,0,0,0,0,0,0,0,0,0,0,0,0,0,0,0,0,0,0,0,0,0,0,0,0,0,0,0,0,0,0,0,0,0,0,0,0,0,0,0,0,0,0,0,0,0,0,0,0,0,0,0,0,0,0,0,0,0,0,0,0,0,0,0,0,0,0,0,0,0,0,0,0,0,0,0,0,0,0,0,0,0,0,0,0,0,0,0,0,0,0,0,0,0,0,0,0,0,0,0,0,0,0,0,0,0,0,0,0,0,0,0,0,0,0,0,0,0,0,0,0,0,0,0,0,0,0,0,0,0,0,0,0,0,0,0,0,0,0,0,0,0,0,0,0,0,0,0,0,0,0,0,0,0,0,0,0,0,0,0,0,0,0,0,0,0,0,0,0,0,0,0,0,0,0,0,0,0,0,0,0,0,0,0,0,0,0,0,0,0,0,0,0,
0,0,0,0,0,0,0,0,0,0,0,0,0,0,0,0,0,0,0,0,0,0,0,0,0,0,0,0,0,0,0,0,0,0,0,0,0,0,0,0,0,0,0,0,0,0,0,0,0,0,0,0,0,0,0,0,0,0,0,0,0,0,0,0,0,0,0,0,0,0,0,0,0,0,0,0,0,0,0,0,0,0,0,0,0,0,0,0,0,0,0,0,0,0,0,0,0,0,0,0,0,0,0,0,0,0,0,0,0,0,0,0,0,0,0,0,0,0,0,0,0,0,0,0,0,0,0,0,0,0,0,0,0,0,0,0,0,0,0,0,0,0,0,0,0,0,0,0,0,0,0,0,0,0,0,0,0,0,0,0,0,0,0,0,0,0,0,0,0,0,0,0,0,0,0,0,0,0,0,0,0,0,0,0,0,0,0,0,0,0,0,0,0,0,0,0,0,0,0,0,0,0,0,0,0,0,0,0,0,0,0,0,0,0,0,0,0,0,0,0,0,0,0,0,0,0,0,0,0,0,0,0,0,0,0,0,0,0,0,0,0,0,0,0,0,0,0,0,0,0,0,0,0,0,0,0,0,0,0,0,0,0,0,0,0,0,0,0,0,0,0,0,0,0,0,0,0,0,0,0,0,0,0,0,0,0,0,0,0,0,0,0,0,0,0,0,0,0,0,0,0,0,0,0,0,0,0,0,
0,0,0,0,0,0,0,0,0,0,0,0,0,0,0,0,0,0,0,0,0,0,0,0,0,0,0,0,0,0,0,0,0,0,0,0,0,0,0,0,0,0,0,0,0,0,0,0,0,0,0,0,0,0,0,0,0,0,0,0,0,0,0,0,0,0,0,0,0,0,0,0,0,0,0,0,0,0,0,0,0,0,0,0,0,0,0,0,0,0,0,0,0,0,0,0,0,0,0,0,0,0,0,0,0,0,0,0,0,0,0,0,0,0,0,0,0,0,0,0,0,0,0,0,0,0,0,0,0,0,0,0,0,0,0,0,0,0,0,0,0,0,0,0,0,0,0,0,0,0,0,0,0,0,0,0,0,0,0,0,0,0,0,0,0,0,0,0,0,0,0,0,0,0,0,0,0,0,0,0,0,0,0,0,0,0,0,0,0,0,0,0,0,0,0,0,0,0,0,0,0,0,0,0,0,0,0,0,0,0,0,0,0,0,0,0,0,0,0,0,0,0,0,0,0,0,0,0,0,0,0,0,0,0,0,0,0,0,0,0,0,0,0,0,0,0,0,0,0,0,0,0,0,0,0,0,0,0,0,0,0,0,0,0,0,0,0,0,0,0,0,0,0,0,0,0,0,0,0,0,0,0,0,0,0,0,0,0,0,0,0,0,0,0,0,0,0,0,0,0,0,0,0,0,0,0,0,0,
0,0,0,0,0,0,0,0,0,0,0,0,0,0,0,0,0,0,0,0,0,0,0,0,0,0,0,0,0,0,0,0,0,0,0,0,0,0,0,0,0,0,0,0,0,0,0,0,0,0,0,0,0,0,0,0,0,0,0,0,0,0,0,0,0,0,0,0,0,0,0,0,0,0,0,0,0,0,0,0,0,0,0,0,0,0,0,0,0,0,0,0,0,0,0,0,0,0,0,0,0,0,0,0,0,0,0,0,0,0,0,0,0,0,0,0,0,0,0,0,0,0,0,0,0,0,0,0,0,0,0,0,0,0,0,0,0,0,0,0,0,0,0,0,0,0,0,0,0,0,0,0,0,0,0,0,0,0,0,0,0,0,0,0,0,0,0,0,0,0,0,0,0,0,0,0,0,0,0,0,0,0,0,0,0,0,0,0,0,0,0,0,0,0,0,0,0,0,0,0,0,0,0,0,0,0,0,0,0,0,0,0,0,0,0,0,0,0,0,0,0,0,0,0,0,0,0,0,0,0,0,0,0,0,0,0,0,0,0,0,0,0,0,0,0,0,0,0,0,0,0,0,0,0,0,0,0,0,0,0,0,0,0,0,0,0,0,0,0,0,0,0,0,0,0,0,0,0,0,0,0,0,0,0,0,0,0,0,0,0,0,0,0,0,0,0,0,0,0,0,0,0,0,0,0,0,0,0,
95157,95157,95158,95159,95160,95161,95162,95163,95164,95165,95166,95167,95168,95169,95170,95171,95172,95173,95174,95175,95164,95165,95166,95167,95168,95169,95170,95171,95172,95173,95174,95175,95157,95157,95158,95159,95160,95161,95162,95163,95164,95165,95166,95167,95168,95169,95170,95171,95172,95173,95174,95175,95176,95177,95178,95179,95180,95181,95182,95183,95157,95157,95158,95159,95160,95161,95162,95163,95164,95165,95166,95167,95168,95169,95170,95171,95172,95173,95174,95175,95176,95177,95178,95179,95180,95181,95182,95183,95184,95185,95186,95187,95188,95189,95190,95191,95192,95193,95194,95195,95196,95197,95157,95158,95159,95160,95161,95162,95163,95164,95165,95166,95167,95168,95169,95170,95171,95172,95173,95174,95175,95176,95177,95178,95179,95180,95181,95182,95183,95184,95185,95186,95187,95188,95189,95190,95191,95192,95193,95194,95195,95196,95197,95198,95199,95200,95201,95202,95203,95204,95205,95206,95207,95208,95209,95210,95211,95212,95213,95214,95215,95216,95217,95218,95219,95220,95221,95222,95223,95224,95225,95226,95227,95228,95229,95230,95231,95232,95233,95275,95276,95277,95278,95279,95280,95281,95282,95283,95284,95285,95286,95287,95288,95289,95290,95157,95158,95159,95160,95161,95162,95163,95164,95165,95166,95167,95168,95169,95170,95171,95172,95173,95174,95175,95176,95177,95178,95179,95180,95181,95182,95183,95184,95185,95186,95187,95188,95189,95190,95191,95192,95193,95194,95195,95196,95197,95198,95199,95200,95201,95202,95203,95204,95205,95206,95207,95208,95209,95210,95211,95157,95158,95159,95160,95161,95162,95163,95164,95165,95166,95167,95168,95169,95170,95171,95172,95173,95174,95175,95176,95177,95178,95179,95180,95181,95182,95183,95184,95185,95186,95187,95188,95189,95190,95191,95192,95193,95194,95195,95157,95158,95159,95160,95161,95162,95163,95009,95009,95010,95011,95012,95013,95009,95009,95010,95011,95012,95013,
95305,95305,95306,95307,95308,95309,95310,95311,95312,95313,95314,95315,95316,95317,95318,95319,95320,95321,95322,95323,95312,95313,95314,95315,95316,95317,95318,95319,95320,95321,95322,95323,95305,95305,95306,95307,95308,95309,95310,95311,95312,95313,95314,95315,95316,95317,95318,95319,95320,95321,95322,95323,95324,95325,95326,95327,95328,95329,95330,95331,95305,95305,95306,95307,95308,95309,95310,95311,95312,95313,95314,95315,95316,95317,95318,95319,95320,95321,95322,95323,95324,95325,95326,95327,95328,95329,95330,95331,95332,95333,95334,95335,95336,95337,95338,95339,95340,95341,95342,95343,95344,95345,95305,95306,95307,95308,95309,95310,95311,95312,95313,95314,95315,95316,95317,95318,95319,95320,95321,95322,95323,95324,95325,95326,95327,95328,95329,95330,95331,95332,95333,95334,95335,95336,95337,95338,95339,95340,95341,95342,95343,95344,95345,95346,95347,95348,95349,95350,95351,95352,95353,95354,95355,95356,95357,95358,95359,95360,95361,95362,95363,95364,95365,95366,95367,95368,95369,95370,95371,95372,95373,95374,95375,95376,95377,95378,95379,95380,95381,95423,95424,95425,95426,95427,95428,95429,95430,95431,95432,95433,95434,95435,95436,95437,95438,95305,95306,95307,95308,95309,95310,95311,95312,95313,95314,95315,95316,95317,95318,95319,95320,95321,95322,95323,95324,95325,95326,95327,95328,95329,95330,95331,95332,95333,95334,95335,95336,95337,95338,95339,95340,95341,95342,95343,95344,95345,95346,95347,95348,95349,95350,95351,95352,95353,95354,95355,95356,95357,95358,95359,95305,95306,95307,95308,95309,95310,95311,95312,95313,95314,95315,95316,95317,95318,95319,95320,95321,95322,95323,95324,95325,95326,95327,95328,95329,95330,95331,95332,95333,95334,95335,95336,95337,95338,95339,95340,95341,95342,95343,95305,95306,95307,95308,95309,95310,95311,95157,95157,95158,95159,95160,95161,95157,95157,95158,95159,95160,95161,
95453,95453,95454,95455,95456,95457,95458,95459,95460,95461,95462,95463,95464,95465,95466,95467,95468,95469,95470,95471,95460,95461,95462,95463,95464,95465,95466,95467,95468,95469,95470,95471,95453,95453,95454,95455,95456,95457,95458,95459,95460,95461,95462,95463,95464,95465,95466,95467,95468,95469,95470,95471,95472,95473,95474,95475,95476,95477,95478,95479,95453,95453,95454,95455,95456,95457,95458,95459,95460,95461,95462,95463,95464,95465,95466,95467,95468,95469,95470,95471,95472,95473,95474,95475,95476,95477,95478,95479,95480,95481,95482,95483,95484,95485,95486,95487,95488,95489,95490,95491,95492,95493,95453,95454,95455,95456,95457,95458,95459,95460,95461,95462,95463,95464,95465,95466,95467,95468,95469,95470,95471,95472,95473,95474,95475,95476,95477,95478,95479,95480,95481,95482,95483,95484,95485,95486,95487,95488,95489,95490,95491,95492,95493,95494,95495,95496,95497,95498,95499,95500,95501,95502,95503,95504,95505,95506,95507,95508,95509,95510,95511,95512,95513,95514,95515,95516,95517,95518,95519,95520,95521,95522,95523,95524,95525,95526,95527,95528,95529,95571,95572,95573,95574,95575,95576,95577,95578,95579,95580,95581,95582,95583,95584,95585,95586,95453,95454,95455,95456,95457,95458,95459,95460,95461,95462,95463,95464,95465,95466,95467,95468,95469,95470,95471,95472,95473,95474,95475,95476,95477,95478,95479,95480,95481,95482,95483,95484,95485,95486,95487,95488,95489,95490,95491,95492,95493,95494,95495,95496,95497,95498,95499,95500,95501,95502,95503,95504,95505,95506,95507,95453,95454,95455,95456,95457,95458,95459,95460,95461,95462,95463,95464,95465,95466,95467,95468,95469,95470,95471,95472,95473,95474,95475,95476,95477,95478,95479,95480,95481,95482,95483,95484,95485,95486,95487,95488,95489,95490,95491,95453,95454,95455,95456,95457,95458,95459,95305,95305,95306,95307,95308,95309,95305,95305,95306,95307,95308,95309,
95601,95601,95602,95603,95604,95605,95606,95607,95608,95609,95610,95611,95612,95613,95614,95615,95616,95617,95618,95619,95608,95609,95610,95611,95612,95613,95614,95615,95616,95617,95618,95619,95601,95601,95602,95603,95604,95605,95606,95607,95608,95609,95610,95611,95612,95613,95614,95615,95616,95617,95618,95619,95620,95621,95622,95623,95624,95625,95626,95627,95601,95601,95602,95603,95604,95605,95606,95607,95608,95609,95610,95611,95612,95613,95614,95615,95616,95617,95618,95619,95620,95621,95622,95623,95624,95625,95626,95627,95628,95629,95630,95631,95632,95633,95634,95635,95636,95637,95638,95639,95640,95641,95601,95602,95603,95604,95605,95606,95607,95608,95609,95610,95611,95612,95613,95614,95615,95616,95617,95618,95619,95620,95621,95622,95623,95624,95625,95626,95627,95628,95629,95630,95631,95632,95633,95634,95635,95636,95637,95638,95639,95640,95641,95642,95643,95644,95645,95646,95647,95648,95649,95650,95651,95652,95653,95654,95655,95656,95657,95658,95659,95660,95661,95662,95663,95664,95665,95666,95667,95668,95669,95670,95671,95672,95673,95674,95675,95676,95677,95719,95720,95721,95722,95723,95724,95725,95726,95727,95728,95729,95730,95731,95732,95733,95734,95601,95602,95603,95604,95605,95606,95607,95608,95609,95610,95611,95612,95613,95614,95615,95616,95617,95618,95619,95620,95621,95622,95623,95624,95625,95626,95627,95628,95629,95630,95631,95632,95633,95634,95635,95636,95637,95638,95639,95640,95641,95642,95643,95644,95645,95646,95647,95648,95649,95650,95651,95652,95653,95654,95655,95601,95602,95603,95604,95605,95606,95607,95608,95609,95610,95611,95612,95613,95614,95615,95616,95617,95618,95619,95620,95621,95622,95623,95624,95625,95626,95627,95628,95629,95630,95631,95632,95633,95634,95635,95636,95637,95638,95639,95601,95602,95603,95604,95605,95606,95607,95453,95453,95454,95455,95456,95457,95453,95453,95454,95455,95456,95457,
95749,95749,95750,95751,95752,95753,95754,95755,95756,95757,95758,95759,95760,95761,95762,95763,95764,95765,95766,95767,95756,95757,95758,95759,95760,95761,95762,95763,95764,95765,95766,95767,95749,95749,95750,95751,95752,95753,95754,95755,95756,95757,95758,95759,95760,95761,95762,95763,95764,95765,95766,95767,95768,95769,95770,95771,95772,95773,95774,95775,95749,95749,95750,95751,95752,95753,95754,95755,95756,95757,95758,95759,95760,95761,95762,95763,95764,95765,95766,95767,95768,95769,95770,95771,95772,95773,95774,95775,95776,95777,95778,95779,95780,95781,95782,95783,95784,95785,95786,95787,95788,95789,95749,95750,95751,95752,95753,95754,95755,95756,95757,95758,95759,95760,95761,95762,95763,95764,95765,95766,95767,95768,95769,95770,95771,95772,95773,95774,95775,95776,95777,95778,95779,95780,95781,95782,95783,95784,95785,95786,95787,95788,95789,95790,95791,95792,95793,95794,95795,95796,95797,95798,95799,95800,95801,95802,95803,95804,95805,95806,95807,95808,95809,95810,95811,95812,95813,95814,95815,95816,95817,95818,95819,95820,95821,95822,95823,95824,95825,95867,95868,95869,95870,95871,95872,95873,95874,95875,95876,95877,95878,95879,95880,95881,95882,95749,95750,95751,95752,95753,95754,95755,95756,95757,95758,95759,95760,95761,95762,95763,95764,95765,95766,95767,95768,95769,95770,95771,95772,95773,95774,95775,95776,95777,95778,95779,95780,95781,95782,95783,95784,95785,95786,95787,95788,95789,95790,95791,95792,95793,95794,95795,95796,95797,95798,95799,95800,95801,95802,95803,95749,95750,95751,95752,95753,95754,95755,95756,95757,95758,95759,95760,95761,95762,95763,95764,95765,95766,95767,95768,95769,95770,95771,95772,95773,95774,95775,95776,95777,95778,95779,95780,95781,95782,95783,95784,95785,95786,95787,95749,95750,95751,95752,95753,95754,95755,95601,95601,95602,95603,95604,95605,95601,95601,95602,95603,95604,95605,
95897,95897,95898,95899,95900,95901,95902,95903,95904,95905,95906,95907,95908,95909,95910,95911,95912,95913,95914,95915,95904,95905,95906,95907,95908,95909,95910,95911,95912,95913,95914,95915,95897,95897,95898,95899,95900,95901,95902,95903,95904,95905,95906,95907,95908,95909,95910,95911,95912,95913,95914,95915,95916,95917,95918,95919,95920,95921,95922,95923,95897,95897,95898,95899,95900,95901,95902,95903,95904,95905,95906,95907,95908,95909,95910,95911,95912,95913,95914,95915,95916,95917,95918,95919,95920,95921,95922,95923,95924,95925,95926,95927,95928,95929,95930,95931,95932,95933,95934,95935,95936,95937,95897,95898,95899,95900,95901,95902,95903,95904,95905,95906,95907,95908,95909,95910,95911,95912,95913,95914,95915,95916,95917,95918,95919,95920,95921,95922,95923,95924,95925,95926,95927,95928,95929,95930,95931,95932,95933,95934,95935,95936,95937,95938,95939,95940,95941,95942,95943,95944,95945,95946,95947,95948,95949,95950,95951,95952,95953,95954,95955,95956,95957,95958,95959,95960,95961,95962,95963,95964,95965,95966,95967,95968,95969,95970,95971,95972,95973,96015,96016,96017,96018,96019,96020,96021,96022,96023,96024,96025,96026,96027,96028,96029,96030,95897,95898,95899,95900,95901,95902,95903,95904,95905,95906,95907,95908,95909,95910,95911,95912,95913,95914,95915,95916,95917,95918,95919,95920,95921,95922,95923,95924,95925,95926,95927,95928,95929,95930,95931,95932,95933,95934,95935,95936,95937,95938,95939,95940,95941,95942,95943,95944,95945,95946,95947,95948,95949,95950,95951,95897,95898,95899,95900,95901,95902,95903,95904,95905,95906,95907,95908,95909,95910,95911,95912,95913,95914,95915,95916,95917,95918,95919,95920,95921,95922,95923,95924,95925,95926,95927,95928,95929,95930,95931,95932,95933,95934,95935,95897,95898,95899,95900,95901,95902,95903,95749,95749,95750,95751,95752,95753,95749,95749,95750,95751,95752,95753,
96045,96045,96046,96047,96048,96049,96050,96051,96052,96053,96054,96055,96056,96057,96058,96059,96060,96061,96062,96063,96052,96053,96054,96055,96056,96057,96058,96059,96060,96061,96062,96063,96045,96045,96046,96047,96048,96049,96050,96051,96052,96053,96054,96055,96056,96057,96058,96059,96060,96061,96062,96063,96064,96065,96066,96067,96068,96069,96070,96071,96045,96045,96046,96047,96048,96049,96050,96051,96052,96053,96054,96055,96056,96057,96058,96059,96060,96061,96062,96063,96064,96065,96066,96067,96068,96069,96070,96071,96072,96073,96074,96075,96076,96077,96078,96079,96080,96081,96082,96083,96084,96085,96045,96046,96047,96048,96049,96050,96051,96052,96053,96054,96055,96056,96057,96058,96059,96060,96061,96062,96063,96064,96065,96066,96067,96068,96069,96070,96071,96072,96073,96074,96075,96076,96077,96078,96079,96080,96081,96082,96083,96084,96085,96086,96087,96088,96089,96090,96091,96092,96093,96094,96095,96096,96097,96098,96099,96100,96101,96102,96103,96104,96105,96106,96107,96108,96109,96110,96111,96112,96113,96114,96115,96116,96117,96118,96119,96120,96121,96163,96164,96165,96166,96167,96168,96169,96170,96171,96172,96173,96174,96175,96176,96177,96178,96045,96046,96047,96048,96049,96050,96051,96052,96053,96054,96055,96056,96057,96058,96059,96060,96061,96062,96063,96064,96065,96066,96067,96068,96069,96070,96071,96072,96073,96074,96075,96076,96077,96078,96079,96080,96081,96082,96083,96084,96085,96086,96087,96088,96089,96090,96091,96092,96093,96094,96095,96096,96097,96098,96099,96045,96046,96047,96048,96049,96050,96051,96052,96053,96054,96055,96056,96057,96058,96059,96060,96061,96062,96063,96064,96065,96066,96067,96068,96069,96070,96071,96072,96073,96074,96075,96076,96077,96078,96079,96080,96081,96082,96083,96045,96046,96047,96048,96049,96050,96051,95897,95897,95898,95899,95900,95901,95897,95897,95898,95899,95900,95901,
96193,96193,96194,96195,96196,96197,96198,96199,96200,96201,96202,96203,96204,96205,96206,96207,96208,96209,96210,96211,96200,96201,96202,96203,96204,96205,96206,96207,96208,96209,96210,96211,96193,96193,96194,96195,96196,96197,96198,96199,96200,96201,96202,96203,96204,96205,96206,96207,96208,96209,96210,96211,96212,96213,96214,96215,96216,96217,96218,96219,96193,96193,96194,96195,96196,96197,96198,96199,96200,96201,96202,96203,96204,96205,96206,96207,96208,96209,96210,96211,96212,96213,96214,96215,96216,96217,96218,96219,96220,96221,96222,96223,96224,96225,96226,96227,96228,96229,96230,96231,96232,96233,96193,96194,96195,96196,96197,96198,96199,96200,96201,96202,96203,96204,96205,96206,96207,96208,96209,96210,96211,96212,96213,96214,96215,96216,96217,96218,96219,96220,96221,96222,96223,96224,96225,96226,96227,96228,96229,96230,96231,96232,96233,96234,96235,96236,96237,96238,96239,96240,96241,96242,96243,96244,96245,96246,96247,96248,96249,96250,96251,96252,96253,96254,96255,96256,96257,96258,96259,96260,96261,96262,96263,96264,96265,96266,96267,96268,96269,96311,96312,96313,96314,96315,96316,96317,96318,96319,96320,96321,96322,96323,96324,96325,96326,96193,96194,96195,96196,96197,96198,96199,96200,96201,96202,96203,96204,96205,96206,96207,96208,96209,96210,96211,96212,96213,96214,96215,96216,96217,96218,96219,96220,96221,96222,96223,96224,96225,96226,96227,96228,96229,96230,96231,96232,96233,96234,96235,96236,96237,96238,96239,96240,96241,96242,96243,96244,96245,96246,96247,96193,96194,96195,96196,96197,96198,96199,96200,96201,96202,96203,96204,96205,96206,96207,96208,96209,96210,96211,96212,96213,96214,96215,96216,96217,96218,96219,96220,96221,96222,96223,96224,96225,96226,96227,96228,96229,96230,96231,96193,96194,96195,96196,96197,96198,96199,96045,96045,96046,96047,96048,96049,96045,96045,96046,96047,96048,96049,
96341,96341,96342,96343,96344,96345,96346,96347,96348,96349,96350,96351,96352,96353,96354,96355,96356,96357,96358,96359,96348,96349,96350,96351,96352,96353,96354,96355,96356,96357,96358,96359,96341,96341,96342,96343,96344,96345,96346,96347,96348,96349,96350,96351,96352,96353,96354,96355,96356,96357,96358,96359,96360,96361,96362,96363,96364,96365,96366,96367,96341,96341,96342,96343,96344,96345,96346,96347,96348,96349,96350,96351,96352,96353,96354,96355,96356,96357,96358,96359,96360,96361,96362,96363,96364,96365,96366,96367,96368,96369,96370,96371,96372,96373,96374,96375,96376,96377,96378,96379,96380,96381,96341,96342,96343,96344,96345,96346,96347,96348,96349,96350,96351,96352,96353,96354,96355,96356,96357,96358,96359,96360,96361,96362,96363,96364,96365,96366,96367,96368,96369,96370,96371,96372,96373,96374,96375,96376,96377,96378,96379,96380,96381,96382,96383,96384,96385,96386,96387,96388,96389,96390,96391,96392,96393,96394,96395,96396,96397,96398,96399,96400,96401,96402,96403,96404,96405,96406,96407,96408,96409,96410,96411,96412,96413,96414,96415,96416,96417,96459,96460,96461,96462,96463,96464,96465,96466,96467,96468,96469,96470,96471,96472,96473,96474,96341,96342,96343,96344,96345,96346,96347,96348,96349,96350,96351,96352,96353,96354,96355,96356,96357,96358,96359,96360,96361,96362,96363,96364,96365,96366,96367,96368,96369,96370,96371,96372,96373,96374,96375,96376,96377,96378,96379,96380,96381,96382,96383,96384,96385,96386,96387,96388,96389,96390,96391,96392,96393,96394,96395,96341,96342,96343,96344,96345,96346,96347,96348,96349,96350,96351,96352,96353,96354,96355,96356,96357,96358,96359,96360,96361,96362,96363,96364,96365,96366,96367,96368,96369,96370,96371,96372,96373,96374,96375,96376,96377,96378,96379,96341,96342,96343,96344,96345,96346,96347,95009,95009,95010,95011,95012,95013,95009,95009,95010,95011,95012,95013,
95009,95009,95010,95011,95012,95013,95014,95015,95016,95017,95018,95019,95020,95021,95022,95023,95024,95025,95026,95027,95016,95017,95018,95019,95020,95021,95022,95023,95024,95025,95026,95027,95009,95009,95010,95011,95012,95013,95014,95015,95016,95017,95018,95019,95020,95021,95022,95023,95024,95025,95026,95027,95028,95029,95030,95031,95032,95033,95034,95035,95036,95037,95038,95039,95040,95041,95042,95043,95044,95045,95046,95047,95048,95049,95009,95010,95011,95012,95013,95014,95015,95016,95017,95018,95019,95020,95021,95022,95023,95024,95025,95026,95027,95028,95029,95030,95031,95032,95033,95034,95035,95036,95037,95038,95039,95040,95041,95042,95043,95044,95045,95046,95047,95048,95049,95050,95051,95052,95053,95054,95055,95056,95057,95058,95059,95060,95061,95062,95063,95064,95065,95066,95067,95068,95069,95070,95071,95072,95073,95074,95075,95076,95077,95078,95079,95080,95081,95082,95083,95084,95085,95127,95128,95129,95130,95131,95132,95133,95134,95135,95136,95137,95138,95139,95140,95141,95142,95009,95010,95011,95012,95013,95014,95015,95016,95017,95018,95019,95020,95021,95022,95023,95024,95025,95026,95027,95028,95029,95030,95031,95032,95033,95034,95035,95036,95037,95038,95039,95040,95041,95042,95043,95044,95045,95046,95047,95048,95049,95050,95051,95052,95053,95054,95055,95056,95057,95058,95059,95060,95061,95062,95063,95009,95010,95011,95012,95013,95014,95015,95016,95017,95018,95019,95020,95021,95022,95023,95024,95025,95026,95027,95028,95029,95030,95031,95032,95033,95034,95035,95036,95037,95038,95039,95040,95041,95042,95043,95044,95045,95046,95047,95009,95010,95011,95012,95013,95014,95015,95016,95017,95018,95019,95020,95021,95022,95023,95024,95025,95026,95027,95028,95029,95030,95031,95032,95033,95017,95018,95019,95020,95021,95022,95023,95024,95025,95026,95157,95157,95158,95159,95160,95161,95157,95157,95158,95159,95160,95161,
95157,95157,95158,95159,95160,95161,95162,95163,95164,95165,95166,95167,95168,95169,95170,95171,95172,95173,95174,95175,95164,95165,95166,95167,95168,95169,95170,95171,95172,95173,95174,95175,95157,95157,95158,95159,95160,95161,95162,95163,95164,95165,95166,95167,95168,95169,95170,95171,95172,95173,95174,95175,95176,95177,95178,95179,95180,95181,95182,95183,95184,95185,95186,95187,95188,95189,95190,95191,95192,95193,95194,95195,95196,95197,95157,95158,95159,95160,95161,95162,95163,95164,95165,95166,95167,95168,95169,95170,95171,95172,95173,95174,95175,95176,95177,95178,95179,95180,95181,95182,95183,95184,95185,95186,95187,95188,95189,95190,95191,95192,95193,95194,95195,95196,95197,95198,95199,95200,95201,95202,95203,95204,95205,95206,95207,95208,95209,95210,95211,95212,95213,95214,95215,95216,95217,95218,95219,95220,95221,95222,95223,95224,95225,95226,95227,95228,95229,95230,95231,95232,95233,95275,95276,95277,95278,95279,95280,95281,95282,95283,95284,95285,95286,95287,95288,95289,95290,95157,95158,95159,95160,95161,95162,95163,95164,95165,95166,95167,95168,95169,95170,95171,95172,95173,95174,95175,95176,95177,95178,95179,95180,95181,95182,95183,95184,95185,95186,95187,95188,95189,95190,95191,95192,95193,95194,95195,95196,95197,95198,95199,95200,95201,95202,95203,95204,95205,95206,95207,95208,95209,95210,95211,95157,95158,95159,95160,95161,95162,95163,95164,95165,95166,95167,95168,95169,95170,95171,95172,95173,95174,95175,95176,95177,95178,95179,95180,95181,95182,95183,95184,95185,95186,95187,95188,95189,95190,95191,95192,95193,95194,95195,95157,95158,95159,95160,95161,95162,95163,95164,95165,95166,95167,95168,95169,95170,95171,95172,95173,95174,95175,95176,95177,95178,95179,95180,95181,95165,95166,95167,95168,95169,95170,95171,95172,95173,95174,95305,95305,95306,95307,95308,95309,95305,95305,95306,95307,95308,95309,
95305,95305,95306,95307,95308,95309,95310,95311,95312,95313,95314,95315,95316,95317,95318,95319,95320,95321,95322,95323,95312,95313,95314,95315,95316,95317,95318,95319,95320,95321,95322,95323,95305,95305,95306,95307,95308,95309,95310,95311,95312,95313,95314,95315,95316,95317,95318,95319,95320,95321,95322,95323,95324,95325,95326,95327,95328,95329,95330,95331,95332,95333,95334,95335,95336,95337,95338,95339,95340,95341,95342,95343,95344,95345,95305,95306,95307,95308,95309,95310,95311,95312,95313,95314,95315,95316,95317,95318,95319,95320,95321,95322,95323,95324,95325,95326,95327,95328,95329,95330,95331,95332,95333,95334,95335,95336,95337,95338,95339,95340,95341,95342,95343,95344,95345,95346,95347,95348,95349,95350,95351,95352,95353,95354,95355,95356,95357,95358,95359,95360,95361,95362,95363,95364,95365,95366,95367,95368,95369,95370,95371,95372,95373,95374,95375,95376,95377,95378,95379,95380,95381,95423,95424,95425,95426,95427,95428,95429,95430,95431,95432,95433,95434,95435,95436,95437,95438,95305,95306,95307,95308,95309,95310,95311,95312,95313,95314,95315,95316,95317,95318,95319,95320,95321,95322,95323,95324,95325,95326,95327,95328,95329,95330,95331,95332,95333,95334,95335,95336,95337,95338,95339,95340,95341,95342,95343,95344,95345,95346,95347,95348,95349,95350,95351,95352,95353,95354,95355,95356,95357,95358,95359,95305,95306,95307,95308,95309,95310,95311,95312,95313,95314,95315,95316,95317,95318,95319,95320,95321,95322,95323,95324,95325,95326,95327,95328,95329,95330,95331,95332,95333,95334,95335,95336,95337,95338,95339,95340,95341,95342,95343,95305,95306,95307,95308,95309,95310,95311,95312,95313,95314,95315,95316,95317,95318,95319,95320,95321,95322,95323,95324,95325,95326,95327,95328,95329,95313,95314,95315,95316,95317,95318,95319,95320,95321,95322,95453,95453,95454,95455,95456,95457,95453,95453,95454,95455,95456,95457,
95453,95453,95454,95455,95456,95457,95458,95459,95460,95461,95462,95463,95464,95465,95466,95467,95468,95469,95470,95471,95460,95461,95462,95463,95464,95465,95466,95467,95468,95469,95470,95471,95453,95453,95454,95455,95456,95457,95458,95459,95460,95461,95462,95463,95464,95465,95466,95467,95468,95469,95470,95471,95472,95473,95474,95475,95476,95477,95478,95479,95480,95481,95482,95483,95484,95485,95486,95487,95488,95489,95490,95491,95492,95493,95453,95454,95455,95456,95457,95458,95459,95460,95461,95462,95463,95464,95465,95466,95467,95468,95469,95470,95471,95472,95473,95474,95475,95476,95477,95478,95479,95480,95481,95482,95483,95484,95485,95486,95487,95488,95489,95490,95491,95492,95493,95494,95495,95496,95497,95498,95499,95500,95501,95502,95503,95504,95505,95506,95507,95508,95509,95510,95511,95512,95513,95514,95515,95516,95517,95518,95519,95520,95521,95522,95523,95524,95525,95526,95527,95528,95529,95571,95572,95573,95574,95575,95576,95577,95578,95579,95580,95581,95582,95583,95584,95585,95586,95453,95454,95455,95456,95457,95458,95459,95460,95461,95462,95463,95464,95465,95466,95467,95468,95469,95470,95471,95472,95473,95474,95475,95476,95477,95478,95479,95480,95481,95482,95483,95484,95485,95486,95487,95488,95489,95490,95491,95492,95493,95494,95495,95496,95497,95498,95499,95500,95501,95502,95503,95504,95505,95506,95507,95453,95454,95455,95456,95457,95458,95459,95460,95461,95462,95463,95464,95465,95466,95467,95468,95469,95470,95471,95472,95473,95474,95475,95476,95477,95478,95479,95480,95481,95482,95483,95484,95485,95486,95487,95488,95489,95490,95491,95453,95454,95455,95456,95457,95458,95459,95460,95461,95462,95463,95464,95465,95466,95467,95468,95469,95470,95471,95472,95473,95474,95475,95476,95477,95461,95462,95463,95464,95465,95466,95467,95468,95469,95470,95601,95601,95602,95603,95604,95605,95601,95601,95602,95603,95604,95605,
95601,95601,95602,95603,95604,95605,95606,95607,95608,95609,95610,95611,95612,95613,95614,95615,95616,95617,95618,95619,95608,95609,95610,95611,95612,95613,95614,95615,95616,95617,95618,95619,95601,95601,95602,95603,95604,95605,95606,95607,95608,95609,95610,95611,95612,95613,95614,95615,95616,95617,95618,95619,95620,95621,95622,95623,95624,95625,95626,95627,95628,95629,95630,95631,95632,95633,95634,95635,95636,95637,95638,95639,95640,95641,95601,95602,95603,95604,95605,95606,95607,95608,95609,95610,95611,95612,95613,95614,95615,95616,95617,95618,95619,95620,95621,95622,95623,95624,95625,95626,95627,95628,95629,95630,95631,95632,95633,95634,95635,95636,95637,95638,95639,95640,95641,95642,95643,95644,95645,95646,95647,95648,95649,95650,95651,95652,95653,95654,95655,95656,95657,95658,95659,95660,95661,95662,95663,95664,95665,95666,95667,95668,95669,95670,95671,95672,95673,95674,95675,95676,95677,95719,95720,95721,95722,95723,95724,95725,95726,95727,95728,95729,95730,95731,95732,95733,95734,95601,95602,95603,95604,95605,95606,95607,95608,95609,95610,95611,95612,95613,95614,95615,95616,95617,95618,95619,95620,95621,95622,95623,95624,95625,95626,95627,95628,95629,95630,95631,95632,95633,95634,95635,95636,95637,95638,95639,95640,95641,95642,95643,95644,95645,95646,95647,95648,95649,95650,95651,95652,95653,95654,95655,95601,95602,95603,95604,95605,95606,95607,95608,95609,95610,95611,95612,95613,95614,95615,95616,95617,95618,95619,95620,95621,95622,95623,95624,95625,95626,95627,95628,95629,95630,95631,95632,95633,95634,95635,95636,95637,95638,95639,95601,95602,95603,95604,95605,95606,95607,95608,95609,95610,95611,95612,95613,95614,95615,95616,95617,95618,95619,95620,95621,95622,95623,95624,95625,95609,95610,95611,95612,95613,95614,95615,95616,95617,95618,95749,95749,95750,95751,95752,95753,95749,95749,95750,95751,95752,95753,
95749,95749,95750,95751,95752,95753,95754,95755,95756,95757,95758,95759,95760,95761,95762,95763,95764,95765,95766,95767,95756,95757,95758,95759,95760,95761,95762,95763,95764,95765,95766,95767,95749,95749,95750,95751,95752,95753,95754,95755,95756,95757,95758,95759,95760,95761,95762,95763,95764,95765,95766,95767,95768,95769,95770,95771,95772,95773,95774,95775,95776,95777,95778,95779,95780,95781,95782,95783,95784,95785,95786,95787,95788,95789,95749,95750,95751,95752,95753,95754,95755,95756,95757,95758,95759,95760,95761,95762,95763,95764,95765,95766,95767,95768,95769,95770,95771,95772,95773,95774,95775,95776,95777,95778,95779,95780,95781,95782,95783,95784,95785,95786,95787,95788,95789,95790,95791,95792,95793,95794,95795,95796,95797,95798,95799,95800,95801,95802,95803,95804,95805,95806,95807,95808,95809,95810,95811,95812,95813,95814,95815,95816,95817,95818,95819,95820,95821,95822,95823,95824,95825,95867,95868,95869,95870,95871,95872,95873,95874,95875,95876,95877,95878,95879,95880,95881,95882,95749,95750,95751,95752,95753,95754,95755,95756,95757,95758,95759,95760,95761,95762,95763,95764,95765,95766,95767,95768,95769,95770,95771,95772,95773,95774,95775,95776,95777,95778,95779,95780,95781,95782,95783,95784,95785,95786,95787,95788,95789,95790,95791,95792,95793,95794,95795,95796,95797,95798,95799,95800,95801,95802,95803,95749,95750,95751,95752,95753,95754,95755,95756,95757,95758,95759,95760,95761,95762,95763,95764,95765,95766,95767,95768,95769,95770,95771,95772,95773,95774,95775,95776,95777,95778,95779,95780,95781,95782,95783,95784,95785,95786,95787,95749,95750,95751,95752,95753,95754,95755,95756,95757,95758,95759,95760,95761,95762,95763,95764,95765,95766,95767,95768,95769,95770,95771,95772,95773,95757,95758,95759,95760,95761,95762,95763,95764,95765,95766,95897,95897,95898,95899,95900,95901,95897,95897,95898,95899,95900,95901,
95897,95897,95898,95899,95900,95901,95902,95903,95904,95905,95906,95907,95908,95909,95910,95911,95912,95913,95914,95915,95904,95905,95906,95907,95908,95909,95910,95911,95912,95913,95914,95915,95897,95897,95898,95899,95900,95901,95902,95903,95904,95905,95906,95907,95908,95909,95910,95911,95912,95913,95914,95915,95916,95917,95918,95919,95920,95921,95922,95923,95924,95925,95926,95927,95928,95929,95930,95931,95932,95933,95934,95935,95936,95937,95897,95898,95899,95900,95901,95902,95903,95904,95905,95906,95907,95908,95909,95910,95911,95912,95913,95914,95915,95916,95917,95918,95919,95920,95921,95922,95923,95924,95925,95926,95927,95928,95929,95930,95931,95932,95933,95934,95935,95936,95937,95938,95939,95940,95941,95942,95943,95944,95945,95946,95947,95948,95949,95950,95951,95952,95953,95954,95955,95956,95957,95958,95959,95960,95961,95962,95963,95964,95965,95966,95967,95968,95969,95970,95971,95972,95973,96015,96016,96017,96018,96019,96020,96021,96022,96023,96024,96025,96026,96027,96028,96029,96030,95897,95898,95899,95900,95901,95902,95903,95904,95905,95906,95907,95908,95909,95910,95911,95912,95913,95914,95915,95916,95917,95918,95919,95920,95921,95922,95923,95924,95925,95926,95927,95928,95929,95930,95931,95932,95933,95934,95935,95936,95937,95938,95939,95940,95941,95942,95943,95944,95945,95946,95947,95948,95949,95950,95951,95897,95898,95899,95900,95901,95902,95903,95904,95905,95906,95907,95908,95909,95910,95911,95912,95913,95914,95915,95916,95917,95918,95919,95920,95921,95922,95923,95924,95925,95926,95927,95928,95929,95930,95931,95932,95933,95934,95935,95897,95898,95899,95900,95901,95902,95903,95904,95905,95906,95907,95908,95909,95910,95911,95912,95913,95914,95915,95916,95917,95918,95919,95920,95921,95905,95906,95907,95908,95909,95910,95911,95912,95913,95914,96045,96045,96046,96047,96048,96049,96045,96045,96046,96047,96048,96049,
96045,96045,96046,96047,96048,96049,96050,96051,96052,96053,96054,96055,96056,96057,96058,96059,96060,96061,96062,96063,96052,96053,96054,96055,96056,96057,96058,96059,96060,96061,96062,96063,96045,96045,96046,96047,96048,96049,96050,96051,96052,96053,96054,96055,96056,96057,96058,96059,96060,96061,96062,96063,96064,96065,96066,96067,96068,96069,96070,96071,96072,96073,96074,96075,96076,96077,96078,96079,96080,96081,96082,96083,96084,96085,96045,96046,96047,96048,96049,96050,96051,96052,96053,96054,96055,96056,96057,96058,96059,96060,96061,96062,96063,96064,96065,96066,96067,96068,96069,96070,96071,96072,96073,96074,96075,96076,96077,96078,96079,96080,96081,96082,96083,96084,96085,96086,96087,96088,96089,96090,96091,96092,96093,96094,96095,96096,96097,96098,96099,96100,96101,96102,96103,96104,96105,96106,96107,96108,96109,96110,96111,96112,96113,96114,96115,96116,96117,96118,96119,96120,96121,96163,96164,96165,96166,96167,96168,96169,96170,96171,96172,96173,96174,96175,96176,96177,96178,96045,96046,96047,96048,96049,96050,96051,96052,96053,96054,96055,96056,96057,96058,96059,96060,96061,96062,96063,96064,96065,96066,96067,96068,96069,96070,96071,96072,96073,96074,96075,96076,96077,96078,96079,96080,96081,96082,96083,96084,96085,96086,96087,96088,96089,96090,96091,96092,96093,96094,96095,96096,96097,96098,96099,96045,96046,96047,96048,96049,96050,96051,96052,96053,96054,96055,96056,96057,96058,96059,96060,96061,96062,96063,96064,96065,96066,96067,96068,96069,96070,96071,96072,96073,96074,96075,96076,96077,96078,96079,96080,96081,96082,96083,96045,96046,96047,96048,96049,96050,96051,96052,96053,96054,96055,96056,96057,96058,96059,96060,96061,96062,96063,96064,96065,96066,96067,96068,96069,96053,96054,96055,96056,96057,96058,96059,96060,96061,96062,95009,95009,95010,95011,95012,95013,95009,95009,95010,95011,95012,95013,
96193,96193,96194,96195,96196,96197,96198,96199,96200,96201,96202,96203,96204,96205,96206,96207,96208,96209,96210,96211,96200,96201,96202,96203,96204,96205,96206,96207,96208,96209,96210,96211,96193,96193,96194,96195,96196,96197,96198,96199,96200,96201,96202,96203,96204,96205,96206,96207,96208,96209,96210,96211,96212,96213,96214,96215,96216,96217,96218,96219,96220,96221,96222,96223,96224,96225,96226,96227,96228,96229,96230,96231,96232,96233,96193,96194,96195,96196,96197,96198,96199,96200,96201,96202,96203,96204,96205,96206,96207,96208,96209,96210,96211,96212,96213,96214,96215,96216,96217,96218,96219,96220,96221,96222,96223,96224,96225,96226,96227,96228,96229,96230,96231,96232,96233,96234,96235,96236,96237,96238,96239,96240,96241,96242,96243,96244,96245,96246,96247,96248,96249,96250,96251,96252,96253,96254,96255,96256,96257,96258,96259,96260,96261,96262,96263,96264,96265,96266,96267,96268,96269,96311,96312,96313,96314,96315,96316,96317,96318,96319,96320,96321,96322,96323,96324,96325,96326,96193,96194,96195,96196,96197,96198,96199,96200,96201,96202,96203,96204,96205,96206,96207,96208,96209,96210,96211,96212,96213,96214,96215,96216,96217,96218,96219,96220,96221,96222,96223,96224,96225,96226,96227,96228,96229,96230,96231,96232,96233,96234,96235,96236,96237,96238,96239,96240,96241,96242,96243,96244,96245,96246,96247,96193,96194,96195,96196,96197,96198,96199,96200,96201,96202,96203,96204,96205,96206,96207,96208,96209,96210,96211,96212,96213,96214,96215,96216,96217,96218,96219,96220,96221,96222,96223,96224,96225,96226,96227,96228,96229,96230,96231,96193,96194,96195,96196,96197,96198,96199,96200,96201,96202,96203,96204,96205,96206,96207,96208,96209,96210,96211,96212,96213,96214,96215,96216,96217,96201,96202,96203,96204,96205,96206,96207,96208,96209,96210,95157,95157,95158,95159,95160,95161,95157,95157,95158,95159,95160,95161,
96341,96341,96342,96343,96344,96345,96346,96347,96348,96349,96350,96351,96352,96353,96354,96355,96356,96357,96358,96359,96348,96349,96350,96351,96352,96353,96354,96355,96356,96357,96358,96359,96341,96341,96342,96343,96344,96345,96346,96347,96348,96349,96350,96351,96352,96353,96354,96355,96356,96357,96358,96359,96360,96361,96362,96363,96364,96365,96366,96367,96368,96369,96370,96371,96372,96373,96374,96375,96376,96377,96378,96379,96380,96381,96341,96342,96343,96344,96345,96346,96347,96348,96349,96350,96351,96352,96353,96354,96355,96356,96357,96358,96359,96360,96361,96362,96363,96364,96365,96366,96367,96368,96369,96370,96371,96372,96373,96374,96375,96376,96377,96378,96379,96380,96381,96382,96383,96384,96385,96386,96387,96388,96389,96390,96391,96392,96393,96394,96395,96396,96397,96398,96399,96400,96401,96402,96403,96404,96405,96406,96407,96408,96409,96410,96411,96412,96413,96414,96415,96416,96417,96459,96460,96461,96462,96463,96464,96465,96466,96467,96468,96469,96470,96471,96472,96473,96474,96341,96342,96343,96344,96345,96346,96347,96348,96349,96350,96351,96352,96353,96354,96355,96356,96357,96358,96359,96360,96361,96362,96363,96364,96365,96366,96367,96368,96369,96370,96371,96372,96373,96374,96375,96376,96377,96378,96379,96380,96381,96382,96383,96384,96385,96386,96387,96388,96389,96390,96391,96392,96393,96394,96395,96341,96342,96343,96344,96345,96346,96347,96348,96349,96350,96351,96352,96353,96354,96355,96356,96357,96358,96359,96360,96361,96362,96363,96364,96365,96366,96367,96368,96369,96370,96371,96372,96373,96374,96375,96376,96377,96378,96379,96341,96342,96343,96344,96345,96346,96347,96348,96349,96350,96351,96352,96353,96354,96355,96356,96357,96358,96359,96360,96361,96362,96363,96364,96365,96349,96350,96351,96352,96353,96354,96355,96356,96357,96358,95305,95305,95306,95307,95308,95309,95305,95305,95306,95307,95308,95309,
96489,96489,96490,96491,96492,96493,96494,96495,96496,96497,96498,96499,96500,96501,96502,96503,96504,96505,96506,96507,96496,96497,96498,96499,96500,96501,96502,96503,96504,96505,96506,96507,96489,96489,96490,96491,96492,96493,96494,96495,96496,96497,96498,96499,96500,96501,96502,96503,96504,96505,96506,96507,96508,96509,96510,96511,96512,96513,96514,96515,96516,96517,96518,96519,96520,96521,96522,96523,96524,96525,96526,96527,96528,96529,96489,96490,96491,96492,96493,96494,96495,96496,96497,96498,96499,96500,96501,96502,96503,96504,96505,96506,96507,96508,96509,96510,96511,96512,96513,96514,96515,96516,96517,96518,96519,96520,96521,96522,96523,96524,96525,96526,96527,96528,96529,96530,96531,96532,96533,96534,96535,96536,96537,96538,96539,96540,96541,96542,96543,96544,96545,96546,96547,96548,96549,96550,96551,96552,96553,96554,96555,96556,96557,96558,96559,96560,96561,96562,96563,96564,96565,96607,96608,96609,96610,96611,96612,96613,96614,96615,96616,96617,96618,96619,96620,96621,96622,96489,96490,96491,96492,96493,96494,96495,96496,96497,96498,96499,96500,96501,96502,96503,96504,96505,96506,96507,96508,96509,96510,96511,96512,96513,96514,96515,96516,96517,96518,96519,96520,96521,96522,96523,96524,96525,96526,96527,96528,96529,96530,96531,96532,96533,96534,96535,96536,96537,96538,96539,96540,96541,96542,96543,96489,96490,96491,96492,96493,96494,96495,96496,96497,96498,96499,96500,96501,96502,96503,96504,96505,96506,96507,96508,96509,96510,96511,96512,96513,96514,96515,96516,96517,96518,96519,96520,96521,96522,96523,96524,96525,96526,96527,96489,96490,96491,96492,96493,96494,96495,96496,96497,96498,96499,96500,96501,96502,96503,96504,96505,96506,96507,96508,96509,96510,96511,96512,96513,96497,96498,96499,96500,96501,96502,96503,96504,96505,96506,95453,95453,95454,95455,95456,95457,95453,95453,95454,95455,95456,95457,
96637,96637,96638,96639,96640,96641,96642,96643,96644,96645,96646,96647,96648,96649,96650,96651,96652,96653,96654,96655,96644,96645,96646,96647,96648,96649,96650,96651,96652,96653,96654,96655,96637,96637,96638,96639,96640,96641,96642,96643,96644,96645,96646,96647,96648,96649,96650,96651,96652,96653,96654,96655,96656,96657,96658,96659,96660,96661,96662,96663,96664,96665,96666,96667,96668,96669,96670,96671,96672,96673,96674,96675,96676,96677,96637,96638,96639,96640,96641,96642,96643,96644,96645,96646,96647,96648,96649,96650,96651,96652,96653,96654,96655,96656,96657,96658,96659,96660,96661,96662,96663,96664,96665,96666,96667,96668,96669,96670,96671,96672,96673,96674,96675,96676,96677,96678,96679,96680,96681,96682,96683,96684,96685,96686,96687,96688,96689,96690,96691,96692,96693,96694,96695,96696,96697,96698,96699,96700,96701,96702,96703,96704,96705,96706,96707,96708,96709,96710,96711,96712,96713,96755,96756,96757,96758,96759,96760,96761,96762,96763,96764,96765,96766,96767,96768,96769,96770,96637,96638,96639,96640,96641,96642,96643,96644,96645,96646,96647,96648,96649,96650,96651,96652,96653,96654,96655,96656,96657,96658,96659,96660,96661,96662,96663,96664,96665,96666,96667,96668,96669,96670,96671,96672,96673,96674,96675,96676,96677,96678,96679,96680,96681,96682,96683,96684,96685,96686,96687,96688,96689,96690,96691,96637,96638,96639,96640,96641,96642,96643,96644,96645,96646,96647,96648,96649,96650,96651,96652,96653,96654,96655,96656,96657,96658,96659,96660,96661,96662,96663,96664,96665,96666,96667,96668,96669,96670,96671,96672,96673,96674,96675,96637,96638,96639,96640,96641,96642,96643,96644,96645,96646,96647,96648,96649,96650,96651,96652,96653,96654,96655,96656,96657,96658,96659,96660,96661,96645,96646,96647,96648,96649,96650,96651,96652,96653,96654,95601,95601,95602,95603,95604,95605,95601,95601,95602,95603,95604,95605,
96785,96785,96786,96787,96788,96789,96790,96791,96792,96793,96794,96795,96796,96797,96798,96799,96800,96801,96802,96803,96792,96793,96794,96795,96796,96797,96798,96799,96800,96801,96802,96803,96785,96785,96786,96787,96788,96789,96790,96791,96792,96793,96794,96795,96796,96797,96798,96799,96800,96801,96802,96803,96804,96805,96806,96807,96808,96809,96810,96811,96812,96813,96814,96815,96816,96817,96818,96819,96820,96821,96822,96823,96824,96825,96785,96786,96787,96788,96789,96790,96791,96792,96793,96794,96795,96796,96797,96798,96799,96800,96801,96802,96803,96804,96805,96806,96807,96808,96809,96810,96811,96812,96813,96814,96815,96816,96817,96818,96819,96820,96821,96822,96823,96824,96825,96826,96827,96828,96829,96830,96831,96832,96833,96834,96835,96836,96837,96838,96839,96840,96841,96842,96843,96844,96845,96846,96847,96848,96849,96850,96851,96852,96853,96854,96855,96856,96857,96858,96859,96860,96861,96903,96904,96905,96906,96907,96908,96909,96910,96911,96912,96913,96914,96915,96916,96917,96918,96785,96786,96787,96788,96789,96790,96791,96792,96793,96794,96795,96796,96797,96798,96799,96800,96801,96802,96803,96804,96805,96806,96807,96808,96809,96810,96811,96812,96813,96814,96815,96816,96817,96818,96819,96820,96821,96822,96823,96824,96825,96826,96827,96828,96829,96830,96831,96832,96833,96834,96835,96836,96837,96838,96839,96785,96786,96787,96788,96789,96790,96791,96792,96793,96794,96795,96796,96797,96798,96799,96800,96801,96802,96803,96804,96805,96806,96807,96808,96809,96810,96811,96812,96813,96814,96815,96816,96817,96818,96819,96820,96821,96822,96823,96785,96786,96787,96788,96789,96790,96791,96792,96793,96794,96795,96796,96797,96798,96799,96800,96801,96802,96803,96804,96805,96806,96807,96808,96809,96793,96794,96795,96796,96797,96798,96799,96800,96801,96802,95749,95749,95750,95751,95752,95753,95749,95749,95750,95751,95752,95753,
96933,96933,96934,96935,96936,96937,96938,96939,96940,96941,96942,96943,96944,96945,96946,96947,96948,96949,96950,96951,96940,96941,96942,96943,96944,96945,96946,96947,96948,96949,96950,96951,96933,96933,96934,96935,96936,96937,96938,96939,96940,96941,96942,96943,96944,96945,96946,96947,96948,96949,96950,96951,96952,96953,96954,96955,96956,96957,96958,96959,96960,96961,96962,96963,96964,96965,96966,96967,96968,96969,96970,96971,96972,96973,96933,96934,96935,96936,96937,96938,96939,96940,96941,96942,96943,96944,96945,96946,96947,96948,96949,96950,96951,96952,96953,96954,96955,96956,96957,96958,96959,96960,96961,96962,96963,96964,96965,96966,96967,96968,96969,96970,96971,96972,96973,96974,96975,96976,96977,96978,96979,96980,96981,96982,96983,96984,96985,96986,96987,96988,96989,96990,96991,96992,96993,96994,96995,96996,96997,96998,96999,97000,97001,97002,97003,97004,97005,97006,97007,97008,97009,97051,97052,97053,97054,97055,97056,97057,97058,97059,97060,97061,97062,97063,97064,97065,97066,96933,96934,96935,96936,96937,96938,96939,96940,96941,96942,96943,96944,96945,96946,96947,96948,96949,96950,96951,96952,96953,96954,96955,96956,96957,96958,96959,96960,96961,96962,96963,96964,96965,96966,96967,96968,96969,96970,96971,96972,96973,96974,96975,96976,96977,96978,96979,96980,96981,96982,96983,96984,96985,96986,96987,96933,96934,96935,96936,96937,96938,96939,96940,96941,96942,96943,96944,96945,96946,96947,96948,96949,96950,96951,96952,96953,96954,96955,96956,96957,96958,96959,96960,96961,96962,96963,96964,96965,96966,96967,96968,96969,96970,96971,96933,96934,96935,96936,96937,96938,96939,96940,96941,96942,96943,96944,96945,96946,96947,96948,96949,96950,96951,96952,96953,96954,96955,96956,96957,96941,96942,96943,96944,96945,96946,96947,96948,96949,96950,95897,95897,95898,95899,95900,95901,95897,95897,95898,95899,95900,95901,
97081,97081,97082,97083,97084,97085,97086,97087,97088,97089,97090,97091,97092,97093,97094,97095,97096,97097,97098,97099,97088,97089,97090,97091,97092,97093,97094,97095,97096,97097,97098,97099,97081,97081,97082,97083,97084,97085,97086,97087,97088,97089,97090,97091,97092,97093,97094,97095,97096,97097,97098,97099,97100,97101,97102,97103,97104,97105,97106,97107,97108,97109,97110,97111,97112,97113,97114,97115,97116,97117,97118,97119,97120,97121,97081,97082,97083,97084,97085,97086,97087,97088,97089,97090,97091,97092,97093,97094,97095,97096,97097,97098,97099,97100,97101,97102,97103,97104,97105,97106,97107,97108,97109,97110,97111,97112,97113,97114,97115,97116,97117,97118,97119,97120,97121,97122,97123,97124,97125,97126,97127,97128,97129,97130,97131,97132,97133,97134,97135,97136,97137,97138,97139,97140,97141,97142,97143,97144,97145,97146,97147,97148,97149,97150,97151,97152,97153,97154,97155,97156,97157,97199,97200,97201,97202,97203,97204,97205,97206,97207,97208,97209,97210,97211,97212,97213,97214,97081,97082,97083,97084,97085,97086,97087,97088,97089,97090,97091,97092,97093,97094,97095,97096,97097,97098,97099,97100,97101,97102,97103,97104,97105,97106,97107,97108,97109,97110,97111,97112,97113,97114,97115,97116,97117,97118,97119,97120,97121,97122,97123,97124,97125,97126,97127,97128,97129,97130,97131,97132,97133,97134,97135,97081,97082,97083,97084,97085,97086,97087,97088,97089,97090,97091,97092,97093,97094,97095,97096,97097,97098,97099,97100,97101,97102,97103,97104,97105,97106,97107,97108,97109,97110,97111,97112,97113,97114,97115,97116,97117,97118,97119,97081,97082,97083,97084,97085,97086,97087,97088,97089,97090,97091,97092,97093,97094,97095,97096,97097,97098,97099,97100,97101,97102,97103,97104,97105,97089,97090,97091,97092,97093,97094,97095,97096,97097,97098,96045,96045,96046,96047,96048,96049,96045,96045,96046,96047,96048,96049,
97229,97229,97230,97231,97232,97233,97234,97235,97236,97237,97238,97239,97240,97241,97242,97243,97244,97245,97246,97247,97236,97237,97238,97239,97240,97241,97242,97243,97244,97245,97246,97247,97229,97229,97230,97231,97232,97233,97234,97235,97236,97237,97238,97239,97240,97241,97242,97243,97244,97245,97246,97247,97248,97249,97250,97251,97252,97253,97254,97255,97256,97257,97258,97259,97260,97261,97262,97263,97264,97265,97266,97267,97268,97269,97229,97230,97231,97232,97233,97234,97235,97236,97237,97238,97239,97240,97241,97242,97243,97244,97245,97246,97247,97248,97249,97250,97251,97252,97253,97254,97255,97256,97257,97258,97259,97260,97261,97262,97263,97264,97265,97266,97267,97268,97269,97270,97271,97272,97273,97274,97275,97276,97277,97278,97279,97280,97281,97282,97283,97284,97285,97286,97287,97288,97289,97290,97291,97292,97293,97294,97295,97296,97297,97298,97299,97300,97301,97302,97303,97304,97305,97347,97348,97349,97350,97351,97352,97353,97354,97355,97356,97357,97358,97359,97360,97361,97362,97229,97230,97231,97232,97233,97234,97235,97236,97237,97238,97239,97240,97241,97242,97243,97244,97245,97246,97247,97248,97249,97250,97251,97252,97253,97254,97255,97256,97257,97258,97259,97260,97261,97262,97263,97264,97265,97266,97267,97268,97269,97270,97271,97272,97273,97274,97275,97276,97277,97278,97279,97280,97281,97282,97283,97229,97230,97231,97232,97233,97234,97235,97236,97237,97238,97239,97240,97241,97242,97243,97244,97245,97246,97247,97248,97249,97250,97251,97252,97253,97254,97255,97256,97257,97258,97259,97260,97261,97262,97263,97264,97265,97266,97267,97229,97230,97231,97232,97233,97234,97235,97236,97237,97238,97239,97240,97241,97242,97243,97244,97245,97246,97247,97248,97249,97250,97251,97252,97253,97237,97238,97239,97240,97241,97242,97243,97244,97245,97246,95009,95009,95010,95011,95012,95013,95009,95009,95010,95011,95012,95013,
97377,97377,97378,97379,97380,97381,97382,97383,97384,97385,97386,97387,97388,97389,97390,97391,97392,97393,97394,97395,97384,97385,97386,97387,97388,97389,97390,97391,97392,97393,97394,97395,97377,97377,97378,97379,97380,97381,97382,97383,97384,97385,97386,97387,97388,97389,97390,97391,97392,97393,97394,97395,97396,97397,97398,97399,97400,97401,97402,97403,97404,97405,97406,97407,97408,97409,97410,97411,97412,97413,97414,97415,97416,97417,97377,97378,97379,97380,97381,97382,97383,97384,97385,97386,97387,97388,97389,97390,97391,97392,97393,97394,97395,97396,97397,97398,97399,97400,97401,97402,97403,97404,97405,97406,97407,97408,97409,97410,97411,97412,97413,97414,97415,97416,97417,97418,97419,97420,97421,97422,97423,97424,97425,97426,97427,97428,97429,97430,97431,97432,97433,97434,97435,97436,97437,97438,97439,97440,97441,97442,97443,97444,97445,97446,97447,97448,97449,97450,97451,97452,97453,97495,97496,97497,97498,97499,97500,97501,97502,97503,97504,97505,97506,97507,97508,97509,97510,97377,97378,97379,97380,97381,97382,97383,97384,97385,97386,97387,97388,97389,97390,97391,97392,97393,97394,97395,97396,97397,97398,97399,97400,97401,97402,97403,97404,97405,97406,97407,97408,97409,97410,97411,97412,97413,97414,97415,97416,97417,97418,97419,97420,97421,97422,97423,97424,97425,97426,97427,97428,97429,97430,97431,97377,97378,97379,97380,97381,97382,97383,97384,97385,97386,97387,97388,97389,97390,97391,97392,97393,97394,97395,97396,97397,97398,97399,97400,97401,97402,97403,97404,97405,97406,97407,97408,97409,97410,97411,97412,97413,97414,97415,97377,97378,97379,97380,97381,97382,97383,97384,97385,97386,97387,97388,97389,97390,97391,97392,97393,97394,97395,97396,97397,97398,97399,97400,97401,97385,97386,97387,97388,97389,97390,97391,97392,97393,97394,95157,95157,95158,95159,95160,95161,95157,95157,95158,95159,95160,95161,
97525,97525,97526,97527,97528,97529,97530,97531,97532,97533,97534,97535,97536,97537,97538,97539,97540,97541,97542,97543,97532,97533,97534,97535,97536,97537,97538,97539,97540,97541,97542,97543,97525,97525,97526,97527,97528,97529,97530,97531,97532,97533,97534,97535,97536,97537,97538,97539,97540,97541,97542,97543,97544,97545,97546,97547,97548,97549,97550,97551,97552,97553,97554,97555,97556,97557,97558,97559,97560,97561,97562,97563,97564,97565,97525,97526,97527,97528,97529,97530,97531,97532,97533,97534,97535,97536,97537,97538,97539,97540,97541,97542,97543,97544,97545,97546,97547,97548,97549,97550,97551,97552,97553,97554,97555,97556,97557,97558,97559,97560,97561,97562,97563,97564,97565,97566,97567,97568,97569,97570,97571,97572,97573,97574,97575,97576,97577,97578,97579,97580,97581,97582,97583,97584,97585,97586,97587,97588,97589,97590,97591,97592,97593,97594,97595,97596,97597,97598,97599,97600,97601,97643,97644,97645,97646,97647,97648,97649,97650,97651,97652,97653,97654,97655,97656,97657,97658,97525,97526,97527,97528,97529,97530,97531,97532,97533,97534,97535,97536,97537,97538,97539,97540,97541,97542,97543,97544,97545,97546,97547,97548,97549,97550,97551,97552,97553,97554,97555,97556,97557,97558,97559,97560,97561,97562,97563,97564,97565,97566,97567,97568,97569,97570,97571,97572,97573,97574,97575,97576,97577,97578,97579,97525,97526,97527,97528,97529,97530,97531,97532,97533,97534,97535,97536,97537,97538,97539,97540,97541,97542,97543,97544,97545,97546,97547,97548,97549,97550,97551,97552,97553,97554,97555,97556,97557,97558,97559,97560,97561,97562,97563,97525,97526,97527,97528,97529,97530,97531,97532,97533,97534,97535,97536,97537,97538,97539,97540,97541,97542,97543,97544,97545,97546,97547,97548,97549,97533,97534,97535,97536,97537,97538,97539,97540,97541,97542,95305,95305,95306,95307,95308,95309,95305,95305,95306,95307,95308,95309,
97673,97673,97674,97675,97676,97677,97678,97679,97680,97681,97682,97683,97684,97685,97686,97687,97688,97689,97690,97691,97680,97681,97682,97683,97684,97685,97686,97687,97688,97689,97690,97691,97673,97673,97674,97675,97676,97677,97678,97679,97680,97681,97682,97683,97684,97685,97686,97687,97688,97689,97690,97691,97692,97693,97694,97695,97696,97697,97698,97699,97700,97701,97702,97703,97704,97705,97706,97707,97708,97709,97710,97711,97712,97713,97673,97674,97675,97676,97677,97678,97679,97680,97681,97682,97683,97684,97685,97686,97687,97688,97689,97690,97691,97692,97693,97694,97695,97696,97697,97698,97699,97700,97701,97702,97703,97704,97705,97706,97707,97708,97709,97710,97711,97712,97713,97714,97715,97716,97717,97718,97719,97720,97721,97722,97723,97724,97725,97726,97727,97728,97729,97730,97731,97732,97733,97734,97735,97736,97737,97738,97739,97740,97741,97742,97743,97744,97745,97746,97747,97748,97749,97791,97792,97793,97794,97795,97796,97797,97798,97799,97800,97801,97802,97803,97804,97805,97806,97673,97674,97675,97676,97677,97678,97679,97680,97681,97682,97683,97684,97685,97686,97687,97688,97689,97690,97691,97692,97693,97694,97695,97696,97697,97698,97699,97700,97701,97702,97703,97704,97705,97706,97707,97708,97709,97710,97711,97712,97713,97714,97715,97716,97717,97718,97719,97720,97721,97722,97723,97724,97725,97726,97727,97673,97674,97675,97676,97677,97678,97679,97680,97681,97682,97683,97684,97685,97686,97687,97688,97689,97690,97691,97692,97693,97694,97695,97696,97697,97698,97699,97700,97701,97702,97703,97704,97705,97706,97707,97708,97709,97710,97711,97673,97674,97675,97676,97677,97678,97679,97680,97681,97682,97683,97684,97685,97686,97687,97688,97689,97690,97691,97692,97693,97694,97695,97696,97697,97681,97682,97683,97684,97685,97686,97687,97688,97689,97690,95453,95453,95454,95455,95456,95457,95453,95453,95454,95455,95456,95457,
97821,97821,97822,97823,97824,97825,97826,97827,97828,97829,97830,97831,97832,97833,97834,97835,97836,97837,97838,97839,97828,97829,97830,97831,97832,97833,97834,97835,97836,97837,97838,97839,97821,97821,97822,97823,97824,97825,97826,97827,97828,97829,97830,97831,97832,97833,97834,97835,97836,97837,97838,97839,97840,97841,97842,97843,97844,97845,97846,97847,97848,97849,97850,97851,97852,97853,97854,97855,97856,97857,97858,97859,97860,97861,97821,97822,97823,97824,97825,97826,97827,97828,97829,97830,97831,97832,97833,97834,97835,97836,97837,97838,97839,97840,97841,97842,97843,97844,97845,97846,97847,97848,97849,97850,97851,97852,97853,97854,97855,97856,97857,97858,97859,97860,97861,97862,97863,97864,97865,97866,97867,97868,97869,97870,97871,97872,97873,97874,97875,97876,97877,97878,97879,97880,97881,97882,97883,97884,97885,97886,97887,97888,97889,97890,97891,97892,97893,97894,97895,97896,97897,97939,97940,97941,97942,97943,97944,97945,97946,97947,97948,97949,97950,97951,97952,97953,97954,97821,97822,97823,97824,97825,97826,97827,97828,97829,97830,97831,97832,97833,97834,97835,97836,97837,97838,97839,97840,97841,97842,97843,97844,97845,97846,97847,97848,97849,97850,97851,97852,97853,97854,97855,97856,97857,97858,97859,97860,97861,97862,97863,97864,97865,97866,97867,97868,97869,97870,97871,97872,97873,97874,97875,97821,97822,97823,97824,97825,97826,97827,97828,97829,97830,97831,97832,97833,97834,97835,97836,97837,97838,97839,97840,97841,97842,97843,97844,97845,97846,97847,97848,97849,97850,97851,97852,97853,97854,97855,97856,97857,97858,97859,97821,97822,97823,97824,97825,97826,97827,97828,97829,97830,97831,97832,97833,97834,97835,97836,97837,97838,97839,97840,97841,97842,97843,97844,97845,97829,97830,97831,97832,97833,97834,97835,97836,97837,97838,95601,95601,95602,95603,95604,95605,95601,95601,95602,95603,95604,95605,
97969,97969,97970,97971,97972,97973,97974,97975,97976,97977,97978,97979,97980,97981,97982,97983,97984,97985,97986,97987,97976,97977,97978,97979,97980,97981,97982,97983,97984,97985,97986,97987,97969,97969,97970,97971,97972,97973,97974,97975,97976,97977,97978,97979,97980,97981,97982,97983,97984,97985,97986,97987,97988,97989,97990,97991,97992,97993,97994,97995,97996,97997,97998,97999,98000,98001,98002,98003,98004,98005,98006,98007,98008,98009,97969,97970,97971,97972,97973,97974,97975,97976,97977,97978,97979,97980,97981,97982,97983,97984,97985,97986,97987,97988,97989,97990,97991,97992,97993,97994,97995,97996,97997,97998,97999,98000,98001,98002,98003,98004,98005,98006,98007,98008,98009,98010,98011,98012,98013,98014,98015,98016,98017,98018,98019,98020,98021,98022,98023,98024,98025,98026,98027,98028,98029,98030,98031,98032,98033,98034,98035,98036,98037,98038,98039,98040,98041,98042,98043,98044,98045,98087,98088,98089,98090,98091,98092,98093,98094,98095,98096,98097,98098,98099,98100,98101,98102,97969,97970,97971,97972,97973,97974,97975,97976,97977,97978,97979,97980,97981,97982,97983,97984,97985,97986,97987,97988,97989,97990,97991,97992,97993,97994,97995,97996,97997,97998,97999,98000,98001,98002,98003,98004,98005,98006,98007,98008,98009,98010,98011,98012,98013,98014,98015,98016,98017,98018,98019,98020,98021,98022,98023,97969,97970,97971,97972,97973,97974,97975,97976,97977,97978,97979,97980,97981,97982,97983,97984,97985,97986,97987,97988,97989,97990,97991,97992,97993,97994,97995,97996,97997,97998,97999,98000,98001,98002,98003,98004,98005,98006,98007,97969,97970,97971,97972,97973,97974,97975,97976,97977,97978,97979,97980,97981,97982,97983,97984,97985,97986,97987,97988,97989,97990,97991,97992,97993,97977,97978,97979,97980,97981,97982,97983,97984,97985,97986,95749,95749,95750,95751,95752,95753,95749,95749,95750,95751,95752,95753,
98117,98117,98118,98119,98120,98121,98122,98123,98124,98125,98126,98127,98128,98129,98130,98131,98132,98133,98134,98135,98124,98125,98126,98127,98128,98129,98130,98131,98132,98133,98134,98135,98117,98117,98118,98119,98120,98121,98122,98123,98124,98125,98126,98127,98128,98129,98130,98131,98132,98133,98134,98135,98136,98137,98138,98139,98140,98141,98142,98143,98144,98145,98146,98147,98148,98149,98150,98151,98152,98153,98154,98155,98156,98157,98117,98118,98119,98120,98121,98122,98123,98124,98125,98126,98127,98128,98129,98130,98131,98132,98133,98134,98135,98136,98137,98138,98139,98140,98141,98142,98143,98144,98145,98146,98147,98148,98149,98150,98151,98152,98153,98154,98155,98156,98157,98158,98159,98160,98161,98162,98163,98164,98165,98166,98167,98168,98169,98170,98171,98172,98173,98174,98175,98176,98177,98178,98179,98180,98181,98182,98183,98184,98185,98186,98187,98188,98189,98190,98191,98192,98193,98235,98236,98237,98238,98239,98240,98241,98242,98243,98244,98245,98246,98247,98248,98249,98250,98117,98118,98119,98120,98121,98122,98123,98124,98125,98126,98127,98128,98129,98130,98131,98132,98133,98134,98135,98136,98137,98138,98139,98140,98141,98142,98143,98144,98145,98146,98147,98148,98149,98150,98151,98152,98153,98154,98155,98156,98157,98158,98159,98160,98161,98162,98163,98164,98165,98166,98167,98168,98169,98170,98171,98117,98118,98119,98120,98121,98122,98123,98124,98125,98126,98127,98128,98129,98130,98131,98132,98133,98134,98135,98136,98137,98138,98139,98140,98141,98142,98143,98144,98145,98146,98147,98148,98149,98150,98151,98152,98153,98154,98155,98117,98118,98119,98120,98121,98122,98123,98124,98125,98126,98127,98128,98129,98130,98131,98132,98133,98134,98135,98136,98137,98138,98139,98140,98141,98125,98126,98127,98128,98129,98130,98131,98132,98133,98134,95897,95897,95898,95899,95900,95901,95897,95897,95898,95899,95900,95901,
98265,98265,98266,98267,98268,98269,98270,98271,98272,98273,98274,98275,98276,98277,98278,98279,98280,98281,98282,98283,98272,98273,98274,98275,98276,98277,98278,98279,98280,98281,98282,98283,98265,98265,98266,98267,98268,98269,98270,98271,98272,98273,98274,98275,98276,98277,98278,98279,98280,98281,98282,98283,98284,98285,98286,98287,98288,98289,98290,98291,98292,98293,98294,98295,98296,98297,98298,98299,98300,98301,98302,98303,98304,98305,98265,98266,98267,98268,98269,98270,98271,98272,98273,98274,98275,98276,98277,98278,98279,98280,98281,98282,98283,98284,98285,98286,98287,98288,98289,98290,98291,98292,98293,98294,98295,98296,98297,98298,98299,98300,98301,98302,98303,98304,98305,98306,98307,98308,98309,98310,98311,98312,98313,98314,98315,98316,98317,98318,98319,98320,98321,98322,98323,98324,98325,98326,98327,98328,98329,98330,98331,98332,98333,98334,98335,98336,98337,98338,98339,98340,98341,98383,98384,98385,98386,98387,98388,98389,98390,98391,98392,98393,98394,98395,98396,98397,98398,98265,98266,98267,98268,98269,98270,98271,98272,98273,98274,98275,98276,98277,98278,98279,98280,98281,98282,98283,98284,98285,98286,98287,98288,98289,98290,98291,98292,98293,98294,98295,98296,98297,98298,98299,98300,98301,98302,98303,98304,98305,98306,98307,98308,98309,98310,98311,98312,98313,98314,98315,98316,98317,98318,98319,98265,98266,98267,98268,98269,98270,98271,98272,98273,98274,98275,98276,98277,98278,98279,98280,98281,98282,98283,98284,98285,98286,98287,98288,98289,98290,98291,98292,98293,98294,98295,98296,98297,98298,98299,98300,98301,98302,98303,98265,98266,98267,98268,98269,98270,98271,98272,98273,98274,98275,98276,98277,98278,98279,98280,98281,98282,98283,98284,98285,98286,98287,98288,98289,98273,98274,98275,98276,98277,98278,98279,98280,98281,98282,96045,96045,96046,96047,96048,96049,96045,96045,96046,96047,96048,96049,
98413,98413,98414,98415,98416,98417,98418,98419,98420,98421,98422,98423,98424,98425,98426,98427,98428,98429,98430,98431,98420,98421,98422,98423,98424,98425,98426,98427,98428,98429,98430,98431,98413,98413,98414,98415,98416,98417,98418,98419,98420,98421,98422,98423,98424,98425,98426,98427,98428,98429,98430,98431,98432,98433,98434,98435,98436,98437,98438,98439,98440,98441,98442,98443,98444,98445,98446,98447,98448,98449,98450,98451,98452,98453,98413,98414,98415,98416,98417,98418,98419,98420,98421,98422,98423,98424,98425,98426,98427,98428,98429,98430,98431,98432,98433,98434,98435,98436,98437,98438,98439,98440,98441,98442,98443,98444,98445,98446,98447,98448,98449,98450,98451,98452,98453,98454,98455,98456,98457,98458,98459,98460,98461,98462,98463,98464,98465,98466,98467,98468,98469,98470,98471,98472,98473,98474,98475,98476,98477,98478,98479,98480,98481,98482,98483,98484,98485,98486,98487,98488,98489,98531,98532,98533,98534,98535,98536,98537,98538,98539,98540,98541,98542,98543,98544,98545,98546,98413,98414,98415,98416,98417,98418,98419,98420,98421,98422,98423,98424,98425,98426,98427,98428,98429,98430,98431,98432,98433,98434,98435,98436,98437,98438,98439,98440,98441,98442,98443,98444,98445,98446,98447,98448,98449,98450,98451,98452,98453,98454,98455,98456,98457,98458,98459,98460,98461,98462,98463,98464,98465,98466,98467,98413,98414,98415,98416,98417,98418,98419,98420,98421,98422,98423,98424,98425,98426,98427,98428,98429,98430,98431,98432,98433,98434,98435,98436,98437,98438,98439,98440,98441,98442,98443,98444,98445,98446,98447,98448,98449,98450,98451,98413,98414,98415,98416,98417,98418,98419,98420,98421,98422,98423,98424,98425,98426,98427,98428,98429,98430,98431,98432,98433,98434,98435,98436,98437,98421,98422,98423,98424,98425,98426,98427,98428,98429,98430,95009,95009,95010,95011,95012,95013,95009,95009,95010,95011,95012,95013,
98561,98561,98562,98563,98564,98565,98566,98567,98568,98569,98570,98571,98572,98573,98574,98575,98576,98577,98578,98579,98568,98569,98570,98571,98572,98573,98574,98575,98576,98577,98578,98579,98561,98561,98562,98563,98564,98565,98566,98567,98568,98569,98570,98571,98572,98573,98574,98575,98576,98577,98578,98579,98580,98581,98582,98583,98584,98585,98586,98587,98588,98589,98590,98591,98592,98593,98594,98595,98596,98597,98598,98599,98600,98601,98561,98562,98563,98564,98565,98566,98567,98568,98569,98570,98571,98572,98573,98574,98575,98576,98577,98578,98579,98580,98581,98582,98583,98584,98585,98586,98587,98588,98589,98590,98591,98592,98593,98594,98595,98596,98597,98598,98599,98600,98601,98602,98603,98604,98605,98606,98607,98608,98609,98610,98611,98612,98613,98614,98615,98616,98617,98618,98619,98620,98621,98622,98623,98624,98625,98626,98627,98628,98629,98630,98631,98632,98633,98634,98635,98636,98637,98679,98680,98681,98682,98683,98684,98685,98686,98687,98688,98689,98690,98691,98692,98693,98694,98561,98562,98563,98564,98565,98566,98567,98568,98569,98570,98571,98572,98573,98574,98575,98576,98577,98578,98579,98580,98581,98582,98583,98584,98585,98586,98587,98588,98589,98590,98591,98592,98593,98594,98595,98596,98597,98598,98599,98600,98601,98602,98603,98604,98605,98606,98607,98608,98609,98610,98611,98612,98613,98614,98615,98561,98562,98563,98564,98565,98566,98567,98568,98569,98570,98571,98572,98573,98574,98575,98576,98577,98578,98579,98580,98581,98582,98583,98584,98585,98586,98587,98588,98589,98590,98591,98592,98593,98594,98595,98596,98597,98598,98599,98561,98562,98563,98564,98565,98566,98567,98568,98569,98570,98571,98572,98573,98574,98575,98576,98577,98578,98579,98580,98581,98582,98583,98584,98585,98569,98570,98571,98572,98573,98574,98575,98576,98577,98578,95157,95157,95158,95159,95160,95161,95157,95157,95158,95159,95160,95161,
98709,98709,98710,98711,98712,98713,98714,98715,98716,98717,98718,98719,98720,98721,98722,98723,98724,98725,98726,98727,98716,98717,98718,98719,98720,98721,98722,98723,98724,98725,98726,98727,98709,98709,98710,98711,98712,98713,98714,98715,98716,98717,98718,98719,98720,98721,98722,98723,98724,98725,98726,98727,98728,98729,98730,98731,98732,98733,98734,98735,98736,98737,98738,98739,98740,98741,98742,98743,98744,98745,98746,98747,98748,98749,98709,98710,98711,98712,98713,98714,98715,98716,98717,98718,98719,98720,98721,98722,98723,98724,98725,98726,98727,98728,98729,98730,98731,98732,98733,98734,98735,98736,98737,98738,98739,98740,98741,98742,98743,98744,98745,98746,98747,98748,98749,98750,98751,98752,98753,98754,98755,98756,98757,98758,98759,98760,98761,98762,98763,98764,98765,98766,98767,98768,98769,98770,98771,98772,98773,98774,98775,98776,98777,98778,98779,98780,98781,98782,98783,98784,98785,98827,98828,98829,98830,98831,98832,98833,98834,98835,98836,98837,98838,98839,98840,98841,98842,98709,98710,98711,98712,98713,98714,98715,98716,98717,98718,98719,98720,98721,98722,98723,98724,98725,98726,98727,98728,98729,98730,98731,98732,98733,98734,98735,98736,98737,98738,98739,98740,98741,98742,98743,98744,98745,98746,98747,98748,98749,98750,98751,98752,98753,98754,98755,98756,98757,98758,98759,98760,98761,98762,98763,98709,98710,98711,98712,98713,98714,98715,98716,98717,98718,98719,98720,98721,98722,98723,98724,98725,98726,98727,98728,98729,98730,98731,98732,98733,98734,98735,98736,98737,98738,98739,98740,98741,98742,98743,98744,98745,98746,98747,98709,98710,98711,98712,98713,98714,98715,98716,98717,98718,98719,98720,98721,98722,98723,98724,98725,98726,98727,98728,98729,98730,98731,98732,98733,98717,98718,98719,98720,98721,98722,98723,98724,98725,98726,95305,95305,95306,95307,95308,95309,95305,95305,95306,95307,95308,95309,
98857,98857,98858,98859,98860,98861,98862,98863,98864,98865,98866,98867,98868,98869,98870,98871,98872,98873,98874,98875,98864,98865,98866,98867,98868,98869,98870,98871,98872,98873,98874,98875,98857,98857,98858,98859,98860,98861,98862,98863,98864,98865,98866,98867,98868,98869,98870,98871,98872,98873,98874,98875,98876,98877,98878,98879,98880,98881,98882,98883,98884,98885,98886,98887,98888,98889,98890,98891,98892,98893,98894,98895,98896,98897,98857,98858,98859,98860,98861,98862,98863,98864,98865,98866,98867,98868,98869,98870,98871,98872,98873,98874,98875,98876,98877,98878,98879,98880,98881,98882,98883,98884,98885,98886,98887,98888,98889,98890,98891,98892,98893,98894,98895,98896,98897,98898,98899,98900,98901,98902,98903,98904,98905,98906,98907,98908,98909,98910,98911,98912,98913,98914,98915,98916,98917,98918,98919,98920,98921,98922,98923,98924,98925,98926,98927,98928,98929,98930,98931,98932,98933,98975,98976,98977,98978,98979,98980,98981,98982,98983,98984,98985,98986,98987,98988,98989,98990,98857,98858,98859,98860,98861,98862,98863,98864,98865,98866,98867,98868,98869,98870,98871,98872,98873,98874,98875,98876,98877,98878,98879,98880,98881,98882,98883,98884,98885,98886,98887,98888,98889,98890,98891,98892,98893,98894,98895,98896,98897,98898,98899,98900,98901,98902,98903,98904,98905,98906,98907,98908,98909,98910,98911,98857,98858,98859,98860,98861,98862,98863,98864,98865,98866,98867,98868,98869,98870,98871,98872,98873,98874,98875,98876,98877,98878,98879,98880,98881,98882,98883,98884,98885,98886,98887,98888,98889,98890,98891,98892,98893,98894,98895,98857,98858,98859,98860,98861,98862,98863,98864,98865,98866,98867,98868,98869,98870,98871,98872,98873,98874,98875,98876,98877,98878,98879,98880,98881,98865,98866,98867,98868,98869,98870,98871,98872,98873,98874,95453,95453,95454,95455,95456,95457,95453,95453,95454,95455,95456,95457,
99005,99005,99006,99007,99008,99009,99010,99011,99012,99013,99014,99015,99016,99017,99018,99019,99020,99021,99022,99023,99012,99013,99014,99015,99016,99017,99018,99019,99020,99021,99022,99023,99005,99005,99006,99007,99008,99009,99010,99011,99012,99013,99014,99015,99016,99017,99018,99019,99020,99021,99022,99023,99024,99025,99026,99027,99028,99029,99030,99031,99032,99033,99034,99035,99036,99037,99038,99039,99040,99041,99042,99043,99044,99045,99005,99006,99007,99008,99009,99010,99011,99012,99013,99014,99015,99016,99017,99018,99019,99020,99021,99022,99023,99024,99025,99026,99027,99028,99029,99030,99031,99032,99033,99034,99035,99036,99037,99038,99039,99040,99041,99042,99043,99044,99045,99046,99047,99048,99049,99050,99051,99052,99053,99054,99055,99056,99057,99058,99059,99060,99061,99062,99063,99064,99065,99066,99067,99068,99069,99070,99071,99072,99073,99074,99075,99076,99077,99078,99079,99080,99081,99123,99124,99125,99126,99127,99128,99129,99130,99131,99132,99133,99134,99135,99136,99137,99138,99005,99006,99007,99008,99009,99010,99011,99012,99013,99014,99015,99016,99017,99018,99019,99020,99021,99022,99023,99024,99025,99026,99027,99028,99029,99030,99031,99032,99033,99034,99035,99036,99037,99038,99039,99040,99041,99042,99043,99044,99045,99046,99047,99048,99049,99050,99051,99052,99053,99054,99055,99056,99057,99058,99059,99005,99006,99007,99008,99009,99010,99011,99012,99013,99014,99015,99016,99017,99018,99019,99020,99021,99022,99023,99024,99025,99026,99027,99028,99029,99030,99031,99032,99033,99034,99035,99036,99037,99038,99039,99040,99041,99042,99043,99005,99006,99007,99008,99009,99010,99011,99012,99013,99014,99015,99016,99017,99018,99019,99020,99021,99022,99023,99024,99025,99026,99027,99028,99029,99013,99014,99015,99016,99017,99018,99019,99020,99021,99022,95601,95601,95602,95603,95604,95605,95601,95601,95602,95603,95604,95605,
99153,99153,99154,99155,99156,99157,99158,99159,99160,99161,99162,99163,99164,99165,99166,99167,99168,99169,99170,99171,99160,99161,99162,99163,99164,99165,99166,99167,99168,99169,99170,99171,99153,99153,99154,99155,99156,99157,99158,99159,99160,99161,99162,99163,99164,99165,99166,99167,99168,99169,99170,99171,99172,99173,99174,99175,99176,99177,99178,99179,99180,99181,99182,99183,99184,99185,99186,99187,99188,99189,99190,99191,99192,99193,99153,99154,99155,99156,99157,99158,99159,99160,99161,99162,99163,99164,99165,99166,99167,99168,99169,99170,99171,99172,99173,99174,99175,99176,99177,99178,99179,99180,99181,99182,99183,99184,99185,99186,99187,99188,99189,99190,99191,99192,99193,99194,99195,99196,99197,99198,99199,99200,99201,99202,99203,99204,99205,99206,99207,99208,99209,99210,99211,99212,99213,99214,99215,99216,99217,99218,99219,99220,99221,99222,99223,99224,99225,99226,99227,99228,99229,99271,99272,99273,99274,99275,99276,99277,99278,99279,99280,99281,99282,99283,99284,99285,99286,99153,99154,99155,99156,99157,99158,99159,99160,99161,99162,99163,99164,99165,99166,99167,99168,99169,99170,99171,99172,99173,99174,99175,99176,99177,99178,99179,99180,99181,99182,99183,99184,99185,99186,99187,99188,99189,99190,99191,99192,99193,99194,99195,99196,99197,99198,99199,99200,99201,99202,99203,99204,99205,99206,99207,99153,99154,99155,99156,99157,99158,99159,99160,99161,99162,99163,99164,99165,99166,99167,99168,99169,99170,99171,99172,99173,99174,99175,99176,99177,99178,99179,99180,99181,99182,99183,99184,99185,99186,99187,99188,99189,99190,99191,99153,99154,99155,99156,99157,99158,99159,99160,99161,99162,99163,99164,99165,99166,99167,99168,99169,99170,99171,99172,99173,99174,99175,99176,99177,99161,99162,99163,99164,99165,99166,99167,99168,99169,99170,95749,95749,95750,95751,95752,95753,95749,95749,95750,95751,95752,95753,
99301,99301,99302,99303,99304,99305,99306,99307,99308,99309,99310,99311,99312,99313,99314,99315,99316,99317,99318,99319,99308,99309,99310,99311,99312,99313,99314,99315,99316,99317,99318,99319,99301,99301,99302,99303,99304,99305,99306,99307,99308,99309,99310,99311,99312,99313,99314,99315,99316,99317,99318,99319,99320,99321,99322,99323,99324,99325,99326,99327,99328,99329,99330,99331,99332,99333,99334,99335,99336,99337,99338,99339,99340,99341,99301,99302,99303,99304,99305,99306,99307,99308,99309,99310,99311,99312,99313,99314,99315,99316,99317,99318,99319,99320,99321,99322,99323,99324,99325,99326,99327,99328,99329,99330,99331,99332,99333,99334,99335,99336,99337,99338,99339,99340,99341,99342,99343,99344,99345,99346,99347,99348,99349,99350,99351,99352,99353,99354,99355,99356,99357,99358,99359,99360,99361,99362,99363,99364,99365,99366,99367,99368,99369,99370,99371,99372,99373,99374,99375,99376,99377,99419,99420,99421,99422,99423,99424,99425,99426,99427,99428,99429,99430,99431,99432,99433,99434,99301,99302,99303,99304,99305,99306,99307,99308,99309,99310,99311,99312,99313,99314,99315,99316,99317,99318,99319,99320,99321,99322,99323,99324,99325,99326,99327,99328,99329,99330,99331,99332,99333,99334,99335,99336,99337,99338,99339,99340,99341,99342,99343,99344,99345,99346,99347,99348,99349,99350,99351,99352,99353,99354,99355,99301,99302,99303,99304,99305,99306,99307,99308,99309,99310,99311,99312,99313,99314,99315,99316,99317,99318,99319,99320,99321,99322,99323,99324,99325,99326,99327,99328,99329,99330,99331,99332,99333,99334,99335,99336,99337,99338,99339,99301,99302,99303,99304,99305,99306,99307,99308,99309,99310,99311,99312,99313,99314,99315,99316,99317,99318,99319,99320,99321,99322,99323,99324,99325,99309,99310,99311,99312,99313,99314,99315,99316,99317,99318,95897,95897,95898,95899,95900,95901,95897,95897,95898,95899,95900,95901,
99449,99449,99450,99451,99452,99453,99454,99455,99456,99457,99458,99459,99460,99461,99462,99463,99464,99465,99466,99467,99456,99457,99458,99459,99460,99461,99462,99463,99464,99465,99466,99467,99449,99449,99450,99451,99452,99453,99454,99455,99456,99457,99458,99459,99460,99461,99462,99463,99464,99465,99466,99467,99468,99469,99470,99471,99472,99473,99474,99475,99476,99477,99478,99479,99480,99481,99482,99483,99484,99485,99486,99487,99488,99489,99449,99450,99451,99452,99453,99454,99455,99456,99457,99458,99459,99460,99461,99462,99463,99464,99465,99466,99467,99468,99469,99470,99471,99472,99473,99474,99475,99476,99477,99478,99479,99480,99481,99482,99483,99484,99485,99486,99487,99488,99489,99490,99491,99492,99493,99494,99495,99496,99497,99498,99499,99500,99501,99502,99503,99504,99505,99506,99507,99508,99509,99510,99511,99512,99513,99514,99515,99516,99517,99518,99519,99520,99521,99522,99523,99524,99525,99567,99568,99569,99570,99571,99572,99573,99574,99575,99576,99577,99578,99579,99580,99581,99582,99449,99450,99451,99452,99453,99454,99455,99456,99457,99458,99459,99460,99461,99462,99463,99464,99465,99466,99467,99468,99469,99470,99471,99472,99473,99474,99475,99476,99477,99478,99479,99480,99481,99482,99483,99484,99485,99486,99487,99488,99489,99490,99491,99492,99493,99494,99495,99496,99497,99498,99499,99500,99501,99502,99503,99449,99450,99451,99452,99453,99454,99455,99456,99457,99458,99459,99460,99461,99462,99463,99464,99465,99466,99467,99468,99469,99470,99471,99472,99473,99474,99475,99476,99477,99478,99479,99480,99481,99482,99483,99484,99485,99486,99487,99449,99450,99451,99452,99453,99454,99455,99456,99457,99458,99459,99460,99461,99462,99463,99464,99465,99466,99467,99468,99469,99470,99471,99472,99473,99457,99458,99459,99460,99461,99462,99463,99464,99465,99466,96045,96045,96046,96047,96048,96049,96045,96045,96046,96047,96048,96049,
99597,99597,99598,99599,99600,99601,99602,99603,99604,99605,99606,99607,99608,99609,99610,99611,99612,99613,99614,99615,99604,99605,99606,99607,99608,99609,99610,99611,99612,99613,99614,99615,99597,99597,99598,99599,99600,99601,99602,99603,99604,99605,99606,99607,99608,99609,99610,99611,99612,99613,99614,99615,99616,99617,99618,99619,99620,99621,99622,99623,99624,99625,99626,99627,99628,99629,99630,99631,99632,99633,99634,99635,99636,99637,99597,99598,99599,99600,99601,99602,99603,99604,99605,99606,99607,99608,99609,99610,99611,99612,99613,99614,99615,99616,99617,99618,99619,99620,99621,99622,99623,99624,99625,99626,99627,99628,99629,99630,99631,99632,99633,99634,99635,99636,99637,99638,99639,99640,99641,99642,99643,99644,99645,99646,99647,99648,99649,99650,99651,99652,99653,99654,99655,99656,99657,99658,99659,99660,99661,99662,99663,99664,99665,99666,99667,99668,99669,99670,99671,99672,99673,99715,99716,99717,99718,99719,99720,99721,99722,99723,99724,99725,99726,99727,99728,99729,99730,99597,99598,99599,99600,99601,99602,99603,99604,99605,99606,99607,99608,99609,99610,99611,99612,99613,99614,99615,99616,99617,99618,99619,99620,99621,99622,99623,99624,99625,99626,99627,99628,99629,99630,99631,99632,99633,99634,99635,99636,99637,99638,99639,99640,99641,99642,99643,99644,99645,99646,99647,99648,99649,99650,99651,99597,99598,99599,99600,99601,99602,99603,99604,99605,99606,99607,99608,99609,99610,99611,99612,99613,99614,99615,99616,99617,99618,99619,99620,99621,99622,99623,99624,99625,99626,99627,99628,99629,99630,99631,99632,99633,99634,99635,99597,99598,99599,99600,99601,99602,99603,99604,99605,99606,99607,99608,99609,99610,99611,99612,99613,99614,99615,99616,99617,99618,99619,99620,99621,99605,99606,99607,99608,99609,99610,99611,99612,99613,99614,95009,95009,95010,95011,95012,95013,95009,95009,95010,95011,95012,95013,
99745,99745,99746,99747,99748,99749,99750,99751,99752,99753,99754,99755,99756,99757,99758,99759,99760,99761,99762,99763,99752,99753,99754,99755,99756,99757,99758,99759,99760,99761,99762,99763,99745,99745,99746,99747,99748,99749,99750,99751,99752,99753,99754,99755,99756,99757,99758,99759,99760,99761,99762,99763,99764,99765,99766,99767,99768,99769,99770,99771,99772,99773,99774,99775,99776,99777,99778,99779,99780,99781,99782,99783,99784,99785,99745,99746,99747,99748,99749,99750,99751,99752,99753,99754,99755,99756,99757,99758,99759,99760,99761,99762,99763,99764,99765,99766,99767,99768,99769,99770,99771,99772,99773,99774,99775,99776,99777,99778,99779,99780,99781,99782,99783,99784,99785,99786,99787,99788,99789,99790,99791,99792,99793,99794,99795,99796,99797,99798,99799,99800,99801,99802,99803,99804,99805,99806,99807,99808,99809,99810,99811,99812,99813,99814,99815,99816,99817,99818,99819,99820,99821,99863,99864,99865,99866,99867,99868,99869,99870,99871,99872,99873,99874,99875,99876,99877,99878,99745,99746,99747,99748,99749,99750,99751,99752,99753,99754,99755,99756,99757,99758,99759,99760,99761,99762,99763,99764,99765,99766,99767,99768,99769,99770,99771,99772,99773,99774,99775,99776,99777,99778,99779,99780,99781,99782,99783,99784,99785,99786,99787,99788,99789,99790,99791,99792,99793,99794,99795,99796,99797,99798,99799,99745,99746,99747,99748,99749,99750,99751,99752,99753,99754,99755,99756,99757,99758,99759,99760,99761,99762,99763,99764,99765,99766,99767,99768,99769,99770,99771,99772,99773,99774,99775,99776,99777,99778,99779,99780,99781,99782,99783,99745,99746,99747,99748,99749,99750,99751,99752,99753,99754,99755,99756,99757,99758,99759,99760,99761,99762,99763,99764,99765,99766,99767,99768,99769,99753,99754,99755,99756,99757,99758,99759,99760,99761,99762,95157,95157,95158,95159,95160,95161,95157,95157,95158,95159,95160,95161,
99893,99893,99894,99895,99896,99897,99898,99899,99900,99901,99902,99903,99904,99905,99906,99907,99908,99909,99910,99911,99900,99901,99902,99903,99904,99905,99906,99907,99908,99909,99910,99911,99893,99893,99894,99895,99896,99897,99898,99899,99900,99901,99902,99903,99904,99905,99906,99907,99908,99909,99910,99911,99912,99913,99914,99915,99916,99917,99918,99919,99920,99921,99922,99923,99924,99925,99926,99927,99928,99929,99930,99931,99932,99933,99893,99894,99895,99896,99897,99898,99899,99900,99901,99902,99903,99904,99905,99906,99907,99908,99909,99910,99911,99912,99913,99914,99915,99916,99917,99918,99919,99920,99921,99922,99923,99924,99925,99926,99927,99928,99929,99930,99931,99932,99933,99934,99935,99936,99937,99938,99939,99940,99941,99942,99943,99944,99945,99946,99947,99948,99949,99950,99951,99952,99953,99954,99955,99956,99957,99958,99959,99960,99961,99962,99963,99964,99965,99966,99967,99968,99969,100011,100012,100013,100014,100015,100016,100017,100018,100019,100020,100021,100022,100023,100024,100025,100026,99893,99894,99895,99896,99897,99898,99899,99900,99901,99902,99903,99904,99905,99906,99907,99908,99909,99910,99911,99912,99913,99914,99915,99916,99917,99918,99919,99920,99921,99922,99923,99924,99925,99926,99927,99928,99929,99930,99931,99932,99933,99934,99935,99936,99937,99938,99939,99940,99941,99942,99943,99944,99945,99946,99947,99893,99894,99895,99896,99897,99898,99899,99900,99901,99902,99903,99904,99905,99906,99907,99908,99909,99910,99911,99912,99913,99914,99915,99916,99917,99918,99919,99920,99921,99922,99923,99924,99925,99926,99927,99928,99929,99930,99931,99893,99894,99895,99896,99897,99898,99899,99900,99901,99902,99903,99904,99905,99906,99907,99908,99909,99910,99911,99912,99913,99914,99915,99916,99917,99901,99902,99903,99904,99905,99906,99907,99908,99909,99910,95305,95305,95306,95307,95308,95309,95305,95305,95306,95307,95308,95309,
100041,100041,100042,100043,100044,100045,100046,100047,100048,100049,100050,100051,100052,100053,100054,100055,100056,100057,100058,100059,100048,100049,100050,100051,100052,100053,100054,100055,100056,100057,100058,100059,100041,100041,100042,100043,100044,100045,100046,100047,100048,100049,100050,100051,100052,100053,100054,100055,100056,100057,100058,100059,100060,100061,100062,100063,100064,100065,100066,100067,100068,100069,100070,100071,100072,100073,100074,100075,100076,100077,100078,100079,100080,100081,100041,100042,100043,100044,100045,100046,100047,100048,100049,100050,100051,100052,100053,100054,100055,100056,100057,100058,100059,100060,100061,100062,100063,100064,100065,100066,100067,100068,100069,100070,100071,100072,100073,100074,100075,100076,100077,100078,100079,100080,100081,100082,100083,100084,100085,100086,100087,100088,100089,100090,100091,100092,100093,100094,100095,100096,100097,100098,100099,100100,100101,100102,100103,100104,100105,100106,100107,100108,100109,100110,100111,100112,100113,100114,100115,100116,100117,100159,100160,100161,100162,100163,100164,100165,100166,100167,100168,100169,100170,100171,100172,100173,100174,100041,100042,100043,100044,100045,100046,100047,100048,100049,100050,100051,100052,100053,100054,100055,100056,100057,100058,100059,100060,100061,100062,100063,100064,100065,100066,100067,100068,100069,100070,100071,100072,100073,100074,100075,100076,100077,100078,100079,100080,100081,100082,100083,100084,100085,100086,100087,100088,100089,100090,100091,100092,100093,100094,100095,100041,100042,100043,100044,100045,100046,100047,100048,100049,100050,100051,100052,100053,100054,100055,100056,100057,100058,100059,100060,100061,100062,100063,100064,100065,100066,100067,100068,100069,100070,100071,100072,100073,100074,100075,100076,100077,100078,100079,100041,100042,100043,100044,100045,100046,100047,100048,100049,100050,100051,100052,100053,100054,100055,100056,100057,100058,100059,100060,100061,100062,100063,100064,100065,100049,100050,100051,100052,100053,100054,100055,100056,100057,100058,95453,95453,95454,95455,95456,95457,95453,95453,95454,95455,95456,95457,
100189,100189,100190,100191,100192,100193,100194,100195,100196,100197,100198,100199,100200,100201,100202,100203,100204,100205,100206,100207,100196,100197,100198,100199,100200,100201,100202,100203,100204,100205,100206,100207,100189,100189,100190,100191,100192,100193,100194,100195,100196,100197,100198,100199,100200,100201,100202,100203,100204,100205,100206,100207,100208,100209,100210,100211,100212,100213,100214,100215,100216,100217,100218,100219,100220,100221,100222,100223,100224,100225,100226,100227,100228,100229,100189,100190,100191,100192,100193,100194,100195,100196,100197,100198,100199,100200,100201,100202,100203,100204,100205,100206,100207,100208,100209,100210,100211,100212,100213,100214,100215,100216,100217,100218,100219,100220,100221,100222,100223,100224,100225,100226,100227,100228,100229,100230,100231,100232,100233,100234,100235,100236,100237,100238,100239,100240,100241,100242,100243,100244,100245,100246,100247,100248,100249,100250,100251,100252,100253,100254,100255,100256,100257,100258,100259,100260,100261,100262,100263,100264,100265,100307,100308,100309,100310,100311,100312,100313,100314,100315,100316,100317,100318,100319,100320,100321,100322,100189,100190,100191,100192,100193,100194,100195,100196,100197,100198,100199,100200,100201,100202,100203,100204,100205,100206,100207,100208,100209,100210,100211,100212,100213,100214,100215,100216,100217,100218,100219,100220,100221,100222,100223,100224,100225,100226,100227,100228,100229,100230,100231,100232,100233,100234,100235,100236,100237,100238,100239,100240,100241,100242,100243,100189,100190,100191,100192,100193,100194,100195,100196,100197,100198,100199,100200,100201,100202,100203,100204,100205,100206,100207,100208,100209,100210,100211,100212,100213,100214,100215,100216,100217,100218,100219,100220,100221,100222,100223,100224,100225,100226,100227,100189,100190,100191,100192,100193,100194,100195,100196,100197,100198,100199,100200,100201,100202,100203,100204,100205,100206,100207,100208,100209,100210,100211,100212,100213,100197,100198,100199,100200,100201,100202,100203,100204,100205,100206,95601,95601,95602,95603,95604,95605,95601,95601,95602,95603,95604,95605,
100337,100337,100338,100339,100340,100341,100342,100343,100344,100345,100346,100347,100348,100349,100350,100351,100352,100353,100354,100355,100344,100345,100346,100347,100348,100349,100350,100351,100352,100353,100354,100355,100337,100337,100338,100339,100340,100341,100342,100343,100344,100345,100346,100347,100348,100349,100350,100351,100352,100353,100354,100355,100356,100357,100358,100359,100360,100361,100362,100363,100364,100365,100366,100367,100368,100369,100370,100371,100372,100373,100374,100375,100376,100377,100337,100338,100339,100340,100341,100342,100343,100344,100345,100346,100347,100348,100349,100350,100351,100352,100353,100354,100355,100356,100357,100358,100359,100360,100361,100362,100363,100364,100365,100366,100367,100368,100369,100370,100371,100372,100373,100374,100375,100376,100377,100378,100379,100380,100381,100382,100383,100384,100385,100386,100387,100388,100389,100390,100391,100392,100393,100394,100395,100396,100397,100398,100399,100400,100401,100402,100403,100404,100405,100406,100407,100408,100409,100410,100411,100412,100413,100455,100456,100457,100458,100459,100460,100461,100462,100463,100464,100465,100466,100467,100468,100469,100470,100337,100338,100339,100340,100341,100342,100343,100344,100345,100346,100347,100348,100349,100350,100351,100352,100353,100354,100355,100356,100357,100358,100359,100360,100361,100362,100363,100364,100365,100366,100367,100368,100369,100370,100371,100372,100373,100374,100375,100376,100377,100378,100379,100380,100381,100382,100383,100384,100385,100386,100387,100388,100389,100390,100391,100337,100338,100339,100340,100341,100342,100343,100344,100345,100346,100347,100348,100349,100350,100351,100352,100353,100354,100355,100356,100357,100358,100359,100360,100361,100362,100363,100364,100365,100366,100367,100368,100369,100370,100371,100372,100373,100374,100375,100337,100338,100339,100340,100341,100342,100343,100344,100345,100346,100347,100348,100349,100350,100351,100352,100353,100354,100355,100356,100357,100358,100359,100360,100361,100345,100346,100347,100348,100349,100350,100351,100352,100353,100354,95749,95749,95750,95751,95752,95753,95749,95749,95750,95751,95752,95753,
100485,100485,100486,100487,100488,100489,100490,100491,100492,100493,100494,100495,100496,100497,100498,100499,100500,100501,100502,100503,100492,100493,100494,100495,100496,100497,100498,100499,100500,100501,100502,100503,100485,100485,100486,100487,100488,100489,100490,100491,100492,100493,100494,100495,100496,100497,100498,100499,100500,100501,100502,100503,100504,100505,100506,100507,100508,100509,100510,100511,100512,100513,100514,100515,100516,100517,100518,100519,100520,100521,100522,100523,100524,100525,100485,100486,100487,100488,100489,100490,100491,100492,100493,100494,100495,100496,100497,100498,100499,100500,100501,100502,100503,100504,100505,100506,100507,100508,100509,100510,100511,100512,100513,100514,100515,100516,100517,100518,100519,100520,100521,100522,100523,100524,100525,100526,100527,100528,100529,100530,100531,100532,100533,100534,100535,100536,100537,100538,100539,100540,100541,100542,100543,100544,100545,100546,100547,100548,100549,100550,100551,100552,100553,100554,100555,100556,100557,100558,100559,100560,100561,100603,100604,100605,100606,100607,100608,100609,100610,100611,100612,100613,100614,100615,100616,100617,100618,100485,100486,100487,100488,100489,100490,100491,100492,100493,100494,100495,100496,100497,100498,100499,100500,100501,100502,100503,100504,100505,100506,100507,100508,100509,100510,100511,100512,100513,100514,100515,100516,100517,100518,100519,100520,100521,100522,100523,100524,100525,100526,100527,100528,100529,100530,100531,100532,100533,100534,100535,100536,100537,100538,100539,100485,100486,100487,100488,100489,100490,100491,100492,100493,100494,100495,100496,100497,100498,100499,100500,100501,100502,100503,100504,100505,100506,100507,100508,100509,100510,100511,100512,100513,100514,100515,100516,100517,100518,100519,100520,100521,100522,100523,100485,100486,100487,100488,100489,100490,100491,100492,100493,100494,100495,100496,100497,100498,100499,100500,100501,100502,100503,100504,100505,100506,100507,100508,100509,100493,100494,100495,100496,100497,100498,100499,100500,100501,100502,95897,95897,95898,95899,95900,95901,95897,95897,95898,95899,95900,95901,
100633,100633,100634,100635,100636,100637,100638,100639,100640,100641,100642,100643,100644,100645,100646,100647,100648,100649,100650,100651,100640,100641,100642,100643,100644,100645,100646,100647,100648,100649,100650,100651,100633,100633,100634,100635,100636,100637,100638,100639,100640,100641,100642,100643,100644,100645,100646,100647,100648,100649,100650,100651,100652,100653,100654,100655,100656,100657,100658,100659,100660,100661,100662,100663,100664,100665,100666,100667,100668,100669,100670,100671,100672,100673,100633,100634,100635,100636,100637,100638,100639,100640,100641,100642,100643,100644,100645,100646,100647,100648,100649,100650,100651,100652,100653,100654,100655,100656,100657,100658,100659,100660,100661,100662,100663,100664,100665,100666,100667,100668,100669,100670,100671,100672,100673,100674,100675,100676,100677,100678,100679,100680,100681,100682,100683,100684,100685,100686,100687,100688,100689,100690,100691,100692,100693,100694,100695,100696,100697,100698,100699,100700,100701,100702,100703,100704,100705,100706,100707,100708,100709,100751,100752,100753,100754,100755,100756,100757,100758,100759,100760,100761,100762,100763,100764,100765,100766,100633,100634,100635,100636,100637,100638,100639,100640,100641,100642,100643,100644,100645,100646,100647,100648,100649,100650,100651,100652,100653,100654,100655,100656,100657,100658,100659,100660,100661,100662,100663,100664,100665,100666,100667,100668,100669,100670,100671,100672,100673,100674,100675,100676,100677,100678,100679,100680,100681,100682,100683,100684,100685,100686,100687,100633,100634,100635,100636,100637,100638,100639,100640,100641,100642,100643,100644,100645,100646,100647,100648,100649,100650,100651,100652,100653,100654,100655,100656,100657,100658,100659,100660,100661,100662,100663,100664,100665,100666,100667,100668,100669,100670,100671,100633,100634,100635,100636,100637,100638,100639,100640,100641,100642,100643,100644,100645,100646,100647,100648,100649,100650,100651,100652,100653,100654,100655,100656,100657,100641,100642,100643,100644,100645,100646,100647,100648,100649,100650,96045,96045,96046,96047,96048,96049,96045,96045,96046,96047,96048,96049,
100781,100781,100782,100783,100784,100785,100786,100787,100788,100789,100790,100791,100792,100793,100794,100795,100796,100797,100798,100799,100788,100789,100790,100791,100792,100793,100794,100795,100796,100797,100798,100799,100781,100781,100782,100783,100784,100785,100786,100787,100788,100789,100790,100791,100792,100793,100794,100795,100796,100797,100798,100799,100800,100801,100802,100803,100804,100805,100806,100807,100808,100809,100810,100811,100812,100813,100814,100815,100816,100817,100818,100819,100820,100821,100781,100782,100783,100784,100785,100786,100787,100788,100789,100790,100791,100792,100793,100794,100795,100796,100797,100798,100799,100800,100801,100802,100803,100804,100805,100806,100807,100808,100809,100810,100811,100812,100813,100814,100815,100816,100817,100818,100819,100820,100821,100822,100823,100824,100825,100826,100827,100828,100829,100830,100831,100832,100833,100834,100835,100836,100837,100838,100839,100840,100841,100842,100843,100844,100845,100846,100847,100848,100849,100850,100851,100852,100853,100854,100855,100856,100857,100899,100900,100901,100902,100903,100904,100905,100906,100907,100908,100909,100910,100911,100912,100913,100914,100781,100782,100783,100784,100785,100786,100787,100788,100789,100790,100791,100792,100793,100794,100795,100796,100797,100798,100799,100800,100801,100802,100803,100804,100805,100806,100807,100808,100809,100810,100811,100812,100813,100814,100815,100816,100817,100818,100819,100820,100821,100822,100823,100824,100825,100826,100827,100828,100829,100830,100831,100832,100833,100834,100835,100781,100782,100783,100784,100785,100786,100787,100788,100789,100790,100791,100792,100793,100794,100795,100796,100797,100798,100799,100800,100801,100802,100803,100804,100805,100806,100807,100808,100809,100810,100811,100812,100813,100814,100815,100816,100817,100818,100819,100781,100782,100783,100784,100785,100786,100787,100788,100789,100790,100791,100792,100793,100794,100795,100796,100797,100798,100799,100800,100801,100802,100803,100804,100805,100789,100790,100791,100792,100793,100794,100795,100796,100797,100798,95009,95009,95010,95011,95012,95013,95009,95009,95010,95011,95012,95013,
100929,100929,100930,100931,100932,100933,100934,100935,100936,100937,100938,100939,100940,100941,100942,100943,100944,100945,100946,100947,100936,100937,100938,100939,100940,100941,100942,100943,100944,100945,100946,100947,100929,100929,100930,100931,100932,100933,100934,100935,100936,100937,100938,100939,100940,100941,100942,100943,100944,100945,100946,100947,100948,100949,100950,100951,100952,100953,100954,100955,100956,100957,100958,100959,100960,100961,100962,100963,100964,100965,100966,100967,100968,100969,100929,100930,100931,100932,100933,100934,100935,100936,100937,100938,100939,100940,100941,100942,100943,100944,100945,100946,100947,100948,100949,100950,100951,100952,100953,100954,100955,100956,100957,100958,100959,100960,100961,100962,100963,100964,100965,100966,100967,100968,100969,100970,100971,100972,100973,100974,100975,100976,100977,100978,100979,100980,100981,100982,100983,100984,100985,100986,100987,100988,100989,100990,100991,100992,100993,100994,100995,100996,100997,100998,100999,101000,101001,101002,101003,101004,101005,101047,101048,101049,101050,101051,101052,101053,101054,101055,101056,101057,101058,101059,101060,101061,101062,100929,100930,100931,100932,100933,100934,100935,100936,100937,100938,100939,100940,100941,100942,100943,100944,100945,100946,100947,100948,100949,100950,100951,100952,100953,100954,100955,100956,100957,100958,100959,100960,100961,100962,100963,100964,100965,100966,100967,100968,100969,100970,100971,100972,100973,100974,100975,100976,100977,100978,100979,100980,100981,100982,100983,100929,100930,100931,100932,100933,100934,100935,100936,100937,100938,100939,100940,100941,100942,100943,100944,100945,100946,100947,100948,100949,100950,100951,100952,100953,100954,100955,100956,100957,100958,100959,100960,100961,100962,100963,100964,100965,100966,100967,100929,100930,100931,100932,100933,100934,100935,100936,100937,100938,100939,100940,100941,100942,100943,100944,100945,100946,100947,100948,100949,100950,100951,100952,100953,100937,100938,100939,100940,100941,100942,100943,100944,100945,100946,95157,95157,95158,95159,95160,95161,95157,95157,95158,95159,95160,95161,
101077,101077,101078,101079,101080,101081,101082,101083,101084,101085,101086,101087,101088,101089,101090,101091,101092,101093,101094,101095,101084,101085,101086,101087,101088,101089,101090,101091,101092,101093,101094,101095,101077,101077,101078,101079,101080,101081,101082,101083,101084,101085,101086,101087,101088,101089,101090,101091,101092,101093,101094,101095,101096,101097,101098,101099,101100,101101,101102,101103,101104,101105,101106,101107,101108,101109,101110,101111,101112,101113,101114,101115,101116,101117,101077,101078,101079,101080,101081,101082,101083,101084,101085,101086,101087,101088,101089,101090,101091,101092,101093,101094,101095,101096,101097,101098,101099,101100,101101,101102,101103,101104,101105,101106,101107,101108,101109,101110,101111,101112,101113,101114,101115,101116,101117,101118,101119,101120,101121,101122,101123,101124,101125,101126,101127,101128,101129,101130,101131,101132,101133,101134,101135,101136,101137,101138,101139,101140,101141,101142,101143,101144,101145,101146,101147,101148,101149,101150,101151,101152,101153,101195,101196,101197,101198,101199,101200,101201,101202,101203,101204,101205,101206,101207,101208,101209,101210,101077,101078,101079,101080,101081,101082,101083,101084,101085,101086,101087,101088,101089,101090,101091,101092,101093,101094,101095,101096,101097,101098,101099,101100,101101,101102,101103,101104,101105,101106,101107,101108,101109,101110,101111,101112,101113,101114,101115,101116,101117,101118,101119,101120,101121,101122,101123,101124,101125,101126,101127,101128,101129,101130,101131,101077,101078,101079,101080,101081,101082,101083,101084,101085,101086,101087,101088,101089,101090,101091,101092,101093,101094,101095,101096,101097,101098,101099,101100,101101,101102,101103,101104,101105,101106,101107,101108,101109,101110,101111,101112,101113,101114,101115,101077,101078,101079,101080,101081,101082,101083,101084,101085,101086,101087,101088,101089,101090,101091,101092,101093,101094,101095,101096,101097,101098,101099,101100,101101,101085,101086,101087,101088,101089,101090,101091,101092,101093,101094,95305,95305,95306,95307,95308,95309,95305,95305,95306,95307,95308,95309,
101225,101225,101226,101227,101228,101229,101230,101231,101232,101233,101234,101235,101236,101237,101238,101239,101240,101241,101242,101243,101232,101233,101234,101235,101236,101237,101238,101239,101240,101241,101242,101243,101225,101225,101226,101227,101228,101229,101230,101231,101232,101233,101234,101235,101236,101237,101238,101239,101240,101241,101242,101243,101244,101245,101246,101247,101248,101249,101250,101251,101252,101253,101254,101255,101256,101257,101258,101259,101260,101261,101262,101263,101264,101265,101225,101226,101227,101228,101229,101230,101231,101232,101233,101234,101235,101236,101237,101238,101239,101240,101241,101242,101243,101244,101245,101246,101247,101248,101249,101250,101251,101252,101253,101254,101255,101256,101257,101258,101259,101260,101261,101262,101263,101264,101265,101266,101267,101268,101269,101270,101271,101272,101273,101274,101275,101276,101277,101278,101279,101280,101281,101282,101283,101284,101285,101286,101287,101288,101289,101290,101291,101292,101293,101294,101295,101296,101297,101298,101299,101300,101301,101343,101344,101345,101346,101347,101348,101349,101350,101351,101352,101353,101354,101355,101356,101357,101358,101225,101226,101227,101228,101229,101230,101231,101232,101233,101234,101235,101236,101237,101238,101239,101240,101241,101242,101243,101244,101245,101246,101247,101248,101249,101250,101251,101252,101253,101254,101255,101256,101257,101258,101259,101260,101261,101262,101263,101264,101265,101266,101267,101268,101269,101270,101271,101272,101273,101274,101275,101276,101277,101278,101279,101225,101226,101227,101228,101229,101230,101231,101232,101233,101234,101235,101236,101237,101238,101239,101240,101241,101242,101243,101244,101245,101246,101247,101248,101249,101250,101251,101252,101253,101254,101255,101256,101257,101258,101259,101260,101261,101262,101263,101225,101226,101227,101228,101229,101230,101231,101232,101233,101234,101235,101236,101237,101238,101239,101240,101241,101242,101243,101244,101245,101246,101247,101248,101249,101233,101234,101235,101236,101237,101238,101239,101240,101241,101242,95453,95453,95454,95455,95456,95457,95453,95453,95454,95455,95456,95457,
101373,101373,101374,101375,101376,101377,101378,101379,101380,101381,101382,101383,101384,101385,101386,101387,101388,101389,101390,101391,101380,101381,101382,101383,101384,101385,101386,101387,101388,101389,101390,101391,101373,101373,101374,101375,101376,101377,101378,101379,101380,101381,101382,101383,101384,101385,101386,101387,101388,101389,101390,101391,101392,101393,101394,101395,101396,101397,101398,101399,101400,101401,101402,101403,101404,101405,101406,101407,101408,101409,101410,101411,101412,101413,101373,101374,101375,101376,101377,101378,101379,101380,101381,101382,101383,101384,101385,101386,101387,101388,101389,101390,101391,101392,101393,101394,101395,101396,101397,101398,101399,101400,101401,101402,101403,101404,101405,101406,101407,101408,101409,101410,101411,101412,101413,101414,101415,101416,101417,101418,101419,101420,101421,101422,101423,101424,101425,101426,101427,101428,101429,101430,101431,101432,101433,101434,101435,101436,101437,101438,101439,101440,101441,101442,101443,101444,101445,101446,101447,101448,101449,101491,101492,101493,101494,101495,101496,101497,101498,101499,101500,101501,101502,101503,101504,101505,101506,101373,101374,101375,101376,101377,101378,101379,101380,101381,101382,101383,101384,101385,101386,101387,101388,101389,101390,101391,101392,101393,101394,101395,101396,101397,101398,101399,101400,101401,101402,101403,101404,101405,101406,101407,101408,101409,101410,101411,101412,101413,101414,101415,101416,101417,101418,101419,101420,101421,101422,101423,101424,101425,101426,101427,101373,101374,101375,101376,101377,101378,101379,101380,101381,101382,101383,101384,101385,101386,101387,101388,101389,101390,101391,101392,101393,101394,101395,101396,101397,101398,101399,101400,101401,101402,101403,101404,101405,101406,101407,101408,101409,101410,101411,101373,101374,101375,101376,101377,101378,101379,101380,101381,101382,101383,101384,101385,101386,101387,101388,101389,101390,101391,101392,101393,101394,101395,101396,101397,101381,101382,101383,101384,101385,101386,101387,101388,101389,101390,95601,95601,95602,95603,95604,95605,95601,95601,95602,95603,95604,95605,
101521,101521,101522,101523,101524,101525,101526,101527,101528,101529,101530,101531,101532,101533,101534,101535,101536,101537,101538,101539,101528,101529,101530,101531,101532,101533,101534,101535,101536,101537,101538,101539,101521,101521,101522,101523,101524,101525,101526,101527,101528,101529,101530,101531,101532,101533,101534,101535,101536,101537,101538,101539,101540,101541,101542,101543,101544,101545,101546,101547,101548,101549,101550,101551,101552,101553,101554,101555,101556,101557,101558,101559,101560,101561,101521,101522,101523,101524,101525,101526,101527,101528,101529,101530,101531,101532,101533,101534,101535,101536,101537,101538,101539,101540,101541,101542,101543,101544,101545,101546,101547,101548,101549,101550,101551,101552,101553,101554,101555,101556,101557,101558,101559,101560,101561,101562,101563,101564,101565,101566,101567,101568,101569,101570,101571,101572,101573,101574,101575,101576,101577,101578,101579,101580,101581,101582,101583,101584,101585,101586,101587,101588,101589,101590,101591,101592,101593,101594,101595,101596,101597,101639,101640,101641,101642,101643,101644,101645,101646,101647,101648,101649,101650,101651,101652,101653,101654,101521,101522,101523,101524,101525,101526,101527,101528,101529,101530,101531,101532,101533,101534,101535,101536,101537,101538,101539,101540,101541,101542,101543,101544,101545,101546,101547,101548,101549,101550,101551,101552,101553,101554,101555,101556,101557,101558,101559,101560,101561,101562,101563,101564,101565,101566,101567,101568,101569,101570,101571,101572,101573,101574,101575,101521,101522,101523,101524,101525,101526,101527,101528,101529,101530,101531,101532,101533,101534,101535,101536,101537,101538,101539,101540,101541,101542,101543,101544,101545,101546,101547,101548,101549,101550,101551,101552,101553,101554,101555,101556,101557,101558,101559,101521,101522,101523,101524,101525,101526,101527,101528,101529,101530,101531,101532,101533,101534,101535,101536,101537,101538,101539,101540,101541,101542,101543,101544,101545,101529,101530,101531,101532,101533,101534,101535,101536,101537,101538,95749,95749,95750,95751,95752,95753,95749,95749,95750,95751,95752,95753,
101669,101669,101670,101671,101672,101673,101674,101675,101676,101677,101678,101679,101680,101681,101682,101683,101684,101685,101686,101687,101676,101677,101678,101679,101680,101681,101682,101683,101684,101685,101686,101687,101669,101669,101670,101671,101672,101673,101674,101675,101676,101677,101678,101679,101680,101681,101682,101683,101684,101685,101686,101687,101688,101689,101690,101691,101692,101693,101694,101695,101696,101697,101698,101699,101700,101701,101702,101703,101704,101705,101706,101707,101708,101709,101669,101670,101671,101672,101673,101674,101675,101676,101677,101678,101679,101680,101681,101682,101683,101684,101685,101686,101687,101688,101689,101690,101691,101692,101693,101694,101695,101696,101697,101698,101699,101700,101701,101702,101703,101704,101705,101706,101707,101708,101709,101710,101711,101712,101713,101714,101715,101716,101717,101718,101719,101720,101721,101722,101723,101724,101725,101726,101727,101728,101729,101730,101731,101732,101733,101734,101735,101736,101737,101738,101739,101740,101741,101742,101743,101744,101745,101787,101788,101789,101790,101791,101792,101793,101794,101795,101796,101797,101798,101799,101800,101801,101802,101669,101670,101671,101672,101673,101674,101675,101676,101677,101678,101679,101680,101681,101682,101683,101684,101685,101686,101687,101688,101689,101690,101691,101692,101693,101694,101695,101696,101697,101698,101699,101700,101701,101702,101703,101704,101705,101706,101707,101708,101709,101710,101711,101712,101713,101714,101715,101716,101717,101718,101719,101720,101721,101722,101723,101669,101670,101671,101672,101673,101674,101675,101676,101677,101678,101679,101680,101681,101682,101683,101684,101685,101686,101687,101688,101689,101690,101691,101692,101693,101694,101695,101696,101697,101698,101699,101700,101701,101702,101703,101704,101705,101706,101707,101669,101670,101671,101672,101673,101674,101675,101676,101677,101678,101679,101680,101681,101682,101683,101684,101685,101686,101687,101688,101689,101690,101691,101692,101693,101677,101678,101679,101680,101681,101682,101683,101684,101685,101686,95897,95897,95898,95899,95900,95901,95897,95897,95898,95899,95900,95901,
101817,101817,101818,101819,101820,101821,101822,101823,101824,101825,101826,101827,101828,101829,101830,101831,101832,101833,101834,101835,101824,101825,101826,101827,101828,101829,101830,101831,101832,101833,101834,101835,101817,101817,101818,101819,101820,101821,101822,101823,101824,101825,101826,101827,101828,101829,101830,101831,101832,101833,101834,101835,101836,101837,101838,101839,101840,101841,101842,101843,101844,101845,101846,101847,101848,101849,101850,101851,101852,101853,101854,101855,101856,101857,101817,101818,101819,101820,101821,101822,101823,101824,101825,101826,101827,101828,101829,101830,101831,101832,101833,101834,101835,101836,101837,101838,101839,101840,101841,101842,101843,101844,101845,101846,101847,101848,101849,101850,101851,101852,101853,101854,101855,101856,101857,101858,101859,101860,101861,101862,101863,101864,101865,101866,101867,101868,101869,101870,101871,101872,101873,101874,101875,101876,101877,101878,101879,101880,101881,101882,101883,101884,101885,101886,101887,101888,101889,101890,101891,101892,101893,101935,101936,101937,101938,101939,101940,101941,101942,101943,101944,101945,101946,101947,101948,101949,101950,101817,101818,101819,101820,101821,101822,101823,101824,101825,101826,101827,101828,101829,101830,101831,101832,101833,101834,101835,101836,101837,101838,101839,101840,101841,101842,101843,101844,101845,101846,101847,101848,101849,101850,101851,101852,101853,101854,101855,101856,101857,101858,101859,101860,101861,101862,101863,101864,101865,101866,101867,101868,101869,101870,101871,101817,101818,101819,101820,101821,101822,101823,101824,101825,101826,101827,101828,101829,101830,101831,101832,101833,101834,101835,101836,101837,101838,101839,101840,101841,101842,101843,101844,101845,101846,101847,101848,101849,101850,101851,101852,101853,101854,101855,101817,101818,101819,101820,101821,101822,101823,101824,101825,101826,101827,101828,101829,101830,101831,101832,101833,101834,101835,101836,101837,101838,101839,101840,101841,101825,101826,101827,101828,101829,101830,101831,101832,101833,101834,96045,96045,96046,96047,96048,96049,96045,96045,96046,96047,96048,96049,
101965,101965,101966,101967,101968,101969,101970,101971,101972,101973,101974,101975,101976,101977,101978,101979,101980,101981,101982,101983,101972,101973,101974,101975,101976,101977,101978,101979,101980,101981,101982,101983,101965,101965,101966,101967,101968,101969,101970,101971,101972,101973,101974,101975,101976,101977,101978,101979,101980,101981,101982,101983,101984,101985,101986,101987,101988,101989,101990,101991,101992,101993,101994,101995,101996,101997,101998,101999,102000,102001,102002,102003,102004,102005,101965,101966,101967,101968,101969,101970,101971,101972,101973,101974,101975,101976,101977,101978,101979,101980,101981,101982,101983,101984,101985,101986,101987,101988,101989,101990,101991,101992,101993,101994,101995,101996,101997,101998,101999,102000,102001,102002,102003,102004,102005,102006,102007,102008,102009,102010,102011,102012,102013,102014,102015,102016,102017,102018,102019,102020,102021,102022,102023,102024,102025,102026,102027,102028,102029,102030,102031,102032,102033,102034,102035,102036,102037,102038,102039,102040,102041,102083,102084,102085,102086,102087,102088,102089,102090,102091,102092,102093,102094,102095,102096,102097,102098,101965,101966,101967,101968,101969,101970,101971,101972,101973,101974,101975,101976,101977,101978,101979,101980,101981,101982,101983,101984,101985,101986,101987,101988,101989,101990,101991,101992,101993,101994,101995,101996,101997,101998,101999,102000,102001,102002,102003,102004,102005,102006,102007,102008,102009,102010,102011,102012,102013,102014,102015,102016,102017,102018,102019,101965,101966,101967,101968,101969,101970,101971,101972,101973,101974,101975,101976,101977,101978,101979,101980,101981,101982,101983,101984,101985,101986,101987,101988,101989,101990,101991,101992,101993,101994,101995,101996,101997,101998,101999,102000,102001,102002,102003,101965,101966,101967,101968,101969,101970,101971,101972,101973,101974,101975,101976,101977,101978,101979,101980,101981,101982,101983,101984,101985,101986,101987,101988,101989,101973,101974,101975,101976,101977,101978,101979,101980,101981,101982,95009,95009,95010,95011,95012,95013,95009,95009,95010,95011,95012,95013,
102113,102113,102114,102115,102116,102117,102118,102119,102120,102121,102122,102123,102124,102125,102126,102127,102128,102129,102130,102131,102120,102121,102122,102123,102124,102125,102126,102127,102128,102129,102130,102131,102113,102113,102114,102115,102116,102117,102118,102119,102120,102121,102122,102123,102124,102125,102126,102127,102128,102129,102130,102131,102132,102133,102134,102135,102136,102137,102138,102139,102140,102141,102142,102143,102144,102145,102146,102147,102148,102149,102150,102151,102152,102153,102113,102114,102115,102116,102117,102118,102119,102120,102121,102122,102123,102124,102125,102126,102127,102128,102129,102130,102131,102132,102133,102134,102135,102136,102137,102138,102139,102140,102141,102142,102143,102144,102145,102146,102147,102148,102149,102150,102151,102152,102153,102154,102155,102156,102157,102158,102159,102160,102161,102162,102163,102164,102165,102166,102167,102168,102169,102170,102171,102172,102173,102174,102175,102176,102177,102178,102179,102180,102181,102182,102183,102184,102185,102186,102187,102188,102189,102231,102232,102233,102234,102235,102236,102237,102238,102239,102240,102241,102242,102243,102244,102245,102246,102113,102114,102115,102116,102117,102118,102119,102120,102121,102122,102123,102124,102125,102126,102127,102128,102129,102130,102131,102132,102133,102134,102135,102136,102137,102138,102139,102140,102141,102142,102143,102144,102145,102146,102147,102148,102149,102150,102151,102152,102153,102154,102155,102156,102157,102158,102159,102160,102161,102162,102163,102164,102165,102166,102167,102113,102114,102115,102116,102117,102118,102119,102120,102121,102122,102123,102124,102125,102126,102127,102128,102129,102130,102131,102132,102133,102134,102135,102136,102137,102138,102139,102140,102141,102142,102143,102144,102145,102146,102147,102148,102149,102150,102151,102113,102114,102115,102116,102117,102118,102119,102120,102121,102122,102123,102124,102125,102126,102127,102128,102129,102130,102131,102132,102133,102134,102135,102136,102137,102121,102122,102123,102124,102125,102126,102127,102128,102129,102130,95157,95157,95158,95159,95160,95161,95157,95157,95158,95159,95160,95161,
102261,102261,102262,102263,102264,102265,102266,102267,102268,102269,102270,102271,102272,102273,102274,102275,102276,102277,102278,102279,102268,102269,102270,102271,102272,102273,102274,102275,102276,102277,102278,102279,102261,102261,102262,102263,102264,102265,102266,102267,102268,102269,102270,102271,102272,102273,102274,102275,102276,102277,102278,102279,102280,102281,102282,102283,102284,102285,102286,102287,102288,102289,102290,102291,102292,102293,102294,102295,102296,102297,102298,102299,102300,102301,102261,102262,102263,102264,102265,102266,102267,102268,102269,102270,102271,102272,102273,102274,102275,102276,102277,102278,102279,102280,102281,102282,102283,102284,102285,102286,102287,102288,102289,102290,102291,102292,102293,102294,102295,102296,102297,102298,102299,102300,102301,102302,102303,102304,102305,102306,102307,102308,102309,102310,102311,102312,102313,102314,102315,102316,102317,102318,102319,102320,102321,102322,102323,102324,102325,102326,102327,102328,102329,102330,102331,102332,102333,102334,102335,102336,102337,102379,102380,102381,102382,102383,102384,102385,102386,102387,102388,102389,102390,102391,102392,102393,102394,102261,102262,102263,102264,102265,102266,102267,102268,102269,102270,102271,102272,102273,102274,102275,102276,102277,102278,102279,102280,102281,102282,102283,102284,102285,102286,102287,102288,102289,102290,102291,102292,102293,102294,102295,102296,102297,102298,102299,102300,102301,102302,102303,102304,102305,102306,102307,102308,102309,102310,102311,102312,102313,102314,102315,102261,102262,102263,102264,102265,102266,102267,102268,102269,102270,102271,102272,102273,102274,102275,102276,102277,102278,102279,102280,102281,102282,102283,102284,102285,102286,102287,102288,102289,102290,102291,102292,102293,102294,102295,102296,102297,102298,102299,102261,102262,102263,102264,102265,102266,102267,102268,102269,102270,102271,102272,102273,102274,102275,102276,102277,102278,102279,102280,102281,102282,102283,102284,102285,102269,102270,102271,102272,102273,102274,102275,102276,102277,102278,95305,95305,95306,95307,95308,95309,95305,95305,95306,95307,95308,95309,
102409,102409,102410,102411,102412,102413,102414,102415,102416,102417,102418,102419,102420,102421,102422,102423,102424,102425,102426,102427,102416,102417,102418,102419,102420,102421,102422,102423,102424,102425,102426,102427,102409,102409,102410,102411,102412,102413,102414,102415,102416,102417,102418,102419,102420,102421,102422,102423,102424,102425,102426,102427,102428,102429,102430,102431,102432,102433,102434,102435,102436,102437,102438,102439,102440,102441,102442,102443,102444,102445,102446,102447,102448,102449,102409,102410,102411,102412,102413,102414,102415,102416,102417,102418,102419,102420,102421,102422,102423,102424,102425,102426,102427,102428,102429,102430,102431,102432,102433,102434,102435,102436,102437,102438,102439,102440,102441,102442,102443,102444,102445,102446,102447,102448,102449,102450,102451,102452,102453,102454,102455,102456,102457,102458,102459,102460,102461,102462,102463,102464,102465,102466,102467,102468,102469,102470,102471,102472,102473,102474,102475,102476,102477,102478,102479,102480,102481,102482,102483,102484,102485,102527,102528,102529,102530,102531,102532,102533,102534,102535,102536,102537,102538,102539,102540,102541,102542,102409,102410,102411,102412,102413,102414,102415,102416,102417,102418,102419,102420,102421,102422,102423,102424,102425,102426,102427,102428,102429,102430,102431,102432,102433,102434,102435,102436,102437,102438,102439,102440,102441,102442,102443,102444,102445,102446,102447,102448,102449,102450,102451,102452,102453,102454,102455,102456,102457,102458,102459,102460,102461,102462,102463,102409,102410,102411,102412,102413,102414,102415,102416,102417,102418,102419,102420,102421,102422,102423,102424,102425,102426,102427,102428,102429,102430,102431,102432,102433,102434,102435,102436,102437,102438,102439,102440,102441,102442,102443,102444,102445,102446,102447,102409,102410,102411,102412,102413,102414,102415,102416,102417,102418,102419,102420,102421,102422,102423,102424,102425,102426,102427,102428,102429,102430,102431,102432,102433,102417,102418,102419,102420,102421,102422,102423,102424,102425,102426,95453,95453,95454,95455,95456,95457,95453,95453,95454,95455,95456,95457,
102557,102557,102558,102559,102560,102561,102562,102563,102564,102565,102566,102567,102568,102569,102570,102571,102572,102573,102574,102575,102564,102565,102566,102567,102568,102569,102570,102571,102572,102573,102574,102575,102557,102557,102558,102559,102560,102561,102562,102563,102564,102565,102566,102567,102568,102569,102570,102571,102572,102573,102574,102575,102576,102577,102578,102579,102580,102581,102582,102583,102584,102585,102586,102587,102588,102589,102590,102591,102592,102593,102594,102595,102596,102597,102557,102558,102559,102560,102561,102562,102563,102564,102565,102566,102567,102568,102569,102570,102571,102572,102573,102574,102575,102576,102577,102578,102579,102580,102581,102582,102583,102584,102585,102586,102587,102588,102589,102590,102591,102592,102593,102594,102595,102596,102597,102598,102599,102600,102601,102602,102603,102604,102605,102606,102607,102608,102609,102610,102611,102612,102613,102614,102615,102616,102617,102618,102619,102620,102621,102622,102623,102624,102625,102626,102627,102628,102629,102630,102631,102632,102633,102675,102676,102677,102678,102679,102680,102681,102682,102683,102684,102685,102686,102687,102688,102689,102690,102557,102558,102559,102560,102561,102562,102563,102564,102565,102566,102567,102568,102569,102570,102571,102572,102573,102574,102575,102576,102577,102578,102579,102580,102581,102582,102583,102584,102585,102586,102587,102588,102589,102590,102591,102592,102593,102594,102595,102596,102597,102598,102599,102600,102601,102602,102603,102604,102605,102606,102607,102608,102609,102610,102611,102557,102558,102559,102560,102561,102562,102563,102564,102565,102566,102567,102568,102569,102570,102571,102572,102573,102574,102575,102576,102577,102578,102579,102580,102581,102582,102583,102584,102585,102586,102587,102588,102589,102590,102591,102592,102593,102594,102595,102557,102558,102559,102560,102561,102562,102563,102564,102565,102566,102567,102568,102569,102570,102571,102572,102573,102574,102575,102576,102577,102578,102579,102580,102581,102565,102566,102567,102568,102569,102570,102571,102572,102573,102574,95601,95601,95602,95603,95604,95605,95601,95601,95602,95603,95604,95605,
102705,102705,102706,102707,102708,102709,102710,102711,102712,102713,102714,102715,102716,102717,102718,102719,102720,102721,102722,102723,102712,102713,102714,102715,102716,102717,102718,102719,102720,102721,102722,102723,102705,102705,102706,102707,102708,102709,102710,102711,102712,102713,102714,102715,102716,102717,102718,102719,102720,102721,102722,102723,102724,102725,102726,102727,102728,102729,102730,102731,102732,102733,102734,102735,102736,102737,102738,102739,102740,102741,102742,102743,102744,102745,102705,102706,102707,102708,102709,102710,102711,102712,102713,102714,102715,102716,102717,102718,102719,102720,102721,102722,102723,102724,102725,102726,102727,102728,102729,102730,102731,102732,102733,102734,102735,102736,102737,102738,102739,102740,102741,102742,102743,102744,102745,102746,102747,102748,102749,102750,102751,102752,102753,102754,102755,102756,102757,102758,102759,102760,102761,102762,102763,102764,102765,102766,102767,102768,102769,102770,102771,102772,102773,102774,102775,102776,102777,102778,102779,102780,102781,102823,102824,102825,102826,102827,102828,102829,102830,102831,102832,102833,102834,102835,102836,102837,102838,102705,102706,102707,102708,102709,102710,102711,102712,102713,102714,102715,102716,102717,102718,102719,102720,102721,102722,102723,102724,102725,102726,102727,102728,102729,102730,102731,102732,102733,102734,102735,102736,102737,102738,102739,102740,102741,102742,102743,102744,102745,102746,102747,102748,102749,102750,102751,102752,102753,102754,102755,102756,102757,102758,102759,102705,102706,102707,102708,102709,102710,102711,102712,102713,102714,102715,102716,102717,102718,102719,102720,102721,102722,102723,102724,102725,102726,102727,102728,102729,102730,102731,102732,102733,102734,102735,102736,102737,102738,102739,102740,102741,102742,102743,102705,102706,102707,102708,102709,102710,102711,102712,102713,102714,102715,102716,102717,102718,102719,102720,102721,102722,102723,102724,102725,102726,102727,102728,102729,102713,102714,102715,102716,102717,102718,102719,102720,102721,102722,95749,95749,95750,95751,95752,95753,95749,95749,95750,95751,95752,95753,
102853,102853,102854,102855,102856,102857,102858,102859,102860,102861,102862,102863,102864,102865,102866,102867,102868,102869,102870,102871,102860,102861,102862,102863,102864,102865,102866,102867,102868,102869,102870,102871,102853,102853,102854,102855,102856,102857,102858,102859,102860,102861,102862,102863,102864,102865,102866,102867,102868,102869,102870,102871,102872,102873,102874,102875,102876,102877,102878,102879,102880,102881,102882,102883,102884,102885,102886,102887,102888,102889,102890,102891,102892,102893,102853,102854,102855,102856,102857,102858,102859,102860,102861,102862,102863,102864,102865,102866,102867,102868,102869,102870,102871,102872,102873,102874,102875,102876,102877,102878,102879,102880,102881,102882,102883,102884,102885,102886,102887,102888,102889,102890,102891,102892,102893,102894,102895,102896,102897,102898,102899,102900,102901,102902,102903,102904,102905,102906,102907,102908,102909,102910,102911,102912,102913,102914,102915,102916,102917,102918,102919,102920,102921,102922,102923,102924,102925,102926,102927,102928,102929,102971,102972,102973,102974,102975,102976,102977,102978,102979,102980,102981,102982,102983,102984,102985,102986,102853,102854,102855,102856,102857,102858,102859,102860,102861,102862,102863,102864,102865,102866,102867,102868,102869,102870,102871,102872,102873,102874,102875,102876,102877,102878,102879,102880,102881,102882,102883,102884,102885,102886,102887,102888,102889,102890,102891,102892,102893,102894,102895,102896,102897,102898,102899,102900,102901,102902,102903,102904,102905,102906,102907,102853,102854,102855,102856,102857,102858,102859,102860,102861,102862,102863,102864,102865,102866,102867,102868,102869,102870,102871,102872,102873,102874,102875,102876,102877,102878,102879,102880,102881,102882,102883,102884,102885,102886,102887,102888,102889,102890,102891,102853,102854,102855,102856,102857,102858,102859,102860,102861,102862,102863,102864,102865,102866,102867,102868,102869,102870,102871,102872,102873,102874,102875,102876,102877,102861,102862,102863,102864,102865,102866,102867,102868,102869,102870,95897,95897,95898,95899,95900,95901,95897,95897,95898,95899,95900,95901,
103001,103001,103002,103003,103004,103005,103006,103007,103008,103009,103010,103011,103012,103013,103014,103015,103016,103017,103018,103019,103008,103009,103010,103011,103012,103013,103014,103015,103016,103017,103018,103019,103001,103001,103002,103003,103004,103005,103006,103007,103008,103009,103010,103011,103012,103013,103014,103015,103016,103017,103018,103019,103020,103021,103022,103023,103024,103025,103026,103027,103028,103029,103030,103031,103032,103033,103034,103035,103036,103037,103038,103039,103040,103041,103001,103002,103003,103004,103005,103006,103007,103008,103009,103010,103011,103012,103013,103014,103015,103016,103017,103018,103019,103020,103021,103022,103023,103024,103025,103026,103027,103028,103029,103030,103031,103032,103033,103034,103035,103036,103037,103038,103039,103040,103041,103042,103043,103044,103045,103046,103047,103048,103049,103050,103051,103052,103053,103054,103055,103056,103057,103058,103059,103060,103061,103062,103063,103064,103065,103066,103067,103068,103069,103070,103071,103072,103073,103074,103075,103076,103077,103119,103120,103121,103122,103123,103124,103125,103126,103127,103128,103129,103130,103131,103132,103133,103134,103001,103002,103003,103004,103005,103006,103007,103008,103009,103010,103011,103012,103013,103014,103015,103016,103017,103018,103019,103020,103021,103022,103023,103024,103025,103026,103027,103028,103029,103030,103031,103032,103033,103034,103035,103036,103037,103038,103039,103040,103041,103042,103043,103044,103045,103046,103047,103048,103049,103050,103051,103052,103053,103054,103055,103001,103002,103003,103004,103005,103006,103007,103008,103009,103010,103011,103012,103013,103014,103015,103016,103017,103018,103019,103020,103021,103022,103023,103024,103025,103026,103027,103028,103029,103030,103031,103032,103033,103034,103035,103036,103037,103038,103039,103001,103002,103003,103004,103005,103006,103007,103008,103009,103010,103011,103012,103013,103014,103015,103016,103017,103018,103019,103020,103021,103022,103023,103024,103025,103009,103010,103011,103012,103013,103014,103015,103016,103017,103018,96045,96045,96046,96047,96048,96049,96045,96045,96046,96047,96048,96049,
103149,103149,103150,103151,103152,103153,103154,103155,103156,103157,103158,103159,103160,103161,103162,103163,103164,103165,103166,103167,103156,103157,103158,103159,103160,103161,103162,103163,103164,103165,103166,103167,103149,103149,103150,103151,103152,103153,103154,103155,103156,103157,103158,103159,103160,103161,103162,103163,103164,103165,103166,103167,103168,103169,103170,103171,103172,103173,103174,103175,103176,103177,103178,103179,103180,103181,103182,103183,103184,103185,103186,103187,103188,103189,103149,103150,103151,103152,103153,103154,103155,103156,103157,103158,103159,103160,103161,103162,103163,103164,103165,103166,103167,103168,103169,103170,103171,103172,103173,103174,103175,103176,103177,103178,103179,103180,103181,103182,103183,103184,103185,103186,103187,103188,103189,103190,103191,103192,103193,103194,103195,103196,103197,103198,103199,103200,103201,103202,103203,103204,103205,103206,103207,103208,103209,103210,103211,103212,103213,103214,103215,103216,103217,103218,103219,103220,103221,103222,103223,103224,103225,103267,103268,103269,103270,103271,103272,103273,103274,103275,103276,103277,103278,103279,103280,103281,103282,103149,103150,103151,103152,103153,103154,103155,103156,103157,103158,103159,103160,103161,103162,103163,103164,103165,103166,103167,103168,103169,103170,103171,103172,103173,103174,103175,103176,103177,103178,103179,103180,103181,103182,103183,103184,103185,103186,103187,103188,103189,103190,103191,103192,103193,103194,103195,103196,103197,103198,103199,103200,103201,103202,103203,103149,103150,103151,103152,103153,103154,103155,103156,103157,103158,103159,103160,103161,103162,103163,103164,103165,103166,103167,103168,103169,103170,103171,103172,103173,103174,103175,103176,103177,103178,103179,103180,103181,103182,103183,103184,103185,103186,103187,103149,103150,103151,103152,103153,103154,103155,103156,103157,103158,103159,103160,103161,103162,103163,103164,103165,103166,103167,103168,103169,103170,103171,103172,103173,103157,103158,103159,103160,103161,103162,103163,103164,103165,103166,95009,95009,95010,95011,95012,95013,95009,95009,95010,95011,95012,95013,
103297,103297,103298,103299,103300,103301,103302,103303,103304,103305,103306,103307,103308,103309,103310,103311,103312,103313,103314,103315,103304,103305,103306,103307,103308,103309,103310,103311,103312,103313,103314,103315,103297,103297,103298,103299,103300,103301,103302,103303,103304,103305,103306,103307,103308,103309,103310,103311,103312,103313,103314,103315,103316,103317,103318,103319,103320,103321,103322,103323,103324,103325,103326,103327,103328,103329,103330,103331,103332,103333,103334,103335,103336,103337,103297,103298,103299,103300,103301,103302,103303,103304,103305,103306,103307,103308,103309,103310,103311,103312,103313,103314,103315,103316,103317,103318,103319,103320,103321,103322,103323,103324,103325,103326,103327,103328,103329,103330,103331,103332,103333,103334,103335,103336,103337,103338,103339,103340,103341,103342,103343,103344,103345,103346,103347,103348,103349,103350,103351,103352,103353,103354,103355,103356,103357,103358,103359,103360,103361,103362,103363,103364,103365,103366,103367,103368,103369,103370,103371,103372,103373,103415,103416,103417,103418,103419,103420,103421,103422,103423,103424,103425,103426,103427,103428,103429,103430,103297,103298,103299,103300,103301,103302,103303,103304,103305,103306,103307,103308,103309,103310,103311,103312,103313,103314,103315,103316,103317,103318,103319,103320,103321,103322,103323,103324,103325,103326,103327,103328,103329,103330,103331,103332,103333,103334,103335,103336,103337,103338,103339,103340,103341,103342,103343,103344,103345,103346,103347,103348,103349,103350,103351,103297,103298,103299,103300,103301,103302,103303,103304,103305,103306,103307,103308,103309,103310,103311,103312,103313,103314,103315,103316,103317,103318,103319,103320,103321,103322,103323,103324,103325,103326,103327,103328,103329,103330,103331,103332,103333,103334,103335,103297,103298,103299,103300,103301,103302,103303,103304,103305,103306,103307,103308,103309,103310,103311,103312,103313,103314,103315,103316,103317,103318,103319,103320,103321,103305,103306,103307,103308,103309,103310,103311,103312,103313,103314,95157,95157,95158,95159,95160,95161,95157,95157,95158,95159,95160,95161,
103445,103445,103446,103447,103448,103449,103450,103451,103452,103453,103454,103455,103456,103457,103458,103459,103460,103461,103462,103463,103452,103453,103454,103455,103456,103457,103458,103459,103460,103461,103462,103463,103445,103445,103446,103447,103448,103449,103450,103451,103452,103453,103454,103455,103456,103457,103458,103459,103460,103461,103462,103463,103464,103465,103466,103467,103468,103469,103470,103471,103472,103473,103474,103475,103476,103477,103478,103479,103480,103481,103482,103483,103484,103485,103445,103446,103447,103448,103449,103450,103451,103452,103453,103454,103455,103456,103457,103458,103459,103460,103461,103462,103463,103464,103465,103466,103467,103468,103469,103470,103471,103472,103473,103474,103475,103476,103477,103478,103479,103480,103481,103482,103483,103484,103485,103486,103487,103488,103489,103490,103491,103492,103493,103494,103495,103496,103497,103498,103499,103500,103501,103502,103503,103504,103505,103506,103507,103508,103509,103510,103511,103512,103513,103514,103515,103516,103517,103518,103519,103520,103521,103563,103564,103565,103566,103567,103568,103569,103570,103571,103572,103573,103574,103575,103576,103577,103578,103445,103446,103447,103448,103449,103450,103451,103452,103453,103454,103455,103456,103457,103458,103459,103460,103461,103462,103463,103464,103465,103466,103467,103468,103469,103470,103471,103472,103473,103474,103475,103476,103477,103478,103479,103480,103481,103482,103483,103484,103485,103486,103487,103488,103489,103490,103491,103492,103493,103494,103495,103496,103497,103498,103499,103445,103446,103447,103448,103449,103450,103451,103452,103453,103454,103455,103456,103457,103458,103459,103460,103461,103462,103463,103464,103465,103466,103467,103468,103469,103470,103471,103472,103473,103474,103475,103476,103477,103478,103479,103480,103481,103482,103483,103445,103446,103447,103448,103449,103450,103451,103452,103453,103454,103455,103456,103457,103458,103459,103460,103461,103462,103463,103464,103465,103466,103467,103468,103469,103453,103454,103455,103456,103457,103458,103459,103460,103461,103462,95305,95305,95306,95307,95308,95309,95305,95305,95306,95307,95308,95309,
103593,103593,103594,103595,103596,103597,103598,103599,103600,103601,103602,103603,103604,103605,103606,103607,103608,103609,103610,103611,103600,103601,103602,103603,103604,103605,103606,103607,103608,103609,103610,103611,103593,103593,103594,103595,103596,103597,103598,103599,103600,103601,103602,103603,103604,103605,103606,103607,103608,103609,103610,103611,103612,103613,103614,103615,103616,103617,103618,103619,103620,103621,103622,103623,103624,103625,103626,103627,103628,103629,103630,103631,103632,103633,103593,103594,103595,103596,103597,103598,103599,103600,103601,103602,103603,103604,103605,103606,103607,103608,103609,103610,103611,103612,103613,103614,103615,103616,103617,103618,103619,103620,103621,103622,103623,103624,103625,103626,103627,103628,103629,103630,103631,103632,103633,103634,103635,103636,103637,103638,103639,103640,103641,103642,103643,103644,103645,103646,103647,103648,103649,103650,103651,103652,103653,103654,103655,103656,103657,103658,103659,103660,103661,103662,103663,103664,103665,103666,103667,103668,103669,103711,103712,103713,103714,103715,103716,103717,103718,103719,103720,103721,103722,103723,103724,103725,103726,103593,103594,103595,103596,103597,103598,103599,103600,103601,103602,103603,103604,103605,103606,103607,103608,103609,103610,103611,103612,103613,103614,103615,103616,103617,103618,103619,103620,103621,103622,103623,103624,103625,103626,103627,103628,103629,103630,103631,103632,103633,103634,103635,103636,103637,103638,103639,103640,103641,103642,103643,103644,103645,103646,103647,103593,103594,103595,103596,103597,103598,103599,103600,103601,103602,103603,103604,103605,103606,103607,103608,103609,103610,103611,103612,103613,103614,103615,103616,103617,103618,103619,103620,103621,103622,103623,103624,103625,103626,103627,103628,103629,103630,103631,103593,103594,103595,103596,103597,103598,103599,103600,103601,103602,103603,103604,103605,103606,103607,103608,103609,103610,103611,103612,103613,103614,103615,103616,103617,103601,103602,103603,103604,103605,103606,103607,103608,103609,103610,95453,95453,95454,95455,95456,95457,95453,95453,95454,95455,95456,95457,
103741,103741,103742,103743,103744,103745,103746,103747,103748,103749,103750,103751,103752,103753,103754,103755,103756,103757,103758,103759,103748,103749,103750,103751,103752,103753,103754,103755,103756,103757,103758,103759,103741,103741,103742,103743,103744,103745,103746,103747,103748,103749,103750,103751,103752,103753,103754,103755,103756,103757,103758,103759,103760,103761,103762,103763,103764,103765,103766,103767,103768,103769,103770,103771,103772,103773,103774,103775,103776,103777,103778,103779,103780,103781,103741,103742,103743,103744,103745,103746,103747,103748,103749,103750,103751,103752,103753,103754,103755,103756,103757,103758,103759,103760,103761,103762,103763,103764,103765,103766,103767,103768,103769,103770,103771,103772,103773,103774,103775,103776,103777,103778,103779,103780,103781,103782,103783,103784,103785,103786,103787,103788,103789,103790,103791,103792,103793,103794,103795,103796,103797,103798,103799,103800,103801,103802,103803,103804,103805,103806,103807,103808,103809,103810,103811,103812,103813,103814,103815,103816,103817,103859,103860,103861,103862,103863,103864,103865,103866,103867,103868,103869,103870,103871,103872,103873,103874,103741,103742,103743,103744,103745,103746,103747,103748,103749,103750,103751,103752,103753,103754,103755,103756,103757,103758,103759,103760,103761,103762,103763,103764,103765,103766,103767,103768,103769,103770,103771,103772,103773,103774,103775,103776,103777,103778,103779,103780,103781,103782,103783,103784,103785,103786,103787,103788,103789,103790,103791,103792,103793,103794,103795,103741,103742,103743,103744,103745,103746,103747,103748,103749,103750,103751,103752,103753,103754,103755,103756,103757,103758,103759,103760,103761,103762,103763,103764,103765,103766,103767,103768,103769,103770,103771,103772,103773,103774,103775,103776,103777,103778,103779,103741,103742,103743,103744,103745,103746,103747,103748,103749,103750,103751,103752,103753,103754,103755,103756,103757,103758,103759,103760,103761,103762,103763,103764,103765,103749,103750,103751,103752,103753,103754,103755,103756,103757,103758,95601,95601,95602,95603,95604,95605,95601,95601,95602,95603,95604,95605,
103297,103297,103298,103299,103300,103301,103302,103303,103304,103305,103306,103307,103308,103309,103310,103311,103312,103313,103314,103315,103304,103305,103306,103307,103308,103309,103310,103311,103312,103313,103314,103315,103297,103297,103298,103299,103300,103301,103302,103303,103304,103305,103306,103307,103308,103309,103310,103311,103312,103313,103314,103315,103316,103317,103318,103297,103297,103298,103299,103300,103301,103302,103303,103304,103305,103306,103307,103308,103309,103310,103311,103312,103313,103314,103315,103304,103305,103306,103307,103308,103309,103310,103311,103312,103313,103314,103315,103297,103297,103298,103299,103300,103301,103302,103303,103304,103305,103306,103307,103308,103309,103310,103311,103312,103313,103314,103315,103316,103317,103318,103319,103320,103321,103322,103323,103324,103325,103326,103327,103328,103329,103330,103331,103332,103333,103334,103335,103336,103337,103297,103298,103299,103300,103301,103302,103303,103304,103305,103306,103307,103308,103309,103310,103311,103312,103313,103314,103315,103316,103317,103318,103319,103320,103321,103322,103323,103324,103325,103326,103327,103328,103329,103330,103331,103332,103333,103334,103335,103336,103337,103338,103339,103340,103341,103342,103343,103344,103345,103346,103347,103348,103349,103350,103351,103352,103353,103354,103355,103356,103357,103358,103359,103360,103361,103362,103363,103364,103365,103366,103367,103368,103369,103370,103371,103372,103373,103415,103416,103417,103418,103419,103420,103421,103422,103423,103424,103425,103426,103427,103428,103429,103430,103297,103298,103299,103300,103301,103302,103303,103304,103305,103306,103307,103308,103309,103310,103311,103312,103313,103314,103315,103316,103317,103318,103319,103320,103321,103322,103323,103324,103325,103326,103327,103328,103329,103330,103331,103332,103333,103334,103335,103336,103337,103338,103339,103340,103341,103342,103343,103344,103345,103346,103347,103348,103349,103350,103351,103297,103298,103299,103300,103301,103302,103303,103304,103305,103306,103307,103308,103309,103310,103311,103312,103313,103314,103315,95749,95749,95750,95751,95752,95753,95749,95749,95750,95751,95752,95753,
103445,103445,103446,103447,103448,103449,103450,103451,103452,103453,103454,103455,103456,103457,103458,103459,103460,103461,103462,103463,103452,103453,103454,103455,103456,103457,103458,103459,103460,103461,103462,103463,103445,103445,103446,103447,103448,103449,103450,103451,103452,103453,103454,103455,103456,103457,103458,103459,103460,103461,103462,103463,103464,103465,103466,103445,103445,103446,103447,103448,103449,103450,103451,103452,103453,103454,103455,103456,103457,103458,103459,103460,103461,103462,103463,103452,103453,103454,103455,103456,103457,103458,103459,103460,103461,103462,103463,103445,103445,103446,103447,103448,103449,103450,103451,103452,103453,103454,103455,103456,103457,103458,103459,103460,103461,103462,103463,103464,103465,103466,103467,103468,103469,103470,103471,103472,103473,103474,103475,103476,103477,103478,103479,103480,103481,103482,103483,103484,103485,103445,103446,103447,103448,103449,103450,103451,103452,103453,103454,103455,103456,103457,103458,103459,103460,103461,103462,103463,103464,103465,103466,103467,103468,103469,103470,103471,103472,103473,103474,103475,103476,103477,103478,103479,103480,103481,103482,103483,103484,103485,103486,103487,103488,103489,103490,103491,103492,103493,103494,103495,103496,103497,103498,103499,103500,103501,103502,103503,103504,103505,103506,103507,103508,103509,103510,103511,103512,103513,103514,103515,103516,103517,103518,103519,103520,103521,103563,103564,103565,103566,103567,103568,103569,103570,103571,103572,103573,103574,103575,103576,103577,103578,103445,103446,103447,103448,103449,103450,103451,103452,103453,103454,103455,103456,103457,103458,103459,103460,103461,103462,103463,103464,103465,103466,103467,103468,103469,103470,103471,103472,103473,103474,103475,103476,103477,103478,103479,103480,103481,103482,103483,103484,103485,103486,103487,103488,103489,103490,103491,103492,103493,103494,103495,103496,103497,103498,103499,103445,103446,103447,103448,103449,103450,103451,103452,103453,103454,103455,103456,103457,103458,103459,103460,103461,103462,103463,95897,95897,95898,95899,95900,95901,95897,95897,95898,95899,95900,95901,
103593,103593,103594,103595,103596,103597,103598,103599,103600,103601,103602,103603,103604,103605,103606,103607,103608,103609,103610,103611,103600,103601,103602,103603,103604,103605,103606,103607,103608,103609,103610,103611,103593,103593,103594,103595,103596,103597,103598,103599,103600,103601,103602,103603,103604,103605,103606,103607,103608,103609,103610,103611,103612,103613,103614,103593,103593,103594,103595,103596,103597,103598,103599,103600,103601,103602,103603,103604,103605,103606,103607,103608,103609,103610,103611,103600,103601,103602,103603,103604,103605,103606,103607,103608,103609,103610,103611,103593,103593,103594,103595,103596,103597,103598,103599,103600,103601,103602,103603,103604,103605,103606,103607,103608,103609,103610,103611,103612,103613,103614,103615,103616,103617,103618,103619,103620,103621,103622,103623,103624,103625,103626,103627,103628,103629,103630,103631,103632,103633,103593,103594,103595,103596,103597,103598,103599,103600,103601,103602,103603,103604,103605,103606,103607,103608,103609,103610,103611,103612,103613,103614,103615,103616,103617,103618,103619,103620,103621,103622,103623,103624,103625,103626,103627,103628,103629,103630,103631,103632,103633,103634,103635,103636,103637,103638,103639,103640,103641,103642,103643,103644,103645,103646,103647,103648,103649,103650,103651,103652,103653,103654,103655,103656,103657,103658,103659,103660,103661,103662,103663,103664,103665,103666,103667,103668,103669,103711,103712,103713,103714,103715,103716,103717,103718,103719,103720,103721,103722,103723,103724,103725,103726,103593,103594,103595,103596,103597,103598,103599,103600,103601,103602,103603,103604,103605,103606,103607,103608,103609,103610,103611,103612,103613,103614,103615,103616,103617,103618,103619,103620,103621,103622,103623,103624,103625,103626,103627,103628,103629,103630,103631,103632,103633,103634,103635,103636,103637,103638,103639,103640,103641,103642,103643,103644,103645,103646,103647,103593,103594,103595,103596,103597,103598,103599,103600,103601,103602,103603,103604,103605,103606,103607,103608,103609,103610,103611,96045,96045,96046,96047,96048,96049,96045,96045,96046,96047,96048,96049,
103741,103741,103742,103743,103744,103745,103746,103747,103748,103749,103750,103751,103752,103753,103754,103755,103756,103757,103758,103759,103748,103749,103750,103751,103752,103753,103754,103755,103756,103757,103758,103759,103741,103741,103742,103743,103744,103745,103746,103747,103748,103749,103750,103751,103752,103753,103754,103755,103756,103757,103758,103759,103760,103761,103762,103741,103741,103742,103743,103744,103745,103746,103747,103748,103749,103750,103751,103752,103753,103754,103755,103756,103757,103758,103759,103748,103749,103750,103751,103752,103753,103754,103755,103756,103757,103758,103759,103741,103741,103742,103743,103744,103745,103746,103747,103748,103749,103750,103751,103752,103753,103754,103755,103756,103757,103758,103759,103760,103761,103762,103763,103764,103765,103766,103767,103768,103769,103770,103771,103772,103773,103774,103775,103776,103777,103778,103779,103780,103781,103741,103742,103743,103744,103745,103746,103747,103748,103749,103750,103751,103752,103753,103754,103755,103756,103757,103758,103759,103760,103761,103762,103763,103764,103765,103766,103767,103768,103769,103770,103771,103772,103773,103774,103775,103776,103777,103778,103779,103780,103781,103782,103783,103784,103785,103786,103787,103788,103789,103790,103791,103792,103793,103794,103795,103796,103797,103798,103799,103800,103801,103802,103803,103804,103805,103806,103807,103808,103809,103810,103811,103812,103813,103814,103815,103816,103817,103859,103860,103861,103862,103863,103864,103865,103866,103867,103868,103869,103870,103871,103872,103873,103874,103741,103742,103743,103744,103745,103746,103747,103748,103749,103750,103751,103752,103753,103754,103755,103756,103757,103758,103759,103760,103761,103762,103763,103764,103765,103766,103767,103768,103769,103770,103771,103772,103773,103774,103775,103776,103777,103778,103779,103780,103781,103782,103783,103784,103785,103786,103787,103788,103789,103790,103791,103792,103793,103794,103795,103741,103742,103743,103744,103745,103746,103747,103748,103749,103750,103751,103752,103753,103754,103755,103756,103757,103758,103759,95009,95009,95010,95011,95012,95013,95009,95009,95010,95011,95012,95013
</data>
 </layer>
 <layer id="3" name="2" width="308" height="81">
  <data encoding="csv">
0,0,0,0,0,0,0,0,0,0,0,0,0,0,0,0,0,0,0,0,0,0,0,0,0,0,0,0,0,0,0,0,0,0,0,0,0,0,0,0,0,0,0,0,0,0,0,0,0,0,0,0,0,0,0,0,0,0,0,0,0,0,0,0,0,0,0,0,0,0,0,0,0,0,0,0,0,0,0,0,0,0,0,0,0,0,0,0,0,0,0,0,0,0,0,0,0,0,0,0,0,0,0,0,0,0,0,0,0,0,0,0,0,0,0,0,0,0,0,0,0,0,0,0,0,0,0,0,0,0,0,0,0,0,0,0,0,0,0,0,0,0,0,0,0,0,0,0,0,0,0,0,0,0,0,0,0,0,0,0,0,0,0,0,0,0,0,0,0,0,0,0,0,0,0,0,0,0,0,0,0,0,0,0,0,0,0,0,0,0,0,0,0,0,0,0,0,0,0,0,0,0,0,0,0,0,0,0,0,0,0,0,0,0,0,0,0,0,0,0,0,0,0,0,0,0,0,0,0,0,0,0,0,0,0,0,0,0,0,0,0,0,0,0,0,0,0,0,0,0,0,0,0,0,0,0,0,0,0,0,0,0,0,0,0,0,0,0,0,0,0,0,0,0,0,0,0,0,0,0,0,0,0,0,0,0,0,0,0,0,0,0,0,0,0,0,0,0,0,0,0,0,0,0,0,0,0,0,
0,0,0,0,0,0,0,0,0,0,0,0,0,0,0,0,0,0,0,0,0,0,0,0,0,0,0,0,0,0,0,0,0,0,0,0,0,0,0,0,0,0,0,0,0,0,0,0,0,0,0,0,0,0,0,0,0,0,0,0,0,0,0,0,0,0,0,0,0,0,0,0,0,0,0,0,0,0,0,0,0,0,0,0,0,0,0,0,0,0,0,0,0,0,0,0,0,0,0,0,0,0,0,0,0,0,0,0,0,0,0,0,0,0,0,0,0,0,0,0,0,0,0,0,0,0,0,0,0,0,0,0,0,0,0,0,0,0,0,0,0,0,0,0,0,0,0,0,0,0,0,0,0,0,0,0,0,0,0,0,0,0,0,0,0,0,0,0,0,0,0,0,0,0,0,0,0,0,0,0,0,0,0,0,0,0,0,0,0,0,0,0,0,0,0,0,0,0,0,0,0,0,0,0,0,0,0,0,0,0,0,0,0,0,0,0,0,0,0,0,0,0,0,0,0,0,0,0,0,0,0,0,0,0,0,0,0,0,0,0,0,0,0,0,0,0,0,0,0,0,0,0,0,0,0,0,0,0,0,0,0,0,0,0,0,0,0,0,0,0,0,0,0,0,0,0,0,0,0,0,0,0,0,0,0,0,0,0,0,0,0,0,0,0,0,0,0,0,0,0,0,0,0,0,0,0,0,0,
0,0,0,0,0,0,0,0,0,0,0,0,0,0,0,0,0,0,0,0,0,0,0,0,0,0,0,0,0,0,0,0,0,0,0,0,0,0,0,0,0,0,0,0,0,0,0,0,0,0,0,0,0,0,0,0,0,0,0,0,0,0,0,0,0,0,0,0,0,0,0,0,0,0,0,0,0,0,0,0,0,0,0,0,0,0,0,0,0,0,0,0,0,0,0,0,0,0,0,0,0,0,0,0,0,0,0,0,0,0,0,0,0,0,0,0,0,0,0,0,0,0,0,0,0,0,0,0,0,0,0,0,0,0,0,0,0,0,0,0,0,0,0,0,0,0,0,0,0,0,0,0,0,0,0,0,0,0,0,0,0,0,0,0,0,0,0,0,0,0,0,0,0,0,0,0,0,0,0,0,0,0,0,0,0,0,0,0,0,0,0,0,0,0,0,0,0,0,0,0,0,0,0,0,0,0,0,0,0,0,0,0,0,0,0,0,0,0,0,0,0,0,0,0,0,0,0,0,0,0,0,0,0,0,0,0,0,0,0,0,0,0,0,0,0,0,0,0,0,0,0,0,0,0,0,0,0,0,0,0,0,0,0,0,0,0,0,0,0,0,0,0,0,0,0,0,0,0,0,0,0,0,0,0,0,0,0,0,0,0,0,0,0,0,0,0,0,0,0,0,0,0,0,0,0,0,0,0,
0,0,0,0,0,0,0,0,0,0,0,0,0,0,0,0,0,0,0,0,0,0,0,0,0,0,0,0,0,0,0,0,0,0,0,0,0,0,0,0,0,0,0,0,0,0,0,0,0,0,0,0,0,0,0,0,0,0,0,0,0,0,0,0,0,0,0,0,0,0,0,0,0,0,0,0,0,0,0,0,0,0,0,0,0,0,0,0,0,0,0,0,0,0,0,0,0,0,0,0,0,0,0,0,0,0,0,0,0,0,0,0,0,0,0,0,0,0,0,0,0,0,0,0,0,0,0,0,0,0,0,0,0,0,0,0,0,0,0,0,0,0,0,0,0,0,0,0,0,0,0,0,0,0,0,0,0,0,0,0,0,0,0,0,0,0,0,0,0,0,0,0,0,0,0,0,0,0,0,0,0,0,0,0,0,0,0,0,0,0,0,0,0,0,0,0,0,0,0,0,0,0,0,0,0,0,0,0,0,0,0,0,0,0,0,0,0,0,0,0,0,0,0,0,0,0,0,0,0,0,0,0,0,0,0,0,0,0,0,0,0,0,0,0,0,0,0,0,0,0,0,0,0,0,0,0,0,0,0,0,0,0,0,0,0,0,0,0,0,0,0,0,0,0,0,0,0,0,0,0,0,0,0,0,0,0,0,0,0,0,0,0,0,0,0,0,0,0,0,0,0,0,0,0,0,0,0,0,
0,0,0,0,0,0,0,0,0,0,0,0,0,0,0,0,0,0,0,0,0,0,0,0,0,0,0,0,0,0,0,0,0,0,0,0,0,0,0,0,0,0,0,0,0,0,0,0,0,0,0,0,0,0,0,0,0,0,0,0,0,0,0,0,0,0,0,0,0,0,0,0,0,0,0,0,0,0,0,0,0,0,0,0,0,0,0,0,0,0,0,0,0,0,0,0,0,0,0,0,0,0,0,0,0,0,0,0,0,0,0,0,0,0,0,0,0,0,0,0,0,0,0,0,0,0,0,0,0,0,0,0,0,0,0,0,0,0,0,0,0,0,0,0,0,0,0,0,0,0,0,0,0,0,0,0,0,0,0,0,0,0,0,0,0,0,0,0,0,0,0,0,0,0,0,0,0,0,0,0,0,0,0,0,0,0,0,0,0,0,0,0,0,0,0,0,0,0,0,0,0,0,0,0,0,0,0,0,0,0,0,0,0,0,0,0,0,0,0,0,0,0,0,0,0,0,0,0,0,0,0,0,0,0,0,0,0,0,0,0,0,0,0,0,0,0,0,0,0,0,0,0,0,0,0,0,0,0,0,0,0,0,0,0,0,0,0,0,0,0,0,0,0,0,0,0,0,0,0,0,0,0,0,0,0,0,0,0,0,0,0,0,0,0,0,0,0,0,0,0,0,0,0,0,0,0,0,0,
0,0,0,0,0,0,0,0,0,0,0,0,0,0,0,0,0,0,0,0,0,0,0,0,0,0,0,0,0,0,0,0,0,0,0,0,0,0,0,0,0,0,0,0,0,0,0,0,0,0,0,0,0,0,0,0,0,0,0,0,0,0,0,0,0,0,0,0,0,0,0,0,0,0,0,0,0,0,0,0,0,0,0,0,0,0,0,0,0,0,0,0,0,0,0,0,0,0,0,0,0,0,0,0,0,0,0,0,0,0,0,0,0,0,0,0,0,0,0,0,0,0,0,0,0,0,0,0,0,0,0,0,0,0,0,0,0,0,0,0,0,0,0,0,0,0,0,0,0,0,0,0,0,0,0,0,0,0,0,0,0,0,0,0,0,0,0,0,0,0,0,0,0,0,0,0,0,0,0,0,0,0,0,0,0,0,0,0,0,0,0,0,0,0,0,0,0,0,0,0,0,0,0,0,0,0,0,0,0,0,0,0,0,0,0,0,0,0,0,0,0,0,0,0,0,0,0,0,0,0,0,0,0,0,0,0,0,0,0,0,0,0,0,0,0,0,0,0,0,0,0,0,0,0,0,0,0,0,0,0,0,0,0,0,0,0,0,0,0,0,0,0,0,0,0,0,0,0,0,0,0,0,0,0,0,0,0,0,0,0,0,0,0,0,0,0,0,0,0,0,0,0,0,0,0,0,0,0,
0,0,0,0,0,0,0,0,0,0,0,0,0,0,0,0,0,0,0,0,0,0,0,0,0,0,0,0,0,0,0,0,0,0,0,0,0,0,0,0,0,0,0,0,0,0,0,0,0,0,0,0,0,0,0,0,0,0,0,0,0,0,0,0,0,0,0,0,0,0,0,0,0,0,0,0,0,0,0,0,0,0,0,0,0,0,0,0,0,0,0,0,0,0,0,0,0,0,0,0,0,0,0,0,0,0,0,0,0,0,0,0,0,0,0,0,0,0,0,0,0,0,0,0,0,0,0,0,0,0,0,0,0,0,0,0,0,0,0,0,0,0,0,0,0,0,0,0,0,0,0,0,0,0,0,0,0,0,0,0,0,0,0,0,0,0,0,0,0,0,0,0,0,0,0,0,0,0,0,0,0,0,0,0,0,0,0,0,0,0,0,0,0,0,0,0,0,0,0,0,0,0,0,0,0,0,0,0,0,0,0,0,0,0,0,0,0,0,0,0,0,0,0,0,0,0,0,0,0,0,0,0,0,0,0,0,0,0,0,0,0,0,0,0,0,0,0,0,0,0,0,0,0,0,0,0,0,0,0,0,0,0,0,0,0,0,0,0,0,0,0,0,0,0,0,0,0,0,0,0,0,0,0,0,0,0,0,0,0,0,0,0,0,0,0,0,0,0,0,0,0,0,0,0,0,0,0,0,
0,0,0,0,0,0,0,0,0,0,0,0,0,0,0,0,0,0,0,0,0,0,0,0,0,0,0,0,0,0,0,0,0,0,0,0,0,0,0,0,0,0,0,0,0,0,0,0,0,0,0,0,0,0,0,0,0,0,0,0,0,0,0,0,0,0,0,0,0,0,0,0,0,0,0,0,0,0,0,0,0,0,0,0,0,0,0,0,0,0,0,0,0,0,0,0,0,0,0,0,0,0,0,0,0,0,0,0,0,0,0,0,0,0,0,0,0,0,0,0,0,0,0,0,0,0,0,0,0,0,0,0,0,0,0,0,0,0,0,0,0,0,0,0,0,0,0,0,0,0,0,0,0,0,0,0,0,0,0,0,0,0,0,0,0,0,0,0,0,0,0,0,0,0,0,0,0,0,0,0,0,0,0,0,0,0,0,0,0,0,0,0,0,0,0,0,0,0,0,0,0,0,0,0,0,0,0,0,0,0,0,0,0,0,0,0,0,0,0,0,0,0,0,0,0,0,0,0,0,0,0,0,0,0,0,0,0,0,0,0,0,0,0,0,0,0,0,0,0,0,0,0,0,0,0,0,0,0,0,0,0,0,0,0,0,0,0,0,0,0,0,0,0,0,0,0,0,0,0,0,0,0,0,0,0,0,0,0,0,0,0,0,0,0,0,0,0,0,0,0,0,0,0,0,0,0,0,0,
1333,1333,1334,1335,1336,1337,1338,1339,1340,1341,1342,1343,1344,1345,1346,1347,1348,1349,1350,1351,1340,1341,1342,1343,1344,1345,1346,1347,1348,1349,1350,1351,1333,1333,1334,1335,1336,1337,1338,1339,1340,1341,1342,1343,1344,1345,1346,1347,1348,1349,1350,1351,1352,1353,1354,1355,1356,1357,1358,1359,1333,1333,1334,1335,1336,1337,1338,1339,1340,1341,1342,1343,1344,1345,1346,1347,1348,1349,1350,1351,1352,1353,1354,1355,1356,1357,1358,1359,1360,1361,1362,1363,1364,1365,1366,1367,1368,1369,1370,1371,1372,1373,1333,1334,1335,1336,1337,1338,1339,1340,1341,1342,1343,1344,1345,1346,1347,1348,1349,1350,1351,1352,1353,1354,1355,1356,1357,1358,1359,1360,1361,1362,1363,1364,1365,1366,1367,1368,1369,1370,1371,1372,1373,1374,1375,1376,1377,1378,1379,1380,1381,1382,1383,1384,1385,1386,1387,1388,1389,1390,1391,1392,1393,1394,1395,1396,1397,1398,1399,1400,1401,1402,1403,1404,1405,1406,1407,1408,1409,1451,1452,1453,1454,1455,1456,1457,1458,1459,1460,1461,1462,1463,1464,1465,1466,1333,1334,1335,1336,1337,1338,1339,1340,1341,1342,1343,1344,1345,1346,1347,1348,1349,1350,1351,1352,1353,1354,1355,1356,1357,1358,1359,1360,1361,1362,1363,1364,1365,1366,1367,1368,1369,1370,1371,1372,1373,1374,1375,1376,1377,1378,1379,1380,1381,1382,1383,1384,1385,1386,1387,1333,1334,1335,1336,1337,1338,1339,1340,1341,1342,1343,1344,1345,1346,1347,1348,1349,1350,1351,1352,1353,1354,1355,1356,1357,1358,1359,1360,1361,1362,1363,1364,1365,1366,1367,1368,1369,1370,1371,1333,1334,1335,1336,1337,1338,1339,1185,1185,1186,1187,1188,1189,1185,1185,1186,1187,1188,1189,
1481,1481,1482,1483,1484,1485,1486,1487,1488,1489,1490,1491,1492,1493,1494,1495,1496,1497,1498,1499,1488,1489,1490,1491,1492,1493,1494,1495,1496,1497,1498,1499,1481,1481,1482,1483,1484,1485,1486,1487,1488,1489,1490,1491,1492,1493,1494,1495,1496,1497,1498,1499,1500,1501,1502,1503,1504,1505,1506,1507,1481,1481,1482,1483,1484,1485,1486,1487,1488,1489,1490,1491,1492,1493,1494,1495,1496,1497,1498,1499,1500,1501,1502,1503,1504,1505,1506,1507,1508,1509,1510,1511,1512,1513,1514,1515,1516,1517,1518,1519,1520,1521,1481,1482,1483,1484,1485,1486,1487,1488,1489,1490,1491,1492,1493,1494,1495,1496,1497,1498,1499,1500,1501,1502,1503,1504,1505,1506,1507,1508,1509,1510,1511,1512,1513,1514,1515,1516,1517,1518,1519,1520,1521,1522,1523,1524,1525,1526,1527,1528,1529,1530,1531,1532,1533,1534,1535,1536,1537,1538,1539,1540,1541,1542,1543,1544,1545,1546,1547,1548,1549,1550,1551,1552,1553,1554,1555,1556,1557,1599,1600,1601,1602,1603,1604,1605,1606,1607,1608,1609,1610,1611,1612,1613,1614,1481,1482,1483,1484,1485,1486,1487,1488,1489,1490,1491,1492,1493,1494,1495,1496,1497,1498,1499,1500,1501,1502,1503,1504,1505,1506,1507,1508,1509,1510,1511,1512,1513,1514,1515,1516,1517,1518,1519,1520,1521,1522,1523,1524,1525,1526,1527,1528,1529,1530,1531,1532,1533,1534,1535,1481,1482,1483,1484,1485,1486,1487,1488,1489,1490,1491,1492,1493,1494,1495,1496,1497,1498,1499,1500,1501,1502,1503,1504,1505,1506,1507,1508,1509,1510,1511,1512,1513,1514,1515,1516,1517,1518,1519,1481,1482,1483,1484,1485,1486,1487,1333,1333,1334,1335,1336,1337,1333,1333,1334,1335,1336,1337,
1629,1629,1630,1631,1632,1633,1634,1635,1636,1637,1638,1639,1640,1641,1642,1643,1644,1645,1646,1647,1636,1637,1638,1639,1640,1641,1642,1643,1644,1645,1646,1647,1629,1629,1630,1631,1632,1633,1634,1635,1636,1637,1638,1639,1640,1641,1642,1643,1644,1645,1646,1647,1648,1649,1650,1651,1652,1653,1654,1655,1629,1629,1630,1631,1632,1633,1634,1635,1636,1637,1638,1639,1640,1641,1642,1643,1644,1645,1646,1647,1648,1649,1650,1651,1652,1653,1654,1655,1656,1657,1658,1659,1660,1661,1662,1663,1664,1665,1666,1667,1668,1669,1629,1630,1631,1632,1633,1634,1635,1636,1637,1638,1639,1640,1641,1642,1643,1644,1645,1646,1647,1648,1649,1650,1651,1652,1653,1654,1655,1656,1657,1658,1659,1660,1661,1662,1663,1664,1665,1666,1667,1668,1669,1670,1671,1672,1673,1674,1675,1676,1677,1678,1679,1680,1681,1682,1683,1684,1685,1686,1687,1688,1689,1690,1691,1692,1693,1694,1695,1696,1697,1698,1699,1700,1701,1702,1703,1704,1705,1747,1748,1749,1750,1751,1752,1753,1754,1755,1756,1757,1758,1759,1760,1761,1762,1629,1630,1631,1632,1633,1634,1635,1636,1637,1638,1639,1640,1641,1642,1643,1644,1645,1646,1647,1648,1649,1650,1651,1652,1653,1654,1655,1656,1657,1658,1659,1660,1661,1662,1663,1664,1665,1666,1667,1668,1669,1670,1671,1672,1673,1674,1675,1676,1677,1678,1679,1680,1681,1682,1683,1629,1630,1631,1632,1633,1634,1635,1636,1637,1638,1639,1640,1641,1642,1643,1644,1645,1646,1647,1648,1649,1650,1651,1652,1653,1654,1655,1656,1657,1658,1659,1660,1661,1662,1663,1664,1665,1666,1667,1629,1630,1631,1632,1633,1634,1635,1481,1481,1482,1483,1484,1485,1481,1481,1482,1483,1484,1485,
1777,1777,1778,1779,1780,1781,1782,1783,1784,1785,1786,1787,1788,1789,1790,1791,1792,1793,1794,1795,1784,1785,1786,1787,1788,1789,1790,1791,1792,1793,1794,1795,1777,1777,1778,1779,1780,1781,1782,1783,1784,1785,1786,1787,1788,1789,1790,1791,1792,1793,1794,1795,1796,1797,1798,1799,1800,1801,1802,1803,1777,1777,1778,1779,1780,1781,1782,1783,1784,1785,1786,1787,1788,1789,1790,1791,1792,1793,1794,1795,1796,1797,1798,1799,1800,1801,1802,1803,1804,1805,1806,1807,1808,1809,1810,1811,1812,1813,1814,1815,1816,1817,1777,1778,1779,1780,1781,1782,1783,1784,1785,1786,1787,1788,1789,1790,1791,1792,1793,1794,1795,1796,1797,1798,1799,1800,1801,1802,1803,1804,1805,1806,1807,1808,1809,1810,1811,1812,1813,1814,1815,1816,1817,1818,1819,1820,1821,1822,1823,1824,1825,1826,1827,1828,1829,1830,1831,1832,1833,1834,1835,1836,1837,1838,1839,1840,1841,1842,1843,1844,1845,1846,1847,1848,1849,1850,1851,1852,1853,1895,1896,1897,1898,1899,1900,1901,1902,1903,1904,1905,1906,1907,1908,1909,1910,1777,1778,1779,1780,1781,1782,1783,1784,1785,1786,1787,1788,1789,1790,1791,1792,1793,1794,1795,1796,1797,1798,1799,1800,1801,1802,1803,1804,1805,1806,1807,1808,1809,1810,1811,1812,1813,1814,1815,1816,1817,1818,1819,1820,1821,1822,1823,1824,1825,1826,1827,1828,1829,1830,1831,1777,1778,1779,1780,1781,1782,1783,1784,1785,1786,1787,1788,1789,1790,1791,1792,1793,1794,1795,1796,1797,1798,1799,1800,1801,1802,1803,1804,1805,1806,1807,1808,1809,1810,1811,1812,1813,1814,1815,1777,1778,1779,1780,1781,1782,1783,1629,1629,1630,1631,1632,1633,1629,1629,1630,1631,1632,1633,
1925,1925,1926,1927,1928,1929,1930,1931,1932,1933,1934,1935,1936,1937,1938,1939,1940,1941,1942,1943,1932,1933,1934,1935,1936,1937,1938,1939,1940,1941,1942,1943,1925,1925,1926,1927,1928,1929,1930,1931,1932,1933,1934,1935,1936,1937,1938,1939,1940,1941,1942,1943,1944,1945,1946,1947,1948,1949,1950,1951,1925,1925,1926,1927,1928,1929,1930,1931,1932,1933,1934,1935,1936,1937,1938,1939,1940,1941,1942,1943,1944,1945,1946,1947,1948,1949,1950,1951,1952,1953,1954,1955,1956,1957,1958,1959,1960,1961,1962,1963,1964,1965,1925,1926,1927,1928,1929,1930,1931,1932,1933,1934,1935,1936,1937,1938,1939,1940,1941,1942,1943,1944,1945,1946,1947,1948,1949,1950,1951,1952,1953,1954,1955,1956,1957,1958,1959,1960,1961,1962,1963,1964,1965,1966,1967,1968,1969,1970,1971,1972,1973,1974,1975,1976,1977,1978,1979,1980,1981,1982,1983,1984,1985,1986,1987,1988,1989,1990,1991,1992,1993,1994,1995,1996,1997,1998,1999,2000,2001,2043,2044,2045,2046,2047,2048,2049,2050,2051,2052,2053,2054,2055,2056,2057,2058,1925,1926,1927,1928,1929,1930,1931,1932,1933,1934,1935,1936,1937,1938,1939,1940,1941,1942,1943,1944,1945,1946,1947,1948,1949,1950,1951,1952,1953,1954,1955,1956,1957,1958,1959,1960,1961,1962,1963,1964,1965,1966,1967,1968,1969,1970,1971,1972,1973,1974,1975,1976,1977,1978,1979,1925,1926,1927,1928,1929,1930,1931,1932,1933,1934,1935,1936,1937,1938,1939,1940,1941,1942,1943,1944,1945,1946,1947,1948,1949,1950,1951,1952,1953,1954,1955,1956,1957,1958,1959,1960,1961,1962,1963,1925,1926,1927,1928,1929,1930,1931,1777,1777,1778,1779,1780,1781,1777,1777,1778,1779,1780,1781,
2073,2073,2074,2075,2076,2077,2078,2079,2080,2081,2082,2083,2084,2085,2086,2087,2088,2089,2090,2091,2080,2081,2082,2083,2084,2085,2086,2087,2088,2089,2090,2091,2073,2073,2074,2075,2076,2077,2078,2079,2080,2081,2082,2083,2084,2085,2086,2087,2088,2089,2090,2091,2092,2093,2094,2095,2096,2097,2098,2099,2073,2073,2074,2075,2076,2077,2078,2079,2080,2081,2082,2083,2084,2085,2086,2087,2088,2089,2090,2091,2092,2093,2094,2095,2096,2097,2098,2099,2100,2101,2102,2103,2104,2105,2106,2107,2108,2109,2110,2111,2112,2113,2073,2074,2075,2076,2077,2078,2079,2080,2081,2082,2083,2084,2085,2086,2087,2088,2089,2090,2091,2092,2093,2094,2095,2096,2097,2098,2099,2100,2101,2102,2103,2104,2105,2106,2107,2108,2109,2110,2111,2112,2113,2114,2115,2116,2117,2118,2119,2120,2121,2122,2123,2124,2125,2126,2127,2128,2129,2130,2131,2132,2133,2134,2135,2136,2137,2138,2139,2140,2141,2142,2143,2144,2145,2146,2147,2148,2149,2191,2192,2193,2194,2195,2196,2197,2198,2199,2200,2201,2202,2203,2204,2205,2206,2073,2074,2075,2076,2077,2078,2079,2080,2081,2082,2083,2084,2085,2086,2087,2088,2089,2090,2091,2092,2093,2094,2095,2096,2097,2098,2099,2100,2101,2102,2103,2104,2105,2106,2107,2108,2109,2110,2111,2112,2113,2114,2115,2116,2117,2118,2119,2120,2121,2122,2123,2124,2125,2126,2127,2073,2074,2075,2076,2077,2078,2079,2080,2081,2082,2083,2084,2085,2086,2087,2088,2089,2090,2091,2092,2093,2094,2095,2096,2097,2098,2099,2100,2101,2102,2103,2104,2105,2106,2107,2108,2109,2110,2111,2073,2074,2075,2076,2077,2078,2079,1925,1925,1926,1927,1928,1929,1925,1925,1926,1927,1928,1929,
2221,2221,2222,2223,2224,2225,2226,2227,2228,2229,2230,2231,2232,2233,2234,2235,2236,2237,2238,2239,2228,2229,2230,2231,2232,2233,2234,2235,2236,2237,2238,2239,2221,2221,2222,2223,2224,2225,2226,2227,2228,2229,2230,2231,2232,2233,2234,2235,2236,2237,2238,2239,2240,2241,2242,2243,2244,2245,2246,2247,2221,2221,2222,2223,2224,2225,2226,2227,2228,2229,2230,2231,2232,2233,2234,2235,2236,2237,2238,2239,2240,2241,2242,2243,2244,2245,2246,2247,2248,2249,2250,2251,2252,2253,2254,2255,2256,2257,2258,2259,2260,2261,2221,2222,2223,2224,2225,2226,2227,2228,2229,2230,2231,2232,2233,2234,2235,2236,2237,2238,2239,2240,2241,2242,2243,2244,2245,2246,2247,2248,2249,2250,2251,2252,2253,2254,2255,2256,2257,2258,2259,2260,2261,2262,2263,2264,2265,2266,2267,2268,2269,2270,2271,2272,2273,2274,2275,2276,2277,2278,2279,2280,2281,2282,2283,2284,2285,2286,2287,2288,2289,2290,2291,2292,2293,2294,2295,2296,2297,2339,2340,2341,2342,2343,2344,2345,2346,2347,2348,2349,2350,2351,2352,2353,2354,2221,2222,2223,2224,2225,2226,2227,2228,2229,2230,2231,2232,2233,2234,2235,2236,2237,2238,2239,2240,2241,2242,2243,2244,2245,2246,2247,2248,2249,2250,2251,2252,2253,2254,2255,2256,2257,2258,2259,2260,2261,2262,2263,2264,2265,2266,2267,2268,2269,2270,2271,2272,2273,2274,2275,2221,2222,2223,2224,2225,2226,2227,2228,2229,2230,2231,2232,2233,2234,2235,2236,2237,2238,2239,2240,2241,2242,2243,2244,2245,2246,2247,2248,2249,2250,2251,2252,2253,2254,2255,2256,2257,2258,2259,2221,2222,2223,2224,2225,2226,2227,2073,2073,2074,2075,2076,2077,2073,2073,2074,2075,2076,2077,
2369,2369,2370,2371,2372,2373,2374,2375,2376,2377,2378,2379,2380,2381,2382,2383,2384,2385,2386,2387,2376,2377,2378,2379,2380,2381,2382,2383,2384,2385,2386,2387,2369,2369,2370,2371,2372,2373,2374,2375,2376,2377,2378,2379,2380,2381,2382,2383,2384,2385,2386,2387,2388,2389,2390,2391,2392,2393,2394,2395,2369,2369,2370,2371,2372,2373,2374,2375,2376,2377,2378,2379,2380,2381,2382,2383,2384,2385,2386,2387,2388,2389,2390,2391,2392,2393,2394,2395,2396,2397,2398,2399,2400,2401,2402,2403,2404,2405,2406,2407,2408,2409,2369,2370,2371,2372,2373,2374,2375,2376,2377,2378,2379,2380,2381,2382,2383,2384,2385,2386,2387,2388,2389,2390,2391,2392,2393,2394,2395,2396,2397,2398,2399,2400,2401,2402,2403,2404,2405,2406,2407,2408,2409,2410,2411,2412,2413,2414,2415,2416,2417,2418,2419,2420,2421,2422,2423,2424,2425,2426,2427,2428,2429,2430,2431,2432,2433,2434,2435,2436,2437,2438,2439,2440,2441,2442,2443,2444,2445,2487,2488,2489,2490,2491,2492,2493,2494,2495,2496,2497,2498,2499,2500,2501,2502,2369,2370,2371,2372,2373,2374,2375,2376,2377,2378,2379,2380,2381,2382,2383,2384,2385,2386,2387,2388,2389,2390,2391,2392,2393,2394,2395,2396,2397,2398,2399,2400,2401,2402,2403,2404,2405,2406,2407,2408,2409,2410,2411,2412,2413,2414,2415,2416,2417,2418,2419,2420,2421,2422,2423,2369,2370,2371,2372,2373,2374,2375,2376,2377,2378,2379,2380,2381,2382,2383,2384,2385,2386,2387,2388,2389,2390,2391,2392,2393,2394,2395,2396,2397,2398,2399,2400,2401,2402,2403,2404,2405,2406,2407,2369,2370,2371,2372,2373,2374,2375,2221,2221,2222,2223,2224,2225,2221,2221,2222,2223,2224,2225,
2517,2517,2518,2519,2520,2521,2522,2523,2524,2525,2526,2527,2528,2529,2530,2531,2532,2533,2534,2535,2524,2525,2526,2527,2528,2529,2530,2531,2532,2533,2534,2535,2517,2517,2518,2519,2520,2521,2522,2523,2524,2525,2526,2527,2528,2529,2530,2531,2532,2533,2534,2535,2536,2537,2538,2539,2540,2541,2542,2543,2517,2517,2518,2519,2520,2521,2522,2523,2524,2525,2526,2527,2528,2529,2530,2531,2532,2533,2534,2535,2536,2537,2538,2539,2540,2541,2542,2543,2544,2545,2546,2547,2548,2549,2550,2551,2552,2553,2554,2555,2556,2557,2517,2518,2519,2520,2521,2522,2523,2524,2525,2526,2527,2528,2529,2530,2531,2532,2533,2534,2535,2536,2537,2538,2539,2540,2541,2542,2543,2544,2545,2546,2547,2548,2549,2550,2551,2552,2553,2554,2555,2556,2557,2558,2559,2560,2561,2562,2563,2564,2565,2566,2567,2568,2569,2570,2571,2572,2573,2574,2575,2576,2577,2578,2579,2580,2581,2582,2583,2584,2585,2586,2587,2588,2589,2590,2591,2592,2593,2635,2636,2637,2638,2639,2640,2641,2642,2643,2644,2645,2646,2647,2648,2649,2650,2517,2518,2519,2520,2521,2522,2523,2524,2525,2526,2527,2528,2529,2530,2531,2532,2533,2534,2535,2536,2537,2538,2539,2540,2541,2542,2543,2544,2545,2546,2547,2548,2549,2550,2551,2552,2553,2554,2555,2556,2557,2558,2559,2560,2561,2562,2563,2564,2565,2566,2567,2568,2569,2570,2571,2517,2518,2519,2520,2521,2522,2523,2524,2525,2526,2527,2528,2529,2530,2531,2532,2533,2534,2535,2536,2537,2538,2539,2540,2541,2542,2543,2544,2545,2546,2547,2548,2549,2550,2551,2552,2553,2554,2555,2517,2518,2519,2520,2521,2522,2523,1185,1185,1186,1187,1188,1189,1185,1185,1186,1187,1188,1189,
1185,1185,1186,1187,1188,1189,1190,1191,1192,1193,1194,1195,1196,1197,1198,1199,1200,1201,1202,1203,1192,1193,1194,1195,1196,1197,1198,1199,1200,1201,1202,1203,1185,1185,1186,1187,1188,1189,1190,1191,1192,1193,1194,1195,1196,1197,1198,1199,1200,1201,1202,1203,1204,1205,1206,1207,1208,1209,1210,1211,1212,1213,1214,1215,1216,1217,1218,1219,1220,1221,1222,1223,1224,1225,1185,1186,1187,1188,1189,1190,1191,1192,1193,1194,1195,1196,1197,1198,1199,1200,1201,1202,1203,1204,1205,1206,1207,1208,1209,1210,1211,1212,1213,1214,1215,1216,1217,1218,1219,1220,1221,1222,1223,1224,1225,1226,1227,1228,1229,1230,1231,1232,1233,1234,1235,1236,1237,1238,1239,1240,1241,1242,1243,1244,1245,1246,1247,1248,1249,1250,1251,1252,1253,1254,1255,1256,1257,1258,1259,1260,1261,1303,1304,1305,1306,1307,1308,1309,1310,1311,1312,1313,1314,1315,1316,1317,1318,1185,1186,1187,1188,1189,1190,1191,1192,1193,1194,1195,1196,1197,1198,1199,1200,1201,1202,1203,1204,1205,1206,1207,1208,1209,1210,1211,1212,1213,1214,1215,1216,1217,1218,1219,1220,1221,1222,1223,1224,1225,1226,1227,1228,1229,1230,1231,1232,1233,1234,1235,1236,1237,1238,1239,1185,1186,1187,1188,1189,1190,1191,1192,1193,1194,1195,1196,1197,1198,1199,1200,1201,1202,1203,1204,1205,1206,1207,1208,1209,1210,1211,1212,1213,1214,1215,1216,1217,1218,1219,1220,1221,1222,1223,1185,1186,1187,1188,1189,1190,1191,1192,1193,1194,1195,1196,1197,1198,1199,1200,1201,1202,1203,1204,1205,1206,1207,1208,1209,1193,1194,1195,1196,1197,1198,1199,1200,1201,1202,1333,1333,1334,1335,1336,1337,1333,1333,1334,1335,1336,1337,
1333,1333,1334,1335,1336,1337,1338,1339,1340,1341,1342,1343,1344,1345,1346,1347,1348,1349,1350,1351,1340,1341,1342,1343,1344,1345,1346,1347,1348,1349,1350,1351,1333,1333,1334,1335,1336,1337,1338,1339,1340,1341,1342,1343,1344,1345,1346,1347,1348,1349,1350,1351,1352,1353,1354,1355,1356,1357,1358,1359,1360,1361,1362,1363,1364,1365,1366,1367,1368,1369,1370,1371,1372,1373,1333,1334,1335,1336,1337,1338,1339,1340,1341,1342,1343,1344,1345,1346,1347,1348,1349,1350,1351,1352,1353,1354,1355,1356,1357,1358,1359,1360,1361,1362,1363,1364,1365,1366,1367,1368,1369,1370,1371,1372,1373,1374,1375,1376,1377,1378,1379,1380,1381,1382,1383,1384,1385,1386,1387,1388,1389,1390,1391,1392,1393,1394,1395,1396,1397,1398,1399,1400,1401,1402,1403,1404,1405,1406,1407,1408,1409,1451,1452,1453,1454,1455,1456,1457,1458,1459,1460,1461,1462,1463,1464,1465,1466,1333,1334,1335,1336,1337,1338,1339,1340,1341,1342,1343,1344,1345,1346,1347,1348,1349,1350,1351,1352,1353,1354,1355,1356,1357,1358,1359,1360,1361,1362,1363,1364,1365,1366,1367,1368,1369,1370,1371,1372,1373,1374,1375,1376,1377,1378,1379,1380,1381,1382,1383,1384,1385,1386,1387,1333,1334,1335,1336,1337,1338,1339,1340,1341,1342,1343,1344,1345,1346,1347,1348,1349,1350,1351,1352,1353,1354,1355,1356,1357,1358,1359,1360,1361,1362,1363,1364,1365,1366,1367,1368,1369,1370,1371,1333,1334,1335,1336,1337,1338,1339,1340,1341,1342,1343,1344,1345,1346,1347,1348,1349,1350,1351,1352,1353,1354,1355,1356,1357,1341,1342,1343,1344,1345,1346,1347,1348,1349,1350,1481,1481,1482,1483,1484,1485,1481,1481,1482,1483,1484,1485,
1481,1481,1482,1483,1484,1485,1486,1487,1488,1489,1490,1491,1492,1493,1494,1495,1496,1497,1498,1499,1488,1489,1490,1491,1492,1493,1494,1495,1496,1497,1498,1499,1481,1481,1482,1483,1484,1485,1486,1487,1488,1489,1490,1491,1492,1493,1494,1495,1496,1497,1498,1499,1500,1501,1502,1503,1504,1505,1506,1507,1508,1509,1510,1511,1512,1513,1514,1515,1516,1517,1518,1519,1520,1521,1481,1482,1483,1484,1485,1486,1487,1488,1489,1490,1491,1492,1493,1494,1495,1496,1497,1498,1499,1500,1501,1502,1503,1504,1505,1506,1507,1508,1509,1510,1511,1512,1513,1514,1515,1516,1517,1518,1519,1520,1521,1522,1523,1524,1525,1526,1527,1528,1529,1530,1531,1532,1533,1534,1535,1536,1537,1538,1539,1540,1541,1542,1543,1544,1545,1546,1547,1548,1549,1550,1551,1552,1553,1554,1555,1556,1557,1599,1600,1601,1602,1603,1604,1605,1606,1607,1608,1609,1610,1611,1612,1613,1614,1481,1482,1483,1484,1485,1486,1487,1488,1489,1490,1491,1492,1493,1494,1495,1496,1497,1498,1499,1500,1501,1502,1503,1504,1505,1506,1507,1508,1509,1510,1511,1512,1513,1514,1515,1516,1517,1518,1519,1520,1521,1522,1523,1524,1525,1526,1527,1528,1529,1530,1531,1532,1533,1534,1535,1481,1482,1483,1484,1485,1486,1487,1488,1489,1490,1491,1492,1493,1494,1495,1496,1497,1498,1499,1500,1501,1502,1503,1504,1505,1506,1507,1508,1509,1510,1511,1512,1513,1514,1515,1516,1517,1518,1519,1481,1482,1483,1484,1485,1486,1487,1488,1489,1490,1491,1492,1493,1494,1495,1496,1497,1498,1499,1500,1501,1502,1503,1504,1505,1489,1490,1491,1492,1493,1494,1495,1496,1497,1498,1629,1629,1630,1631,1632,1633,1629,1629,1630,1631,1632,1633,
1629,1629,1630,1631,1632,1633,1634,1635,1636,1637,1638,1639,1640,1641,1642,1643,1644,1645,1646,1647,1636,1637,1638,1639,1640,1641,1642,1643,1644,1645,1646,1647,1629,1629,1630,1631,1632,1633,1634,1635,1636,1637,1638,1639,1640,1641,1642,1643,1644,1645,1646,1647,1648,1649,1650,1651,1652,1653,1654,1655,1656,1657,1658,1659,1660,1661,1662,1663,1664,1665,1666,1667,1668,1669,1629,1630,1631,1632,1633,1634,1635,1636,1637,1638,1639,1640,1641,1642,1643,1644,1645,1646,1647,1648,1649,1650,1651,1652,1653,1654,1655,1656,1657,1658,1659,1660,1661,1662,1663,1664,1665,1666,1667,1668,1669,1670,1671,1672,1673,1674,1675,1676,1677,1678,1679,1680,1681,1682,1683,1684,1685,1686,1687,1688,1689,1690,1691,1692,1693,1694,1695,1696,1697,1698,1699,1700,1701,1702,1703,1704,1705,1747,1748,1749,1750,1751,1752,1753,1754,1755,1756,1757,1758,1759,1760,1761,1762,1629,1630,1631,1632,1633,1634,1635,1636,1637,1638,1639,1640,1641,1642,1643,1644,1645,1646,1647,1648,1649,1650,1651,1652,1653,1654,1655,1656,1657,1658,1659,1660,1661,1662,1663,1664,1665,1666,1667,1668,1669,1670,1671,1672,1673,1674,1675,1676,1677,1678,1679,1680,1681,1682,1683,1629,1630,1631,1632,1633,1634,1635,1636,1637,1638,1639,1640,1641,1642,1643,1644,1645,1646,1647,1648,1649,1650,1651,1652,1653,1654,1655,1656,1657,1658,1659,1660,1661,1662,1663,1664,1665,1666,1667,1629,1630,1631,1632,1633,1634,1635,1636,1637,1638,1639,1640,1641,1642,1643,1644,1645,1646,1647,1648,1649,1650,1651,1652,1653,1637,1638,1639,1640,1641,1642,1643,1644,1645,1646,1777,1777,1778,1779,1780,1781,1777,1777,1778,1779,1780,1781,
1777,1777,1778,1779,1780,1781,1782,1783,1784,1785,1786,1787,1788,1789,1790,1791,1792,1793,1794,1795,1784,1785,1786,1787,1788,1789,1790,1791,1792,1793,1794,1795,1777,1777,1778,1779,1780,1781,1782,1783,1784,1785,1786,1787,1788,1789,1790,1791,1792,1793,1794,1795,1796,1797,1798,1799,1800,1801,1802,1803,1804,1805,1806,1807,1808,1809,1810,1811,1812,1813,1814,1815,1816,1817,1777,1778,1779,1780,1781,1782,1783,1784,1785,1786,1787,1788,1789,1790,1791,1792,1793,1794,1795,1796,1797,1798,1799,1800,1801,1802,1803,1804,1805,1806,1807,1808,1809,1810,1811,1812,1813,1814,1815,1816,1817,1818,1819,1820,1821,1822,1823,1824,1825,1826,1827,1828,1829,1830,1831,1832,1833,1834,1835,1836,1837,1838,1839,1840,1841,1842,1843,1844,1845,1846,1847,1848,1849,1850,1851,1852,1853,1895,1896,1897,1898,1899,1900,1901,1902,1903,1904,1905,1906,1907,1908,1909,1910,1777,1778,1779,1780,1781,1782,1783,1784,1785,1786,1787,1788,1789,1790,1791,1792,1793,1794,1795,1796,1797,1798,1799,1800,1801,1802,1803,1804,1805,1806,1807,1808,1809,1810,1811,1812,1813,1814,1815,1816,1817,1818,1819,1820,1821,1822,1823,1824,1825,1826,1827,1828,1829,1830,1831,1777,1778,1779,1780,1781,1782,1783,1784,1785,1786,1787,1788,1789,1790,1791,1792,1793,1794,1795,1796,1797,1798,1799,1800,1801,1802,1803,1804,1805,1806,1807,1808,1809,1810,1811,1812,1813,1814,1815,1777,1778,1779,1780,1781,1782,1783,1784,1785,1786,1787,1788,1789,1790,1791,1792,1793,1794,1795,1796,1797,1798,1799,1800,1801,1785,1786,1787,1788,1789,1790,1791,1792,1793,1794,1925,1925,1926,1927,1928,1929,1925,1925,1926,1927,1928,1929,
1925,1925,1926,1927,1928,1929,1930,1931,1932,1933,1934,1935,1936,1937,1938,1939,1940,1941,1942,1943,1932,1933,1934,1935,1936,1937,1938,1939,1940,1941,1942,1943,1925,1925,1926,1927,1928,1929,1930,1931,1932,1933,1934,1935,1936,1937,1938,1939,1940,1941,1942,1943,1944,1945,1946,1947,1948,1949,1950,1951,1952,1953,1954,1955,1956,1957,1958,1959,1960,1961,1962,1963,1964,1965,1925,1926,1927,1928,1929,1930,1931,1932,1933,1934,1935,1936,1937,1938,1939,1940,1941,1942,1943,1944,1945,1946,1947,1948,1949,1950,1951,1952,1953,1954,1955,1956,1957,1958,1959,1960,1961,1962,1963,1964,1965,1966,1967,1968,1969,1970,1971,1972,1973,1974,1975,1976,1977,1978,1979,1980,1981,1982,1983,1984,1985,1986,1987,1988,1989,1990,1991,1992,1993,1994,1995,1996,1997,1998,1999,2000,2001,2043,2044,2045,2046,2047,2048,2049,2050,2051,2052,2053,2054,2055,2056,2057,2058,1925,1926,1927,1928,1929,1930,1931,1932,1933,1934,1935,1936,1937,1938,1939,1940,1941,1942,1943,1944,1945,1946,1947,1948,1949,1950,1951,1952,1953,1954,1955,1956,1957,1958,1959,1960,1961,1962,1963,1964,1965,1966,1967,1968,1969,1970,1971,1972,1973,1974,1975,1976,1977,1978,1979,1925,1926,1927,1928,1929,1930,1931,1932,1933,1934,1935,1936,1937,1938,1939,1940,1941,1942,1943,1944,1945,1946,1947,1948,1949,1950,1951,1952,1953,1954,1955,1956,1957,1958,1959,1960,1961,1962,1963,1925,1926,1927,1928,1929,1930,1931,1932,1933,1934,1935,1936,1937,1938,1939,1940,1941,1942,1943,1944,1945,1946,1947,1948,1949,1933,1934,1935,1936,1937,1938,1939,1940,1941,1942,2073,2073,2074,2075,2076,2077,2073,2073,2074,2075,2076,2077,
2073,2073,2074,2075,2076,2077,2078,2079,2080,2081,2082,2083,2084,2085,2086,2087,2088,2089,2090,2091,2080,2081,2082,2083,2084,2085,2086,2087,2088,2089,2090,2091,2073,2073,2074,2075,2076,2077,2078,2079,2080,2081,2082,2083,2084,2085,2086,2087,2088,2089,2090,2091,2092,2093,2094,2095,2096,2097,2098,2099,2100,2101,2102,2103,2104,2105,2106,2107,2108,2109,2110,2111,2112,2113,2073,2074,2075,2076,2077,2078,2079,2080,2081,2082,2083,2084,2085,2086,2087,2088,2089,2090,2091,2092,2093,2094,2095,2096,2097,2098,2099,2100,2101,2102,2103,2104,2105,2106,2107,2108,2109,2110,2111,2112,2113,2114,2115,2116,2117,2118,2119,2120,2121,2122,2123,2124,2125,2126,2127,2128,2129,2130,2131,2132,2133,2134,2135,2136,2137,2138,2139,2140,2141,2142,2143,2144,2145,2146,2147,2148,2149,2191,2192,2193,2194,2195,2196,2197,2198,2199,2200,2201,2202,2203,2204,2205,2206,2073,2074,2075,2076,2077,2078,2079,2080,2081,2082,2083,2084,2085,2086,2087,2088,2089,2090,2091,2092,2093,2094,2095,2096,2097,2098,2099,2100,2101,2102,2103,2104,2105,2106,2107,2108,2109,2110,2111,2112,2113,2114,2115,2116,2117,2118,2119,2120,2121,2122,2123,2124,2125,2126,2127,2073,2074,2075,2076,2077,2078,2079,2080,2081,2082,2083,2084,2085,2086,2087,2088,2089,2090,2091,2092,2093,2094,2095,2096,2097,2098,2099,2100,2101,2102,2103,2104,2105,2106,2107,2108,2109,2110,2111,2073,2074,2075,2076,2077,2078,2079,2080,2081,2082,2083,2084,2085,2086,2087,2088,2089,2090,2091,2092,2093,2094,2095,2096,2097,2081,2082,2083,2084,2085,2086,2087,2088,2089,2090,2221,2221,2222,2223,2224,2225,2221,2221,2222,2223,2224,2225,
2221,2221,2222,2223,2224,2225,2226,2227,2228,2229,2230,2231,2232,2233,2234,2235,2236,2237,2238,2239,2228,2229,2230,2231,2232,2233,2234,2235,2236,2237,2238,2239,2221,2221,2222,2223,2224,2225,2226,2227,2228,2229,2230,2231,2232,2233,2234,2235,2236,2237,2238,2239,2240,2241,2242,2243,2244,2245,2246,2247,2248,2249,2250,2251,2252,2253,2254,2255,2256,2257,2258,2259,2260,2261,2221,2222,2223,2224,2225,2226,2227,2228,2229,2230,2231,2232,2233,2234,2235,2236,2237,2238,2239,2240,2241,2242,2243,2244,2245,2246,2247,2248,2249,2250,2251,2252,2253,2254,2255,2256,2257,2258,2259,2260,2261,2262,2263,2264,2265,2266,2267,2268,2269,2270,2271,2272,2273,2274,2275,2276,2277,2278,2279,2280,2281,2282,2283,2284,2285,2286,2287,2288,2289,2290,2291,2292,2293,2294,2295,2296,2297,2339,2340,2341,2342,2343,2344,2345,2346,2347,2348,2349,2350,2351,2352,2353,2354,2221,2222,2223,2224,2225,2226,2227,2228,2229,2230,2231,2232,2233,2234,2235,2236,2237,2238,2239,2240,2241,2242,2243,2244,2245,2246,2247,2248,2249,2250,2251,2252,2253,2254,2255,2256,2257,2258,2259,2260,2261,2262,2263,2264,2265,2266,2267,2268,2269,2270,2271,2272,2273,2274,2275,2221,2222,2223,2224,2225,2226,2227,2228,2229,2230,2231,2232,2233,2234,2235,2236,2237,2238,2239,2240,2241,2242,2243,2244,2245,2246,2247,2248,2249,2250,2251,2252,2253,2254,2255,2256,2257,2258,2259,2221,2222,2223,2224,2225,2226,2227,2228,2229,2230,2231,2232,2233,2234,2235,2236,2237,2238,2239,2240,2241,2242,2243,2244,2245,2229,2230,2231,2232,2233,2234,2235,2236,2237,2238,1185,1185,1186,1187,1188,1189,1185,1185,1186,1187,1188,1189,
2369,2369,2370,2371,2372,2373,2374,2375,2376,2377,2378,2379,2380,2381,2382,2383,2384,2385,2386,2387,2376,2377,2378,2379,2380,2381,2382,2383,2384,2385,2386,2387,2369,2369,2370,2371,2372,2373,2374,2375,2376,2377,2378,2379,2380,2381,2382,2383,2384,2385,2386,2387,2388,2389,2390,2391,2392,2393,2394,2395,2396,2397,2398,2399,2400,2401,2402,2403,2404,2405,2406,2407,2408,2409,2369,2370,2371,2372,2373,2374,2375,2376,2377,2378,2379,2380,2381,2382,2383,2384,2385,2386,2387,2388,2389,2390,2391,2392,2393,2394,2395,2396,2397,2398,2399,2400,2401,2402,2403,2404,2405,2406,2407,2408,2409,2410,2411,2412,2413,2414,2415,2416,2417,2418,2419,2420,2421,2422,2423,2424,2425,2426,2427,2428,2429,2430,2431,2432,2433,2434,2435,2436,2437,2438,2439,2440,2441,2442,2443,2444,2445,2487,2488,2489,2490,2491,2492,2493,2494,2495,2496,2497,2498,2499,2500,2501,2502,2369,2370,2371,2372,2373,2374,2375,2376,2377,2378,2379,2380,2381,2382,2383,2384,2385,2386,2387,2388,2389,2390,2391,2392,2393,2394,2395,2396,2397,2398,2399,2400,2401,2402,2403,2404,2405,2406,2407,2408,2409,2410,2411,2412,2413,2414,2415,2416,2417,2418,2419,2420,2421,2422,2423,2369,2370,2371,2372,2373,2374,2375,2376,2377,2378,2379,2380,2381,2382,2383,2384,2385,2386,2387,2388,2389,2390,2391,2392,2393,2394,2395,2396,2397,2398,2399,2400,2401,2402,2403,2404,2405,2406,2407,2369,2370,2371,2372,2373,2374,2375,2376,2377,2378,2379,2380,2381,2382,2383,2384,2385,2386,2387,2388,2389,2390,2391,2392,2393,2377,2378,2379,2380,2381,2382,2383,2384,2385,2386,1333,1333,1334,1335,1336,1337,1333,1333,1334,1335,1336,1337,
2517,2517,2518,2519,2520,2521,2522,2523,2524,2525,2526,2527,2528,2529,2530,2531,2532,2533,2534,2535,2524,2525,2526,2527,2528,2529,2530,2531,2532,2533,2534,2535,2517,2517,2518,2519,2520,2521,2522,2523,2524,2525,2526,2527,2528,2529,2530,2531,2532,2533,2534,2535,2536,2537,2538,2539,2540,2541,2542,2543,2544,2545,2546,2547,2548,2549,2550,2551,2552,2553,2554,2555,2556,2557,2517,2518,2519,2520,2521,2522,2523,2524,2525,2526,2527,2528,2529,2530,2531,2532,2533,2534,2535,2536,2537,2538,2539,2540,2541,2542,2543,2544,2545,2546,2547,2548,2549,2550,2551,2552,2553,2554,2555,2556,2557,2558,2559,2560,2561,2562,2563,2564,2565,2566,2567,2568,2569,2570,2571,2572,2573,2574,2575,2576,2577,2578,2579,2580,2581,2582,2583,2584,2585,2586,2587,2588,2589,2590,2591,2592,2593,2635,2636,2637,2638,2639,2640,2641,2642,2643,2644,2645,2646,2647,2648,2649,2650,2517,2518,2519,2520,2521,2522,2523,2524,2525,2526,2527,2528,2529,2530,2531,2532,2533,2534,2535,2536,2537,2538,2539,2540,2541,2542,2543,2544,2545,2546,2547,2548,2549,2550,2551,2552,2553,2554,2555,2556,2557,2558,2559,2560,2561,2562,2563,2564,2565,2566,2567,2568,2569,2570,2571,2517,2518,2519,2520,2521,2522,2523,2524,2525,2526,2527,2528,2529,2530,2531,2532,2533,2534,2535,2536,2537,2538,2539,2540,2541,2542,2543,2544,2545,2546,2547,2548,2549,2550,2551,2552,2553,2554,2555,2517,2518,2519,2520,2521,2522,2523,2524,2525,2526,2527,2528,2529,2530,2531,2532,2533,2534,2535,2536,2537,2538,2539,2540,2541,2525,2526,2527,2528,2529,2530,2531,2532,2533,2534,1481,1481,1482,1483,1484,1485,1481,1481,1482,1483,1484,1485,
2665,2665,2666,2667,2668,2669,2670,2671,2672,2673,2674,2675,2676,2677,2678,2679,2680,2681,2682,2683,2672,2673,2674,2675,2676,2677,2678,2679,2680,2681,2682,2683,2665,2665,2666,2667,2668,2669,2670,2671,2672,2673,2674,2675,2676,2677,2678,2679,2680,2681,2682,2683,2684,2685,2686,2687,2688,2689,2690,2691,2692,2693,2694,2695,2696,2697,2698,2699,2700,2701,2702,2703,2704,2705,2665,2666,2667,2668,2669,2670,2671,2672,2673,2674,2675,2676,2677,2678,2679,2680,2681,2682,2683,2684,2685,2686,2687,2688,2689,2690,2691,2692,2693,2694,2695,2696,2697,2698,2699,2700,2701,2702,2703,2704,2705,2706,2707,2708,2709,2710,2711,2712,2713,2714,2715,2716,2717,2718,2719,2720,2721,2722,2723,2724,2725,2726,2727,2728,2729,2730,2731,2732,2733,2734,2735,2736,2737,2738,2739,2740,2741,2783,2784,2785,2786,2787,2788,2789,2790,2791,2792,2793,2794,2795,2796,2797,2798,2665,2666,2667,2668,2669,2670,2671,2672,2673,2674,2675,2676,2677,2678,2679,2680,2681,2682,2683,2684,2685,2686,2687,2688,2689,2690,2691,2692,2693,2694,2695,2696,2697,2698,2699,2700,2701,2702,2703,2704,2705,2706,2707,2708,2709,2710,2711,2712,2713,2714,2715,2716,2717,2718,2719,2665,2666,2667,2668,2669,2670,2671,2672,2673,2674,2675,2676,2677,2678,2679,2680,2681,2682,2683,2684,2685,2686,2687,2688,2689,2690,2691,2692,2693,2694,2695,2696,2697,2698,2699,2700,2701,2702,2703,2665,2666,2667,2668,2669,2670,2671,2672,2673,2674,2675,2676,2677,2678,2679,2680,2681,2682,2683,2684,2685,2686,2687,2688,2689,2673,2674,2675,2676,2677,2678,2679,2680,2681,2682,1629,1629,1630,1631,1632,1633,1629,1629,1630,1631,1632,1633,
2813,2813,2814,2815,2816,2817,2818,2819,2820,2821,2822,2823,2824,2825,2826,2827,2828,2829,2830,2831,2820,2821,2822,2823,2824,2825,2826,2827,2828,2829,2830,2831,2813,2813,2814,2815,2816,2817,2818,2819,2820,2821,2822,2823,2824,2825,2826,2827,2828,2829,2830,2831,2832,2833,2834,2835,2836,2837,2838,2839,2840,2841,2842,2843,2844,2845,2846,2847,2848,2849,2850,2851,2852,2853,2813,2814,2815,2816,2817,2818,2819,2820,2821,2822,2823,2824,2825,2826,2827,2828,2829,2830,2831,2832,2833,2834,2835,2836,2837,2838,2839,2840,2841,2842,2843,2844,2845,2846,2847,2848,2849,2850,2851,2852,2853,2854,2855,2856,2857,2858,2859,2860,2861,2862,2863,2864,2865,2866,2867,2868,2869,2870,2871,2872,2873,2874,2875,2876,2877,2878,2879,2880,2881,2882,2883,2884,2885,2886,2887,2888,2889,2931,2932,2933,2934,2935,2936,2937,2938,2939,2940,2941,2942,2943,2944,2945,2946,2813,2814,2815,2816,2817,2818,2819,2820,2821,2822,2823,2824,2825,2826,2827,2828,2829,2830,2831,2832,2833,2834,2835,2836,2837,2838,2839,2840,2841,2842,2843,2844,2845,2846,2847,2848,2849,2850,2851,2852,2853,2854,2855,2856,2857,2858,2859,2860,2861,2862,2863,2864,2865,2866,2867,2813,2814,2815,2816,2817,2818,2819,2820,2821,2822,2823,2824,2825,2826,2827,2828,2829,2830,2831,2832,2833,2834,2835,2836,2837,2838,2839,2840,2841,2842,2843,2844,2845,2846,2847,2848,2849,2850,2851,2813,2814,2815,2816,2817,2818,2819,2820,2821,2822,2823,2824,2825,2826,2827,2828,2829,2830,2831,2832,2833,2834,2835,2836,2837,2821,2822,2823,2824,2825,2826,2827,2828,2829,2830,1777,1777,1778,1779,1780,1781,1777,1777,1778,1779,1780,1781,
2961,2961,2962,2963,2964,2965,2966,2967,2968,2969,2970,2971,2972,2973,2974,2975,2976,2977,2978,2979,2968,2969,2970,2971,2972,2973,2974,2975,2976,2977,2978,2979,2961,2961,2962,2963,2964,2965,2966,2967,2968,2969,2970,2971,2972,2973,2974,2975,2976,2977,2978,2979,2980,2981,2982,2983,2984,2985,2986,2987,2988,2989,2990,2991,2992,2993,2994,2995,2996,2997,2998,2999,3000,3001,2961,2962,2963,2964,2965,2966,2967,2968,2969,2970,2971,2972,2973,2974,2975,2976,2977,2978,2979,2980,2981,2982,2983,2984,2985,2986,2987,2988,2989,2990,2991,2992,2993,2994,2995,2996,2997,2998,2999,3000,3001,3002,3003,3004,3005,3006,3007,3008,3009,3010,3011,3012,3013,3014,3015,3016,3017,3018,3019,3020,3021,3022,3023,3024,3025,3026,3027,3028,3029,3030,3031,3032,3033,3034,3035,3036,3037,3079,3080,3081,3082,3083,3084,3085,3086,3087,3088,3089,3090,3091,3092,3093,3094,2961,2962,2963,2964,2965,2966,2967,2968,2969,2970,2971,2972,2973,2974,2975,2976,2977,2978,2979,2980,2981,2982,2983,2984,2985,2986,2987,2988,2989,2990,2991,2992,2993,2994,2995,2996,2997,2998,2999,3000,3001,3002,3003,3004,3005,3006,3007,3008,3009,3010,3011,3012,3013,3014,3015,2961,2962,2963,2964,2965,2966,2967,2968,2969,2970,2971,2972,2973,2974,2975,2976,2977,2978,2979,2980,2981,2982,2983,2984,2985,2986,2987,2988,2989,2990,2991,2992,2993,2994,2995,2996,2997,2998,2999,2961,2962,2963,2964,2965,2966,2967,2968,2969,2970,2971,2972,2973,2974,2975,2976,2977,2978,2979,2980,2981,2982,2983,2984,2985,2969,2970,2971,2972,2973,2974,2975,2976,2977,2978,1925,1925,1926,1927,1928,1929,1925,1925,1926,1927,1928,1929,
3109,3109,3110,3111,3112,3113,3114,3115,3116,3117,3118,3119,3120,3121,3122,3123,3124,3125,3126,3127,3116,3117,3118,3119,3120,3121,3122,3123,3124,3125,3126,3127,3109,3109,3110,3111,3112,3113,3114,3115,3116,3117,3118,3119,3120,3121,3122,3123,3124,3125,3126,3127,3128,3129,3130,3131,3132,3133,3134,3135,3136,3137,3138,3139,3140,3141,3142,3143,3144,3145,3146,3147,3148,3149,3109,3110,3111,3112,3113,3114,3115,3116,3117,3118,3119,3120,3121,3122,3123,3124,3125,3126,3127,3128,3129,3130,3131,3132,3133,3134,3135,3136,3137,3138,3139,3140,3141,3142,3143,3144,3145,3146,3147,3148,3149,3150,3151,3152,3153,3154,3155,3156,3157,3158,3159,3160,3161,3162,3163,3164,3165,3166,3167,3168,3169,3170,3171,3172,3173,3174,3175,3176,3177,3178,3179,3180,3181,3182,3183,3184,3185,3227,3228,3229,3230,3231,3232,3233,3234,3235,3236,3237,3238,3239,3240,3241,3242,3109,3110,3111,3112,3113,3114,3115,3116,3117,3118,3119,3120,3121,3122,3123,3124,3125,3126,3127,3128,3129,3130,3131,3132,3133,3134,3135,3136,3137,3138,3139,3140,3141,3142,3143,3144,3145,3146,3147,3148,3149,3150,3151,3152,3153,3154,3155,3156,3157,3158,3159,3160,3161,3162,3163,3109,3110,3111,3112,3113,3114,3115,3116,3117,3118,3119,3120,3121,3122,3123,3124,3125,3126,3127,3128,3129,3130,3131,3132,3133,3134,3135,3136,3137,3138,3139,3140,3141,3142,3143,3144,3145,3146,3147,3109,3110,3111,3112,3113,3114,3115,3116,3117,3118,3119,3120,3121,3122,3123,3124,3125,3126,3127,3128,3129,3130,3131,3132,3133,3117,3118,3119,3120,3121,3122,3123,3124,3125,3126,2073,2073,2074,2075,2076,2077,2073,2073,2074,2075,2076,2077,
3257,3257,3258,3259,3260,3261,3262,3263,3264,3265,3266,3267,3268,3269,3270,3271,3272,3273,3274,3275,3264,3265,3266,3267,3268,3269,3270,3271,3272,3273,3274,3275,3257,3257,3258,3259,3260,3261,3262,3263,3264,3265,3266,3267,3268,3269,3270,3271,3272,3273,3274,3275,3276,3277,3278,3279,3280,3281,3282,3283,3284,3285,3286,3287,3288,3289,3290,3291,3292,3293,3294,3295,3296,3297,3257,3258,3259,3260,3261,3262,3263,3264,3265,3266,3267,3268,3269,3270,3271,3272,3273,3274,3275,3276,3277,3278,3279,3280,3281,3282,3283,3284,3285,3286,3287,3288,3289,3290,3291,3292,3293,3294,3295,3296,3297,3298,3299,3300,3301,3302,3303,3304,3305,3306,3307,3308,3309,3310,3311,3312,3313,3314,3315,3316,3317,3318,3319,3320,3321,3322,3323,3324,3325,3326,3327,3328,3329,3330,3331,3332,3333,3375,3376,3377,3378,3379,3380,3381,3382,3383,3384,3385,3386,3387,3388,3389,3390,3257,3258,3259,3260,3261,3262,3263,3264,3265,3266,3267,3268,3269,3270,3271,3272,3273,3274,3275,3276,3277,3278,3279,3280,3281,3282,3283,3284,3285,3286,3287,3288,3289,3290,3291,3292,3293,3294,3295,3296,3297,3298,3299,3300,3301,3302,3303,3304,3305,3306,3307,3308,3309,3310,3311,3257,3258,3259,3260,3261,3262,3263,3264,3265,3266,3267,3268,3269,3270,3271,3272,3273,3274,3275,3276,3277,3278,3279,3280,3281,3282,3283,3284,3285,3286,3287,3288,3289,3290,3291,3292,3293,3294,3295,3257,3258,3259,3260,3261,3262,3263,3264,3265,3266,3267,3268,3269,3270,3271,3272,3273,3274,3275,3276,3277,3278,3279,3280,3281,3265,3266,3267,3268,3269,3270,3271,3272,3273,3274,2221,2221,2222,2223,2224,2225,2221,2221,2222,2223,2224,2225,
3405,3405,3406,3407,3408,3409,3410,3411,3412,3413,3414,3415,3416,3417,3418,3419,3420,3421,3422,3423,3412,3413,3414,3415,3416,3417,3418,3419,3420,3421,3422,3423,3405,3405,3406,3407,3408,3409,3410,3411,3412,3413,3414,3415,3416,3417,3418,3419,3420,3421,3422,3423,3424,3425,3426,3427,3428,3429,3430,3431,3432,3433,3434,3435,3436,3437,3438,3439,3440,3441,3442,3443,3444,3445,3405,3406,3407,3408,3409,3410,3411,3412,3413,3414,3415,3416,3417,3418,3419,3420,3421,3422,3423,3424,3425,3426,3427,3428,3429,3430,3431,3432,3433,3434,3435,3436,3437,3438,3439,3440,3441,3442,3443,3444,3445,3446,3447,3448,3449,3450,3451,3452,3453,3454,3455,3456,3457,3458,3459,3460,3461,3462,3463,3464,3465,3466,3467,3468,3469,3470,3471,3472,3473,3474,3475,3476,3477,3478,3479,3480,3481,3523,3524,3525,3526,3527,3528,3529,3530,3531,3532,3533,3534,3535,3536,3537,3538,3405,3406,3407,3408,3409,3410,3411,3412,3413,3414,3415,3416,3417,3418,3419,3420,3421,3422,3423,3424,3425,3426,3427,3428,3429,3430,3431,3432,3433,3434,3435,3436,3437,3438,3439,3440,3441,3442,3443,3444,3445,3446,3447,3448,3449,3450,3451,3452,3453,3454,3455,3456,3457,3458,3459,3405,3406,3407,3408,3409,3410,3411,3412,3413,3414,3415,3416,3417,3418,3419,3420,3421,3422,3423,3424,3425,3426,3427,3428,3429,3430,3431,3432,3433,3434,3435,3436,3437,3438,3439,3440,3441,3442,3443,3405,3406,3407,3408,3409,3410,3411,3412,3413,3414,3415,3416,3417,3418,3419,3420,3421,3422,3423,3424,3425,3426,3427,3428,3429,3413,3414,3415,3416,3417,3418,3419,3420,3421,3422,1185,1185,1186,1187,1188,1189,1185,1185,1186,1187,1188,1189,
3553,3553,3554,3555,3556,3557,3558,3559,3560,3561,3562,3563,3564,3565,3566,3567,3568,3569,3570,3571,3560,3561,3562,3563,3564,3565,3566,3567,3568,3569,3570,3571,3553,3553,3554,3555,3556,3557,3558,3559,3560,3561,3562,3563,3564,3565,3566,3567,3568,3569,3570,3571,3572,3573,3574,3575,3576,3577,3578,3579,3580,3581,3582,3583,3584,3585,3586,3587,3588,3589,3590,3591,3592,3593,3553,3554,3555,3556,3557,3558,3559,3560,3561,3562,3563,3564,3565,3566,3567,3568,3569,3570,3571,3572,3573,3574,3575,3576,3577,3578,3579,3580,3581,3582,3583,3584,3585,3586,3587,3588,3589,3590,3591,3592,3593,3594,3595,3596,3597,3598,3599,3600,3601,3602,3603,3604,3605,3606,3607,3608,3609,3610,3611,3612,3613,3614,3615,3616,3617,3618,3619,3620,3621,3622,3623,3624,3625,3626,3627,3628,3629,3671,3672,3673,3674,3675,3676,3677,3678,3679,3680,3681,3682,3683,3684,3685,3686,3553,3554,3555,3556,3557,3558,3559,3560,3561,3562,3563,3564,3565,3566,3567,3568,3569,3570,3571,3572,3573,3574,3575,3576,3577,3578,3579,3580,3581,3582,3583,3584,3585,3586,3587,3588,3589,3590,3591,3592,3593,3594,3595,3596,3597,3598,3599,3600,3601,3602,3603,3604,3605,3606,3607,3553,3554,3555,3556,3557,3558,3559,3560,3561,3562,3563,3564,3565,3566,3567,3568,3569,3570,3571,3572,3573,3574,3575,3576,3577,3578,3579,3580,3581,3582,3583,3584,3585,3586,3587,3588,3589,3590,3591,3553,3554,3555,3556,3557,3558,3559,3560,3561,3562,3563,3564,3565,3566,3567,3568,3569,3570,3571,3572,3573,3574,3575,3576,3577,3561,3562,3563,3564,3565,3566,3567,3568,3569,3570,1333,1333,1334,1335,1336,1337,1333,1333,1334,1335,1336,1337,
3701,3701,3702,3703,3704,3705,3706,3707,3708,3709,3710,3711,3712,3713,3714,3715,3716,3717,3718,3719,3708,3709,3710,3711,3712,3713,3714,3715,3716,3717,3718,3719,3701,3701,3702,3703,3704,3705,3706,3707,3708,3709,3710,3711,3712,3713,3714,3715,3716,3717,3718,3719,3720,3721,3722,3723,3724,3725,3726,3727,3728,3729,3730,3731,3732,3733,3734,3735,3736,3737,3738,3739,3740,3741,3701,3702,3703,3704,3705,3706,3707,3708,3709,3710,3711,3712,3713,3714,3715,3716,3717,3718,3719,3720,3721,3722,3723,3724,3725,3726,3727,3728,3729,3730,3731,3732,3733,3734,3735,3736,3737,3738,3739,3740,3741,3742,3743,3744,3745,3746,3747,3748,3749,3750,3751,3752,3753,3754,3755,3756,3757,3758,3759,3760,3761,3762,3763,3764,3765,3766,3767,3768,3769,3770,3771,3772,3773,3774,3775,3776,3777,3819,3820,3821,3822,3823,3824,3825,3826,3827,3828,3829,3830,3831,3832,3833,3834,3701,3702,3703,3704,3705,3706,3707,3708,3709,3710,3711,3712,3713,3714,3715,3716,3717,3718,3719,3720,3721,3722,3723,3724,3725,3726,3727,3728,3729,3730,3731,3732,3733,3734,3735,3736,3737,3738,3739,3740,3741,3742,3743,3744,3745,3746,3747,3748,3749,3750,3751,3752,3753,3754,3755,3701,3702,3703,3704,3705,3706,3707,3708,3709,3710,3711,3712,3713,3714,3715,3716,3717,3718,3719,3720,3721,3722,3723,3724,3725,3726,3727,3728,3729,3730,3731,3732,3733,3734,3735,3736,3737,3738,3739,3701,3702,3703,3704,3705,3706,3707,3708,3709,3710,3711,3712,3713,3714,3715,3716,3717,3718,3719,3720,3721,3722,3723,3724,3725,3709,3710,3711,3712,3713,3714,3715,3716,3717,3718,1481,1481,1482,1483,1484,1485,1481,1481,1482,1483,1484,1485,
3849,3849,3850,3851,3852,3853,3854,3855,3856,3857,3858,3859,3860,3861,3862,3863,3864,3865,3866,3867,3856,3857,3858,3859,3860,3861,3862,3863,3864,3865,3866,3867,3849,3849,3850,3851,3852,3853,3854,3855,3856,3857,3858,3859,3860,3861,3862,3863,3864,3865,3866,3867,3868,3869,3870,3871,3872,3873,3874,3875,3876,3877,3878,3879,3880,3881,3882,3883,3884,3885,3886,3887,3888,3889,3849,3850,3851,3852,3853,3854,3855,3856,3857,3858,3859,3860,3861,3862,3863,3864,3865,3866,3867,3868,3869,3870,3871,3872,3873,3874,3875,3876,3877,3878,3879,3880,3881,3882,3883,3884,3885,3886,3887,3888,3889,3890,3891,3892,3893,3894,3895,3896,3897,3898,3899,3900,3901,3902,3903,3904,3905,3906,3907,3908,3909,3910,3911,3912,3913,3914,3915,3916,3917,3918,3919,3920,3921,3922,3923,3924,3925,3967,3968,3969,3970,3971,3972,3973,3974,3975,3976,3977,3978,3979,3980,3981,3982,3849,3850,3851,3852,3853,3854,3855,3856,3857,3858,3859,3860,3861,3862,3863,3864,3865,3866,3867,3868,3869,3870,3871,3872,3873,3874,3875,3876,3877,3878,3879,3880,3881,3882,3883,3884,3885,3886,3887,3888,3889,3890,3891,3892,3893,3894,3895,3896,3897,3898,3899,3900,3901,3902,3903,3849,3850,3851,3852,3853,3854,3855,3856,3857,3858,3859,3860,3861,3862,3863,3864,3865,3866,3867,3868,3869,3870,3871,3872,3873,3874,3875,3876,3877,3878,3879,3880,3881,3882,3883,3884,3885,3886,3887,3849,3850,3851,3852,3853,3854,3855,3856,3857,3858,3859,3860,3861,3862,3863,3864,3865,3866,3867,3868,3869,3870,3871,3872,3873,3857,3858,3859,3860,3861,3862,3863,3864,3865,3866,1629,1629,1630,1631,1632,1633,1629,1629,1630,1631,1632,1633,
3997,3997,3998,3999,4000,4001,4002,4003,4004,4005,4006,4007,4008,4009,4010,4011,4012,4013,4014,4015,4004,4005,4006,4007,4008,4009,4010,4011,4012,4013,4014,4015,3997,3997,3998,3999,4000,4001,4002,4003,4004,4005,4006,4007,4008,4009,4010,4011,4012,4013,4014,4015,4016,4017,4018,4019,4020,4021,4022,4023,4024,4025,4026,4027,4028,4029,4030,4031,4032,4033,4034,4035,4036,4037,3997,3998,3999,4000,4001,4002,4003,4004,4005,4006,4007,4008,4009,4010,4011,4012,4013,4014,4015,4016,4017,4018,4019,4020,4021,4022,4023,4024,4025,4026,4027,4028,4029,4030,4031,4032,4033,4034,4035,4036,4037,4038,4039,4040,4041,4042,4043,4044,4045,4046,4047,4048,4049,4050,4051,4052,4053,4054,4055,4056,4057,4058,4059,4060,4061,4062,4063,4064,4065,4066,4067,4068,4069,4070,4071,4072,4073,4115,4116,4117,4118,4119,4120,4121,4122,4123,4124,4125,4126,4127,4128,4129,4130,3997,3998,3999,4000,4001,4002,4003,4004,4005,4006,4007,4008,4009,4010,4011,4012,4013,4014,4015,4016,4017,4018,4019,4020,4021,4022,4023,4024,4025,4026,4027,4028,4029,4030,4031,4032,4033,4034,4035,4036,4037,4038,4039,4040,4041,4042,4043,4044,4045,4046,4047,4048,4049,4050,4051,3997,3998,3999,4000,4001,4002,4003,4004,4005,4006,4007,4008,4009,4010,4011,4012,4013,4014,4015,4016,4017,4018,4019,4020,4021,4022,4023,4024,4025,4026,4027,4028,4029,4030,4031,4032,4033,4034,4035,3997,3998,3999,4000,4001,4002,4003,4004,4005,4006,4007,4008,4009,4010,4011,4012,4013,4014,4015,4016,4017,4018,4019,4020,4021,4005,4006,4007,4008,4009,4010,4011,4012,4013,4014,1777,1777,1778,1779,1780,1781,1777,1777,1778,1779,1780,1781,
4145,4145,4146,4147,4148,4149,4150,4151,4152,4153,4154,4155,4156,4157,4158,4159,4160,4161,4162,4163,4152,4153,4154,4155,4156,4157,4158,4159,4160,4161,4162,4163,4145,4145,4146,4147,4148,4149,4150,4151,4152,4153,4154,4155,4156,4157,4158,4159,4160,4161,4162,4163,4164,4165,4166,4167,4168,4169,4170,4171,4172,4173,4174,4175,4176,4177,4178,4179,4180,4181,4182,4183,4184,4185,4145,4146,4147,4148,4149,4150,4151,4152,4153,4154,4155,4156,4157,4158,4159,4160,4161,4162,4163,4164,4165,4166,4167,4168,4169,4170,4171,4172,4173,4174,4175,4176,4177,4178,4179,4180,4181,4182,4183,4184,4185,4186,4187,4188,4189,4190,4191,4192,4193,4194,4195,4196,4197,4198,4199,4200,4201,4202,4203,4204,4205,4206,4207,4208,4209,4210,4211,4212,4213,4214,4215,4216,4217,4218,4219,4220,4221,4263,4264,4265,4266,4267,4268,4269,4270,4271,4272,4273,4274,4275,4276,4277,4278,4145,4146,4147,4148,4149,4150,4151,4152,4153,4154,4155,4156,4157,4158,4159,4160,4161,4162,4163,4164,4165,4166,4167,4168,4169,4170,4171,4172,4173,4174,4175,4176,4177,4178,4179,4180,4181,4182,4183,4184,4185,4186,4187,4188,4189,4190,4191,4192,4193,4194,4195,4196,4197,4198,4199,4145,4146,4147,4148,4149,4150,4151,4152,4153,4154,4155,4156,4157,4158,4159,4160,4161,4162,4163,4164,4165,4166,4167,4168,4169,4170,4171,4172,4173,4174,4175,4176,4177,4178,4179,4180,4181,4182,4183,4145,4146,4147,4148,4149,4150,4151,4152,4153,4154,4155,4156,4157,4158,4159,4160,4161,4162,4163,4164,4165,4166,4167,4168,4169,4153,4154,4155,4156,4157,4158,4159,4160,4161,4162,1925,1925,1926,1927,1928,1929,1925,1925,1926,1927,1928,1929,
4293,4293,4294,4295,4296,4297,4298,4299,4300,4301,4302,4303,4304,4305,4306,4307,4308,4309,4310,4311,4300,4301,4302,4303,4304,4305,4306,4307,4308,4309,4310,4311,4293,4293,4294,4295,4296,4297,4298,4299,4300,4301,4302,4303,4304,4305,4306,4307,4308,4309,4310,4311,4312,4313,4314,4315,4316,4317,4318,4319,4320,4321,4322,4323,4324,4325,4326,4327,4328,4329,4330,4331,4332,4333,4293,4294,4295,4296,4297,4298,4299,4300,4301,4302,4303,4304,4305,4306,4307,4308,4309,4310,4311,4312,4313,4314,4315,4316,4317,4318,4319,4320,4321,4322,4323,4324,4325,4326,4327,4328,4329,4330,4331,4332,4333,4334,4335,4336,4337,4338,4339,4340,4341,4342,4343,4344,4345,4346,4347,4348,4349,4350,4351,4352,4353,4354,4355,4356,4357,4358,4359,4360,4361,4362,4363,4364,4365,4366,4367,4368,4369,4411,4412,4413,4414,4415,4416,4417,4418,4419,4420,4421,4422,4423,4424,4425,4426,4293,4294,4295,4296,4297,4298,4299,4300,4301,4302,4303,4304,4305,4306,4307,4308,4309,4310,4311,4312,4313,4314,4315,4316,4317,4318,4319,4320,4321,4322,4323,4324,4325,4326,4327,4328,4329,4330,4331,4332,4333,4334,4335,4336,4337,4338,4339,4340,4341,4342,4343,4344,4345,4346,4347,4293,4294,4295,4296,4297,4298,4299,4300,4301,4302,4303,4304,4305,4306,4307,4308,4309,4310,4311,4312,4313,4314,4315,4316,4317,4318,4319,4320,4321,4322,4323,4324,4325,4326,4327,4328,4329,4330,4331,4293,4294,4295,4296,4297,4298,4299,4300,4301,4302,4303,4304,4305,4306,4307,4308,4309,4310,4311,4312,4313,4314,4315,4316,4317,4301,4302,4303,4304,4305,4306,4307,4308,4309,4310,2073,2073,2074,2075,2076,2077,2073,2073,2074,2075,2076,2077,
4441,4441,4442,4443,4444,4445,4446,4447,4448,4449,4450,4451,4452,4453,4454,4455,4456,4457,4458,4459,4448,4449,4450,4451,4452,4453,4454,4455,4456,4457,4458,4459,4441,4441,4442,4443,4444,4445,4446,4447,4448,4449,4450,4451,4452,4453,4454,4455,4456,4457,4458,4459,4460,4461,4462,4463,4464,4465,4466,4467,4468,4469,4470,4471,4472,4473,4474,4475,4476,4477,4478,4479,4480,4481,4441,4442,4443,4444,4445,4446,4447,4448,4449,4450,4451,4452,4453,4454,4455,4456,4457,4458,4459,4460,4461,4462,4463,4464,4465,4466,4467,4468,4469,4470,4471,4472,4473,4474,4475,4476,4477,4478,4479,4480,4481,4482,4483,4484,4485,4486,4487,4488,4489,4490,4491,4492,4493,4494,4495,4496,4497,4498,4499,4500,4501,4502,4503,4504,4505,4506,4507,4508,4509,4510,4511,4512,4513,4514,4515,4516,4517,4559,4560,4561,4562,4563,4564,4565,4566,4567,4568,4569,4570,4571,4572,4573,4574,4441,4442,4443,4444,4445,4446,4447,4448,4449,4450,4451,4452,4453,4454,4455,4456,4457,4458,4459,4460,4461,4462,4463,4464,4465,4466,4467,4468,4469,4470,4471,4472,4473,4474,4475,4476,4477,4478,4479,4480,4481,4482,4483,4484,4485,4486,4487,4488,4489,4490,4491,4492,4493,4494,4495,4441,4442,4443,4444,4445,4446,4447,4448,4449,4450,4451,4452,4453,4454,4455,4456,4457,4458,4459,4460,4461,4462,4463,4464,4465,4466,4467,4468,4469,4470,4471,4472,4473,4474,4475,4476,4477,4478,4479,4441,4442,4443,4444,4445,4446,4447,4448,4449,4450,4451,4452,4453,4454,4455,4456,4457,4458,4459,4460,4461,4462,4463,4464,4465,4449,4450,4451,4452,4453,4454,4455,4456,4457,4458,2221,2221,2222,2223,2224,2225,2221,2221,2222,2223,2224,2225,
4589,4589,4590,4591,4592,4593,4594,4595,4596,4597,4598,4599,4600,4601,4602,4603,4604,4605,4606,4607,4596,4597,4598,4599,4600,4601,4602,4603,4604,4605,4606,4607,4589,4589,4590,4591,4592,4593,4594,4595,4596,4597,4598,4599,4600,4601,4602,4603,4604,4605,4606,4607,4608,4609,4610,4611,4612,4613,4614,4615,4616,4617,4618,4619,4620,4621,4622,4623,4624,4625,4626,4627,4628,4629,4589,4590,4591,4592,4593,4594,4595,4596,4597,4598,4599,4600,4601,4602,4603,4604,4605,4606,4607,4608,4609,4610,4611,4612,4613,4614,4615,4616,4617,4618,4619,4620,4621,4622,4623,4624,4625,4626,4627,4628,4629,4630,4631,4632,4633,4634,4635,4636,4637,4638,4639,4640,4641,4642,4643,4644,4645,4646,4647,4648,4649,4650,4651,4652,4653,4654,4655,4656,4657,4658,4659,4660,4661,4662,4663,4664,4665,4707,4708,4709,4710,4711,4712,4713,4714,4715,4716,4717,4718,4719,4720,4721,4722,4589,4590,4591,4592,4593,4594,4595,4596,4597,4598,4599,4600,4601,4602,4603,4604,4605,4606,4607,4608,4609,4610,4611,4612,4613,4614,4615,4616,4617,4618,4619,4620,4621,4622,4623,4624,4625,4626,4627,4628,4629,4630,4631,4632,4633,4634,4635,4636,4637,4638,4639,4640,4641,4642,4643,4589,4590,4591,4592,4593,4594,4595,4596,4597,4598,4599,4600,4601,4602,4603,4604,4605,4606,4607,4608,4609,4610,4611,4612,4613,4614,4615,4616,4617,4618,4619,4620,4621,4622,4623,4624,4625,4626,4627,4589,4590,4591,4592,4593,4594,4595,4596,4597,4598,4599,4600,4601,4602,4603,4604,4605,4606,4607,4608,4609,4610,4611,4612,4613,4597,4598,4599,4600,4601,4602,4603,4604,4605,4606,1185,1185,1186,1187,1188,1189,1185,1185,1186,1187,1188,1189,
4737,4737,4738,4739,4740,4741,4742,4743,4744,4745,4746,4747,4748,4749,4750,4751,4752,4753,4754,4755,4744,4745,4746,4747,4748,4749,4750,4751,4752,4753,4754,4755,4737,4737,4738,4739,4740,4741,4742,4743,4744,4745,4746,4747,4748,4749,4750,4751,4752,4753,4754,4755,4756,4757,4758,4759,4760,4761,4762,4763,4764,4765,4766,4767,4768,4769,4770,4771,4772,4773,4774,4775,4776,4777,4737,4738,4739,4740,4741,4742,4743,4744,4745,4746,4747,4748,4749,4750,4751,4752,4753,4754,4755,4756,4757,4758,4759,4760,4761,4762,4763,4764,4765,4766,4767,4768,4769,4770,4771,4772,4773,4774,4775,4776,4777,4778,4779,4780,4781,4782,4783,4784,4785,4786,4787,4788,4789,4790,4791,4792,4793,4794,4795,4796,4797,4798,4799,4800,4801,4802,4803,4804,4805,4806,4807,4808,4809,4810,4811,4812,4813,4855,4856,4857,4858,4859,4860,4861,4862,4863,4864,4865,4866,4867,4868,4869,4870,4737,4738,4739,4740,4741,4742,4743,4744,4745,4746,4747,4748,4749,4750,4751,4752,4753,4754,4755,4756,4757,4758,4759,4760,4761,4762,4763,4764,4765,4766,4767,4768,4769,4770,4771,4772,4773,4774,4775,4776,4777,4778,4779,4780,4781,4782,4783,4784,4785,4786,4787,4788,4789,4790,4791,4737,4738,4739,4740,4741,4742,4743,4744,4745,4746,4747,4748,4749,4750,4751,4752,4753,4754,4755,4756,4757,4758,4759,4760,4761,4762,4763,4764,4765,4766,4767,4768,4769,4770,4771,4772,4773,4774,4775,4737,4738,4739,4740,4741,4742,4743,4744,4745,4746,4747,4748,4749,4750,4751,4752,4753,4754,4755,4756,4757,4758,4759,4760,4761,4745,4746,4747,4748,4749,4750,4751,4752,4753,4754,1333,1333,1334,1335,1336,1337,1333,1333,1334,1335,1336,1337,
4885,4885,4886,4887,4888,4889,4890,4891,4892,4893,4894,4895,4896,4897,4898,4899,4900,4901,4902,4903,4892,4893,4894,4895,4896,4897,4898,4899,4900,4901,4902,4903,4885,4885,4886,4887,4888,4889,4890,4891,4892,4893,4894,4895,4896,4897,4898,4899,4900,4901,4902,4903,4904,4905,4906,4907,4908,4909,4910,4911,4912,4913,4914,4915,4916,4917,4918,4919,4920,4921,4922,4923,4924,4925,4885,4886,4887,4888,4889,4890,4891,4892,4893,4894,4895,4896,4897,4898,4899,4900,4901,4902,4903,4904,4905,4906,4907,4908,4909,4910,4911,4912,4913,4914,4915,4916,4917,4918,4919,4920,4921,4922,4923,4924,4925,4926,4927,4928,4929,4930,4931,4932,4933,4934,4935,4936,4937,4938,4939,4940,4941,4942,4943,4944,4945,4946,4947,4948,4949,4950,4951,4952,4953,4954,4955,4956,4957,4958,4959,4960,4961,5003,5004,5005,5006,5007,5008,5009,5010,5011,5012,5013,5014,5015,5016,5017,5018,4885,4886,4887,4888,4889,4890,4891,4892,4893,4894,4895,4896,4897,4898,4899,4900,4901,4902,4903,4904,4905,4906,4907,4908,4909,4910,4911,4912,4913,4914,4915,4916,4917,4918,4919,4920,4921,4922,4923,4924,4925,4926,4927,4928,4929,4930,4931,4932,4933,4934,4935,4936,4937,4938,4939,4885,4886,4887,4888,4889,4890,4891,4892,4893,4894,4895,4896,4897,4898,4899,4900,4901,4902,4903,4904,4905,4906,4907,4908,4909,4910,4911,4912,4913,4914,4915,4916,4917,4918,4919,4920,4921,4922,4923,4885,4886,4887,4888,4889,4890,4891,4892,4893,4894,4895,4896,4897,4898,4899,4900,4901,4902,4903,4904,4905,4906,4907,4908,4909,4893,4894,4895,4896,4897,4898,4899,4900,4901,4902,1481,1481,1482,1483,1484,1485,1481,1481,1482,1483,1484,1485,
5033,5033,5034,5035,5036,5037,5038,5039,5040,5041,5042,5043,5044,5045,5046,5047,5048,5049,5050,5051,5040,5041,5042,5043,5044,5045,5046,5047,5048,5049,5050,5051,5033,5033,5034,5035,5036,5037,5038,5039,5040,5041,5042,5043,5044,5045,5046,5047,5048,5049,5050,5051,5052,5053,5054,5055,5056,5057,5058,5059,5060,5061,5062,5063,5064,5065,5066,5067,5068,5069,5070,5071,5072,5073,5033,5034,5035,5036,5037,5038,5039,5040,5041,5042,5043,5044,5045,5046,5047,5048,5049,5050,5051,5052,5053,5054,5055,5056,5057,5058,5059,5060,5061,5062,5063,5064,5065,5066,5067,5068,5069,5070,5071,5072,5073,5074,5075,5076,5077,5078,5079,5080,5081,5082,5083,5084,5085,5086,5087,5088,5089,5090,5091,5092,5093,5094,5095,5096,5097,5098,5099,5100,5101,5102,5103,5104,5105,5106,5107,5108,5109,5151,5152,5153,5154,5155,5156,5157,5158,5159,5160,5161,5162,5163,5164,5165,5166,5033,5034,5035,5036,5037,5038,5039,5040,5041,5042,5043,5044,5045,5046,5047,5048,5049,5050,5051,5052,5053,5054,5055,5056,5057,5058,5059,5060,5061,5062,5063,5064,5065,5066,5067,5068,5069,5070,5071,5072,5073,5074,5075,5076,5077,5078,5079,5080,5081,5082,5083,5084,5085,5086,5087,5033,5034,5035,5036,5037,5038,5039,5040,5041,5042,5043,5044,5045,5046,5047,5048,5049,5050,5051,5052,5053,5054,5055,5056,5057,5058,5059,5060,5061,5062,5063,5064,5065,5066,5067,5068,5069,5070,5071,5033,5034,5035,5036,5037,5038,5039,5040,5041,5042,5043,5044,5045,5046,5047,5048,5049,5050,5051,5052,5053,5054,5055,5056,5057,5041,5042,5043,5044,5045,5046,5047,5048,5049,5050,1629,1629,1630,1631,1632,1633,1629,1629,1630,1631,1632,1633,
5181,5181,5182,5183,5184,5185,5186,5187,5188,5189,5190,5191,5192,5193,5194,5195,5196,5197,5198,5199,5188,5189,5190,5191,5192,5193,5194,5195,5196,5197,5198,5199,5181,5181,5182,5183,5184,5185,5186,5187,5188,5189,5190,5191,5192,5193,5194,5195,5196,5197,5198,5199,5200,5201,5202,5203,5204,5205,5206,5207,5208,5209,5210,5211,5212,5213,5214,5215,5216,5217,5218,5219,5220,5221,5181,5182,5183,5184,5185,5186,5187,5188,5189,5190,5191,5192,5193,5194,5195,5196,5197,5198,5199,5200,5201,5202,5203,5204,5205,5206,5207,5208,5209,5210,5211,5212,5213,5214,5215,5216,5217,5218,5219,5220,5221,5222,5223,5224,5225,5226,5227,5228,5229,5230,5231,5232,5233,5234,5235,5236,5237,5238,5239,5240,5241,5242,5243,5244,5245,5246,5247,5248,5249,5250,5251,5252,5253,5254,5255,5256,5257,5299,5300,5301,5302,5303,5304,5305,5306,5307,5308,5309,5310,5311,5312,5313,5314,5181,5182,5183,5184,5185,5186,5187,5188,5189,5190,5191,5192,5193,5194,5195,5196,5197,5198,5199,5200,5201,5202,5203,5204,5205,5206,5207,5208,5209,5210,5211,5212,5213,5214,5215,5216,5217,5218,5219,5220,5221,5222,5223,5224,5225,5226,5227,5228,5229,5230,5231,5232,5233,5234,5235,5181,5182,5183,5184,5185,5186,5187,5188,5189,5190,5191,5192,5193,5194,5195,5196,5197,5198,5199,5200,5201,5202,5203,5204,5205,5206,5207,5208,5209,5210,5211,5212,5213,5214,5215,5216,5217,5218,5219,5181,5182,5183,5184,5185,5186,5187,5188,5189,5190,5191,5192,5193,5194,5195,5196,5197,5198,5199,5200,5201,5202,5203,5204,5205,5189,5190,5191,5192,5193,5194,5195,5196,5197,5198,1777,1777,1778,1779,1780,1781,1777,1777,1778,1779,1780,1781,
5329,5329,5330,5331,5332,5333,5334,5335,5336,5337,5338,5339,5340,5341,5342,5343,5344,5345,5346,5347,5336,5337,5338,5339,5340,5341,5342,5343,5344,5345,5346,5347,5329,5329,5330,5331,5332,5333,5334,5335,5336,5337,5338,5339,5340,5341,5342,5343,5344,5345,5346,5347,5348,5349,5350,5351,5352,5353,5354,5355,5356,5357,5358,5359,5360,5361,5362,5363,5364,5365,5366,5367,5368,5369,5329,5330,5331,5332,5333,5334,5335,5336,5337,5338,5339,5340,5341,5342,5343,5344,5345,5346,5347,5348,5349,5350,5351,5352,5353,5354,5355,5356,5357,5358,5359,5360,5361,5362,5363,5364,5365,5366,5367,5368,5369,5370,5371,5372,5373,5374,5375,5376,5377,5378,5379,5380,5381,5382,5383,5384,5385,5386,5387,5388,5389,5390,5391,5392,5393,5394,5395,5396,5397,5398,5399,5400,5401,5402,5403,5404,5405,5447,5448,5449,5450,5451,5452,5453,5454,5455,5456,5457,5458,5459,5460,5461,5462,5329,5330,5331,5332,5333,5334,5335,5336,5337,5338,5339,5340,5341,5342,5343,5344,5345,5346,5347,5348,5349,5350,5351,5352,5353,5354,5355,5356,5357,5358,5359,5360,5361,5362,5363,5364,5365,5366,5367,5368,5369,5370,5371,5372,5373,5374,5375,5376,5377,5378,5379,5380,5381,5382,5383,5329,5330,5331,5332,5333,5334,5335,5336,5337,5338,5339,5340,5341,5342,5343,5344,5345,5346,5347,5348,5349,5350,5351,5352,5353,5354,5355,5356,5357,5358,5359,5360,5361,5362,5363,5364,5365,5366,5367,5329,5330,5331,5332,5333,5334,5335,5336,5337,5338,5339,5340,5341,5342,5343,5344,5345,5346,5347,5348,5349,5350,5351,5352,5353,5337,5338,5339,5340,5341,5342,5343,5344,5345,5346,1925,1925,1926,1927,1928,1929,1925,1925,1926,1927,1928,1929,
5477,5477,5478,5479,5480,5481,5482,5483,5484,5485,5486,5487,5488,5489,5490,5491,5492,5493,5494,5495,5484,5485,5486,5487,5488,5489,5490,5491,5492,5493,5494,5495,5477,5477,5478,5479,5480,5481,5482,5483,5484,5485,5486,5487,5488,5489,5490,5491,5492,5493,5494,5495,5496,5497,5498,5499,5500,5501,5502,5503,5504,5505,5506,5507,5508,5509,5510,5511,5512,5513,5514,5515,5516,5517,5477,5478,5479,5480,5481,5482,5483,5484,5485,5486,5487,5488,5489,5490,5491,5492,5493,5494,5495,5496,5497,5498,5499,5500,5501,5502,5503,5504,5505,5506,5507,5508,5509,5510,5511,5512,5513,5514,5515,5516,5517,5518,5519,5520,5521,5522,5523,5524,5525,5526,5527,5528,5529,5530,5531,5532,5533,5534,5535,5536,5537,5538,5539,5540,5541,5542,5543,5544,5545,5546,5547,5548,5549,5550,5551,5552,5553,5595,5596,5597,5598,5599,5600,5601,5602,5603,5604,5605,5606,5607,5608,5609,5610,5477,5478,5479,5480,5481,5482,5483,5484,5485,5486,5487,5488,5489,5490,5491,5492,5493,5494,5495,5496,5497,5498,5499,5500,5501,5502,5503,5504,5505,5506,5507,5508,5509,5510,5511,5512,5513,5514,5515,5516,5517,5518,5519,5520,5521,5522,5523,5524,5525,5526,5527,5528,5529,5530,5531,5477,5478,5479,5480,5481,5482,5483,5484,5485,5486,5487,5488,5489,5490,5491,5492,5493,5494,5495,5496,5497,5498,5499,5500,5501,5502,5503,5504,5505,5506,5507,5508,5509,5510,5511,5512,5513,5514,5515,5477,5478,5479,5480,5481,5482,5483,5484,5485,5486,5487,5488,5489,5490,5491,5492,5493,5494,5495,5496,5497,5498,5499,5500,5501,5485,5486,5487,5488,5489,5490,5491,5492,5493,5494,2073,2073,2074,2075,2076,2077,2073,2073,2074,2075,2076,2077,
5625,5625,5626,5627,5628,5629,5630,5631,5632,5633,5634,5635,5636,5637,5638,5639,5640,5641,5642,5643,5632,5633,5634,5635,5636,5637,5638,5639,5640,5641,5642,5643,5625,5625,5626,5627,5628,5629,5630,5631,5632,5633,5634,5635,5636,5637,5638,5639,5640,5641,5642,5643,5644,5645,5646,5647,5648,5649,5650,5651,5652,5653,5654,5655,5656,5657,5658,5659,5660,5661,5662,5663,5664,5665,5625,5626,5627,5628,5629,5630,5631,5632,5633,5634,5635,5636,5637,5638,5639,5640,5641,5642,5643,5644,5645,5646,5647,5648,5649,5650,5651,5652,5653,5654,5655,5656,5657,5658,5659,5660,5661,5662,5663,5664,5665,5666,5667,5668,5669,5670,5671,5672,5673,5674,5675,5676,5677,5678,5679,5680,5681,5682,5683,5684,5685,5686,5687,5688,5689,5690,5691,5692,5693,5694,5695,5696,5697,5698,5699,5700,5701,5743,5744,5745,5746,5747,5748,5749,5750,5751,5752,5753,5754,5755,5756,5757,5758,5625,5626,5627,5628,5629,5630,5631,5632,5633,5634,5635,5636,5637,5638,5639,5640,5641,5642,5643,5644,5645,5646,5647,5648,5649,5650,5651,5652,5653,5654,5655,5656,5657,5658,5659,5660,5661,5662,5663,5664,5665,5666,5667,5668,5669,5670,5671,5672,5673,5674,5675,5676,5677,5678,5679,5625,5626,5627,5628,5629,5630,5631,5632,5633,5634,5635,5636,5637,5638,5639,5640,5641,5642,5643,5644,5645,5646,5647,5648,5649,5650,5651,5652,5653,5654,5655,5656,5657,5658,5659,5660,5661,5662,5663,5625,5626,5627,5628,5629,5630,5631,5632,5633,5634,5635,5636,5637,5638,5639,5640,5641,5642,5643,5644,5645,5646,5647,5648,5649,5633,5634,5635,5636,5637,5638,5639,5640,5641,5642,2221,2221,2222,2223,2224,2225,2221,2221,2222,2223,2224,2225,
5773,5773,5774,5775,5776,5777,5778,5779,5780,5781,5782,5783,5784,5785,5786,5787,5788,5789,5790,5791,5780,5781,5782,5783,5784,5785,5786,5787,5788,5789,5790,5791,5773,5773,5774,5775,5776,5777,5778,5779,5780,5781,5782,5783,5784,5785,5786,5787,5788,5789,5790,5791,5792,5793,5794,5795,5796,5797,5798,5799,5800,5801,5802,5803,5804,5805,5806,5807,5808,5809,5810,5811,5812,5813,5773,5774,5775,5776,5777,5778,5779,5780,5781,5782,5783,5784,5785,5786,5787,5788,5789,5790,5791,5792,5793,5794,5795,5796,5797,5798,5799,5800,5801,5802,5803,5804,5805,5806,5807,5808,5809,5810,5811,5812,5813,5814,5815,5816,5817,5818,5819,5820,5821,5822,5823,5824,5825,5826,5827,5828,5829,5830,5831,5832,5833,5834,5835,5836,5837,5838,5839,5840,5841,5842,5843,5844,5845,5846,5847,5848,5849,5891,5892,5893,5894,5895,5896,5897,5898,5899,5900,5901,5902,5903,5904,5905,5906,5773,5774,5775,5776,5777,5778,5779,5780,5781,5782,5783,5784,5785,5786,5787,5788,5789,5790,5791,5792,5793,5794,5795,5796,5797,5798,5799,5800,5801,5802,5803,5804,5805,5806,5807,5808,5809,5810,5811,5812,5813,5814,5815,5816,5817,5818,5819,5820,5821,5822,5823,5824,5825,5826,5827,5773,5774,5775,5776,5777,5778,5779,5780,5781,5782,5783,5784,5785,5786,5787,5788,5789,5790,5791,5792,5793,5794,5795,5796,5797,5798,5799,5800,5801,5802,5803,5804,5805,5806,5807,5808,5809,5810,5811,5773,5774,5775,5776,5777,5778,5779,5780,5781,5782,5783,5784,5785,5786,5787,5788,5789,5790,5791,5792,5793,5794,5795,5796,5797,5781,5782,5783,5784,5785,5786,5787,5788,5789,5790,1185,1185,1186,1187,1188,1189,1185,1185,1186,1187,1188,1189,
5921,5921,5922,5923,5924,5925,5926,5927,5928,5929,5930,5931,5932,5933,5934,5935,5936,5937,5938,5939,5928,5929,5930,5931,5932,5933,5934,5935,5936,5937,5938,5939,5921,5921,5922,5923,5924,5925,5926,5927,5928,5929,5930,5931,5932,5933,5934,5935,5936,5937,5938,5939,5940,5941,5942,5943,5944,5945,5946,5947,5948,5949,5950,5951,5952,5953,5954,5955,5956,5957,5958,5959,5960,5961,5921,5922,5923,5924,5925,5926,5927,5928,5929,5930,5931,5932,5933,5934,5935,5936,5937,5938,5939,5940,5941,5942,5943,5944,5945,5946,5947,5948,5949,5950,5951,5952,5953,5954,5955,5956,5957,5958,5959,5960,5961,5962,5963,5964,5965,5966,5967,5968,5969,5970,5971,5972,5973,5974,5975,5976,5977,5978,5979,5980,5981,5982,5983,5984,5985,5986,5987,5988,5989,5990,5991,5992,5993,5994,5995,5996,5997,6039,6040,6041,6042,6043,6044,6045,6046,6047,6048,6049,6050,6051,6052,6053,6054,5921,5922,5923,5924,5925,5926,5927,5928,5929,5930,5931,5932,5933,5934,5935,5936,5937,5938,5939,5940,5941,5942,5943,5944,5945,5946,5947,5948,5949,5950,5951,5952,5953,5954,5955,5956,5957,5958,5959,5960,5961,5962,5963,5964,5965,5966,5967,5968,5969,5970,5971,5972,5973,5974,5975,5921,5922,5923,5924,5925,5926,5927,5928,5929,5930,5931,5932,5933,5934,5935,5936,5937,5938,5939,5940,5941,5942,5943,5944,5945,5946,5947,5948,5949,5950,5951,5952,5953,5954,5955,5956,5957,5958,5959,5921,5922,5923,5924,5925,5926,5927,5928,5929,5930,5931,5932,5933,5934,5935,5936,5937,5938,5939,5940,5941,5942,5943,5944,5945,5929,5930,5931,5932,5933,5934,5935,5936,5937,5938,1333,1333,1334,1335,1336,1337,1333,1333,1334,1335,1336,1337,
6069,6069,6070,6071,6072,6073,6074,6075,6076,6077,6078,6079,6080,6081,6082,6083,6084,6085,6086,6087,6076,6077,6078,6079,6080,6081,6082,6083,6084,6085,6086,6087,6069,6069,6070,6071,6072,6073,6074,6075,6076,6077,6078,6079,6080,6081,6082,6083,6084,6085,6086,6087,6088,6089,6090,6091,6092,6093,6094,6095,6096,6097,6098,6099,6100,6101,6102,6103,6104,6105,6106,6107,6108,6109,6069,6070,6071,6072,6073,6074,6075,6076,6077,6078,6079,6080,6081,6082,6083,6084,6085,6086,6087,6088,6089,6090,6091,6092,6093,6094,6095,6096,6097,6098,6099,6100,6101,6102,6103,6104,6105,6106,6107,6108,6109,6110,6111,6112,6113,6114,6115,6116,6117,6118,6119,6120,6121,6122,6123,6124,6125,6126,6127,6128,6129,6130,6131,6132,6133,6134,6135,6136,6137,6138,6139,6140,6141,6142,6143,6144,6145,6187,6188,6189,6190,6191,6192,6193,6194,6195,6196,6197,6198,6199,6200,6201,6202,6069,6070,6071,6072,6073,6074,6075,6076,6077,6078,6079,6080,6081,6082,6083,6084,6085,6086,6087,6088,6089,6090,6091,6092,6093,6094,6095,6096,6097,6098,6099,6100,6101,6102,6103,6104,6105,6106,6107,6108,6109,6110,6111,6112,6113,6114,6115,6116,6117,6118,6119,6120,6121,6122,6123,6069,6070,6071,6072,6073,6074,6075,6076,6077,6078,6079,6080,6081,6082,6083,6084,6085,6086,6087,6088,6089,6090,6091,6092,6093,6094,6095,6096,6097,6098,6099,6100,6101,6102,6103,6104,6105,6106,6107,6069,6070,6071,6072,6073,6074,6075,6076,6077,6078,6079,6080,6081,6082,6083,6084,6085,6086,6087,6088,6089,6090,6091,6092,6093,6077,6078,6079,6080,6081,6082,6083,6084,6085,6086,1481,1481,1482,1483,1484,1485,1481,1481,1482,1483,1484,1485,
6217,6217,6218,6219,6220,6221,6222,6223,6224,6225,6226,6227,6228,6229,6230,6231,6232,6233,6234,6235,6224,6225,6226,6227,6228,6229,6230,6231,6232,6233,6234,6235,6217,6217,6218,6219,6220,6221,6222,6223,6224,6225,6226,6227,6228,6229,6230,6231,6232,6233,6234,6235,6236,6237,6238,6239,6240,6241,6242,6243,6244,6245,6246,6247,6248,6249,6250,6251,6252,6253,6254,6255,6256,6257,6217,6218,6219,6220,6221,6222,6223,6224,6225,6226,6227,6228,6229,6230,6231,6232,6233,6234,6235,6236,6237,6238,6239,6240,6241,6242,6243,6244,6245,6246,6247,6248,6249,6250,6251,6252,6253,6254,6255,6256,6257,6258,6259,6260,6261,6262,6263,6264,6265,6266,6267,6268,6269,6270,6271,6272,6273,6274,6275,6276,6277,6278,6279,6280,6281,6282,6283,6284,6285,6286,6287,6288,6289,6290,6291,6292,6293,6335,6336,6337,6338,6339,6340,6341,6342,6343,6344,6345,6346,6347,6348,6349,6350,6217,6218,6219,6220,6221,6222,6223,6224,6225,6226,6227,6228,6229,6230,6231,6232,6233,6234,6235,6236,6237,6238,6239,6240,6241,6242,6243,6244,6245,6246,6247,6248,6249,6250,6251,6252,6253,6254,6255,6256,6257,6258,6259,6260,6261,6262,6263,6264,6265,6266,6267,6268,6269,6270,6271,6217,6218,6219,6220,6221,6222,6223,6224,6225,6226,6227,6228,6229,6230,6231,6232,6233,6234,6235,6236,6237,6238,6239,6240,6241,6242,6243,6244,6245,6246,6247,6248,6249,6250,6251,6252,6253,6254,6255,6217,6218,6219,6220,6221,6222,6223,6224,6225,6226,6227,6228,6229,6230,6231,6232,6233,6234,6235,6236,6237,6238,6239,6240,6241,6225,6226,6227,6228,6229,6230,6231,6232,6233,6234,1629,1629,1630,1631,1632,1633,1629,1629,1630,1631,1632,1633,
6365,6365,6366,6367,6368,6369,6370,6371,6372,6373,6374,6375,6376,6377,6378,6379,6380,6381,6382,6383,6372,6373,6374,6375,6376,6377,6378,6379,6380,6381,6382,6383,6365,6365,6366,6367,6368,6369,6370,6371,6372,6373,6374,6375,6376,6377,6378,6379,6380,6381,6382,6383,6384,6385,6386,6387,6388,6389,6390,6391,6392,6393,6394,6395,6396,6397,6398,6399,6400,6401,6402,6403,6404,6405,6365,6366,6367,6368,6369,6370,6371,6372,6373,6374,6375,6376,6377,6378,6379,6380,6381,6382,6383,6384,6385,6386,6387,6388,6389,6390,6391,6392,6393,6394,6395,6396,6397,6398,6399,6400,6401,6402,6403,6404,6405,6406,6407,6408,6409,6410,6411,6412,6413,6414,6415,6416,6417,6418,6419,6420,6421,6422,6423,6424,6425,6426,6427,6428,6429,6430,6431,6432,6433,6434,6435,6436,6437,6438,6439,6440,6441,6483,6484,6485,6486,6487,6488,6489,6490,6491,6492,6493,6494,6495,6496,6497,6498,6365,6366,6367,6368,6369,6370,6371,6372,6373,6374,6375,6376,6377,6378,6379,6380,6381,6382,6383,6384,6385,6386,6387,6388,6389,6390,6391,6392,6393,6394,6395,6396,6397,6398,6399,6400,6401,6402,6403,6404,6405,6406,6407,6408,6409,6410,6411,6412,6413,6414,6415,6416,6417,6418,6419,6365,6366,6367,6368,6369,6370,6371,6372,6373,6374,6375,6376,6377,6378,6379,6380,6381,6382,6383,6384,6385,6386,6387,6388,6389,6390,6391,6392,6393,6394,6395,6396,6397,6398,6399,6400,6401,6402,6403,6365,6366,6367,6368,6369,6370,6371,6372,6373,6374,6375,6376,6377,6378,6379,6380,6381,6382,6383,6384,6385,6386,6387,6388,6389,6373,6374,6375,6376,6377,6378,6379,6380,6381,6382,1777,1777,1778,1779,1780,1781,1777,1777,1778,1779,1780,1781,
6513,6513,6514,6515,6516,6517,6518,6519,6520,6521,6522,6523,6524,6525,6526,6527,6528,6529,6530,6531,6520,6521,6522,6523,6524,6525,6526,6527,6528,6529,6530,6531,6513,6513,6514,6515,6516,6517,6518,6519,6520,6521,6522,6523,6524,6525,6526,6527,6528,6529,6530,6531,6532,6533,6534,6535,6536,6537,6538,6539,6540,6541,6542,6543,6544,6545,6546,6547,6548,6549,6550,6551,6552,6553,6513,6514,6515,6516,6517,6518,6519,6520,6521,6522,6523,6524,6525,6526,6527,6528,6529,6530,6531,6532,6533,6534,6535,6536,6537,6538,6539,6540,6541,6542,6543,6544,6545,6546,6547,6548,6549,6550,6551,6552,6553,6554,6555,6556,6557,6558,6559,6560,6561,6562,6563,6564,6565,6566,6567,6568,6569,6570,6571,6572,6573,6574,6575,6576,6577,6578,6579,6580,6581,6582,6583,6584,6585,6586,6587,6588,6589,6631,6632,6633,6634,6635,6636,6637,6638,6639,6640,6641,6642,6643,6644,6645,6646,6513,6514,6515,6516,6517,6518,6519,6520,6521,6522,6523,6524,6525,6526,6527,6528,6529,6530,6531,6532,6533,6534,6535,6536,6537,6538,6539,6540,6541,6542,6543,6544,6545,6546,6547,6548,6549,6550,6551,6552,6553,6554,6555,6556,6557,6558,6559,6560,6561,6562,6563,6564,6565,6566,6567,6513,6514,6515,6516,6517,6518,6519,6520,6521,6522,6523,6524,6525,6526,6527,6528,6529,6530,6531,6532,6533,6534,6535,6536,6537,6538,6539,6540,6541,6542,6543,6544,6545,6546,6547,6548,6549,6550,6551,6513,6514,6515,6516,6517,6518,6519,6520,6521,6522,6523,6524,6525,6526,6527,6528,6529,6530,6531,6532,6533,6534,6535,6536,6537,6521,6522,6523,6524,6525,6526,6527,6528,6529,6530,1925,1925,1926,1927,1928,1929,1925,1925,1926,1927,1928,1929,
6661,6661,6662,6663,6664,6665,6666,6667,6668,6669,6670,6671,6672,6673,6674,6675,6676,6677,6678,6679,6668,6669,6670,6671,6672,6673,6674,6675,6676,6677,6678,6679,6661,6661,6662,6663,6664,6665,6666,6667,6668,6669,6670,6671,6672,6673,6674,6675,6676,6677,6678,6679,6680,6681,6682,6683,6684,6685,6686,6687,6688,6689,6690,6691,6692,6693,6694,6695,6696,6697,6698,6699,6700,6701,6661,6662,6663,6664,6665,6666,6667,6668,6669,6670,6671,6672,6673,6674,6675,6676,6677,6678,6679,6680,6681,6682,6683,6684,6685,6686,6687,6688,6689,6690,6691,6692,6693,6694,6695,6696,6697,6698,6699,6700,6701,6702,6703,6704,6705,6706,6707,6708,6709,6710,6711,6712,6713,6714,6715,6716,6717,6718,6719,6720,6721,6722,6723,6724,6725,6726,6727,6728,6729,6730,6731,6732,6733,6734,6735,6736,6737,6779,6780,6781,6782,6783,6784,6785,6786,6787,6788,6789,6790,6791,6792,6793,6794,6661,6662,6663,6664,6665,6666,6667,6668,6669,6670,6671,6672,6673,6674,6675,6676,6677,6678,6679,6680,6681,6682,6683,6684,6685,6686,6687,6688,6689,6690,6691,6692,6693,6694,6695,6696,6697,6698,6699,6700,6701,6702,6703,6704,6705,6706,6707,6708,6709,6710,6711,6712,6713,6714,6715,6661,6662,6663,6664,6665,6666,6667,6668,6669,6670,6671,6672,6673,6674,6675,6676,6677,6678,6679,6680,6681,6682,6683,6684,6685,6686,6687,6688,6689,6690,6691,6692,6693,6694,6695,6696,6697,6698,6699,6661,6662,6663,6664,6665,6666,6667,6668,6669,6670,6671,6672,6673,6674,6675,6676,6677,6678,6679,6680,6681,6682,6683,6684,6685,6669,6670,6671,6672,6673,6674,6675,6676,6677,6678,2073,2073,2074,2075,2076,2077,2073,2073,2074,2075,2076,2077,
6809,6809,6810,6811,6812,6813,6814,6815,6816,6817,6818,6819,6820,6821,6822,6823,6824,6825,6826,6827,6816,6817,6818,6819,6820,6821,6822,6823,6824,6825,6826,6827,6809,6809,6810,6811,6812,6813,6814,6815,6816,6817,6818,6819,6820,6821,6822,6823,6824,6825,6826,6827,6828,6829,6830,6831,6832,6833,6834,6835,6836,6837,6838,6839,6840,6841,6842,6843,6844,6845,6846,6847,6848,6849,6809,6810,6811,6812,6813,6814,6815,6816,6817,6818,6819,6820,6821,6822,6823,6824,6825,6826,6827,6828,6829,6830,6831,6832,6833,6834,6835,6836,6837,6838,6839,6840,6841,6842,6843,6844,6845,6846,6847,6848,6849,6850,6851,6852,6853,6854,6855,6856,6857,6858,6859,6860,6861,6862,6863,6864,6865,6866,6867,6868,6869,6870,6871,6872,6873,6874,6875,6876,6877,6878,6879,6880,6881,6882,6883,6884,6885,6927,6928,6929,6930,6931,6932,6933,6934,6935,6936,6937,6938,6939,6940,6941,6942,6809,6810,6811,6812,6813,6814,6815,6816,6817,6818,6819,6820,6821,6822,6823,6824,6825,6826,6827,6828,6829,6830,6831,6832,6833,6834,6835,6836,6837,6838,6839,6840,6841,6842,6843,6844,6845,6846,6847,6848,6849,6850,6851,6852,6853,6854,6855,6856,6857,6858,6859,6860,6861,6862,6863,6809,6810,6811,6812,6813,6814,6815,6816,6817,6818,6819,6820,6821,6822,6823,6824,6825,6826,6827,6828,6829,6830,6831,6832,6833,6834,6835,6836,6837,6838,6839,6840,6841,6842,6843,6844,6845,6846,6847,6809,6810,6811,6812,6813,6814,6815,6816,6817,6818,6819,6820,6821,6822,6823,6824,6825,6826,6827,6828,6829,6830,6831,6832,6833,6817,6818,6819,6820,6821,6822,6823,6824,6825,6826,2221,2221,2222,2223,2224,2225,2221,2221,2222,2223,2224,2225,
6957,6957,6958,6959,6960,6961,6962,6963,6964,6965,6966,6967,6968,6969,6970,6971,6972,6973,6974,6975,6964,6965,6966,6967,6968,6969,6970,6971,6972,6973,6974,6975,6957,6957,6958,6959,6960,6961,6962,6963,6964,6965,6966,6967,6968,6969,6970,6971,6972,6973,6974,6975,6976,6977,6978,6979,6980,6981,6982,6983,6984,6985,6986,6987,6988,6989,6990,6991,6992,6993,6994,6995,6996,6997,6957,6958,6959,6960,6961,6962,6963,6964,6965,6966,6967,6968,6969,6970,6971,6972,6973,6974,6975,6976,6977,6978,6979,6980,6981,6982,6983,6984,6985,6986,6987,6988,6989,6990,6991,6992,6993,6994,6995,6996,6997,6998,6999,7000,7001,7002,7003,7004,7005,7006,7007,7008,7009,7010,7011,7012,7013,7014,7015,7016,7017,7018,7019,7020,7021,7022,7023,7024,7025,7026,7027,7028,7029,7030,7031,7032,7033,7075,7076,7077,7078,7079,7080,7081,7082,7083,7084,7085,7086,7087,7088,7089,7090,6957,6958,6959,6960,6961,6962,6963,6964,6965,6966,6967,6968,6969,6970,6971,6972,6973,6974,6975,6976,6977,6978,6979,6980,6981,6982,6983,6984,6985,6986,6987,6988,6989,6990,6991,6992,6993,6994,6995,6996,6997,6998,6999,7000,7001,7002,7003,7004,7005,7006,7007,7008,7009,7010,7011,6957,6958,6959,6960,6961,6962,6963,6964,6965,6966,6967,6968,6969,6970,6971,6972,6973,6974,6975,6976,6977,6978,6979,6980,6981,6982,6983,6984,6985,6986,6987,6988,6989,6990,6991,6992,6993,6994,6995,6957,6958,6959,6960,6961,6962,6963,6964,6965,6966,6967,6968,6969,6970,6971,6972,6973,6974,6975,6976,6977,6978,6979,6980,6981,6965,6966,6967,6968,6969,6970,6971,6972,6973,6974,1185,1185,1186,1187,1188,1189,1185,1185,1186,1187,1188,1189,
7105,7105,7106,7107,7108,7109,7110,7111,7112,7113,7114,7115,7116,7117,7118,7119,7120,7121,7122,7123,7112,7113,7114,7115,7116,7117,7118,7119,7120,7121,7122,7123,7105,7105,7106,7107,7108,7109,7110,7111,7112,7113,7114,7115,7116,7117,7118,7119,7120,7121,7122,7123,7124,7125,7126,7127,7128,7129,7130,7131,7132,7133,7134,7135,7136,7137,7138,7139,7140,7141,7142,7143,7144,7145,7105,7106,7107,7108,7109,7110,7111,7112,7113,7114,7115,7116,7117,7118,7119,7120,7121,7122,7123,7124,7125,7126,7127,7128,7129,7130,7131,7132,7133,7134,7135,7136,7137,7138,7139,7140,7141,7142,7143,7144,7145,7146,7147,7148,7149,7150,7151,7152,7153,7154,7155,7156,7157,7158,7159,7160,7161,7162,7163,7164,7165,7166,7167,7168,7169,7170,7171,7172,7173,7174,7175,7176,7177,7178,7179,7180,7181,7223,7224,7225,7226,7227,7228,7229,7230,7231,7232,7233,7234,7235,7236,7237,7238,7105,7106,7107,7108,7109,7110,7111,7112,7113,7114,7115,7116,7117,7118,7119,7120,7121,7122,7123,7124,7125,7126,7127,7128,7129,7130,7131,7132,7133,7134,7135,7136,7137,7138,7139,7140,7141,7142,7143,7144,7145,7146,7147,7148,7149,7150,7151,7152,7153,7154,7155,7156,7157,7158,7159,7105,7106,7107,7108,7109,7110,7111,7112,7113,7114,7115,7116,7117,7118,7119,7120,7121,7122,7123,7124,7125,7126,7127,7128,7129,7130,7131,7132,7133,7134,7135,7136,7137,7138,7139,7140,7141,7142,7143,7105,7106,7107,7108,7109,7110,7111,7112,7113,7114,7115,7116,7117,7118,7119,7120,7121,7122,7123,7124,7125,7126,7127,7128,7129,7113,7114,7115,7116,7117,7118,7119,7120,7121,7122,1333,1333,1334,1335,1336,1337,1333,1333,1334,1335,1336,1337,
7253,7253,7254,7255,7256,7257,7258,7259,7260,7261,7262,7263,7264,7265,7266,7267,7268,7269,7270,7271,7260,7261,7262,7263,7264,7265,7266,7267,7268,7269,7270,7271,7253,7253,7254,7255,7256,7257,7258,7259,7260,7261,7262,7263,7264,7265,7266,7267,7268,7269,7270,7271,7272,7273,7274,7275,7276,7277,7278,7279,7280,7281,7282,7283,7284,7285,7286,7287,7288,7289,7290,7291,7292,7293,7253,7254,7255,7256,7257,7258,7259,7260,7261,7262,7263,7264,7265,7266,7267,7268,7269,7270,7271,7272,7273,7274,7275,7276,7277,7278,7279,7280,7281,7282,7283,7284,7285,7286,7287,7288,7289,7290,7291,7292,7293,7294,7295,7296,7297,7298,7299,7300,7301,7302,7303,7304,7305,7306,7307,7308,7309,7310,7311,7312,7313,7314,7315,7316,7317,7318,7319,7320,7321,7322,7323,7324,7325,7326,7327,7328,7329,7371,7372,7373,7374,7375,7376,7377,7378,7379,7380,7381,7382,7383,7384,7385,7386,7253,7254,7255,7256,7257,7258,7259,7260,7261,7262,7263,7264,7265,7266,7267,7268,7269,7270,7271,7272,7273,7274,7275,7276,7277,7278,7279,7280,7281,7282,7283,7284,7285,7286,7287,7288,7289,7290,7291,7292,7293,7294,7295,7296,7297,7298,7299,7300,7301,7302,7303,7304,7305,7306,7307,7253,7254,7255,7256,7257,7258,7259,7260,7261,7262,7263,7264,7265,7266,7267,7268,7269,7270,7271,7272,7273,7274,7275,7276,7277,7278,7279,7280,7281,7282,7283,7284,7285,7286,7287,7288,7289,7290,7291,7253,7254,7255,7256,7257,7258,7259,7260,7261,7262,7263,7264,7265,7266,7267,7268,7269,7270,7271,7272,7273,7274,7275,7276,7277,7261,7262,7263,7264,7265,7266,7267,7268,7269,7270,1481,1481,1482,1483,1484,1485,1481,1481,1482,1483,1484,1485,
7401,7401,7402,7403,7404,7405,7406,7407,7408,7409,7410,7411,7412,7413,7414,7415,7416,7417,7418,7419,7408,7409,7410,7411,7412,7413,7414,7415,7416,7417,7418,7419,7401,7401,7402,7403,7404,7405,7406,7407,7408,7409,7410,7411,7412,7413,7414,7415,7416,7417,7418,7419,7420,7421,7422,7423,7424,7425,7426,7427,7428,7429,7430,7431,7432,7433,7434,7435,7436,7437,7438,7439,7440,7441,7401,7402,7403,7404,7405,7406,7407,7408,7409,7410,7411,7412,7413,7414,7415,7416,7417,7418,7419,7420,7421,7422,7423,7424,7425,7426,7427,7428,7429,7430,7431,7432,7433,7434,7435,7436,7437,7438,7439,7440,7441,7442,7443,7444,7445,7446,7447,7448,7449,7450,7451,7452,7453,7454,7455,7456,7457,7458,7459,7460,7461,7462,7463,7464,7465,7466,7467,7468,7469,7470,7471,7472,7473,7474,7475,7476,7477,7519,7520,7521,7522,7523,7524,7525,7526,7527,7528,7529,7530,7531,7532,7533,7534,7401,7402,7403,7404,7405,7406,7407,7408,7409,7410,7411,7412,7413,7414,7415,7416,7417,7418,7419,7420,7421,7422,7423,7424,7425,7426,7427,7428,7429,7430,7431,7432,7433,7434,7435,7436,7437,7438,7439,7440,7441,7442,7443,7444,7445,7446,7447,7448,7449,7450,7451,7452,7453,7454,7455,7401,7402,7403,7404,7405,7406,7407,7408,7409,7410,7411,7412,7413,7414,7415,7416,7417,7418,7419,7420,7421,7422,7423,7424,7425,7426,7427,7428,7429,7430,7431,7432,7433,7434,7435,7436,7437,7438,7439,7401,7402,7403,7404,7405,7406,7407,7408,7409,7410,7411,7412,7413,7414,7415,7416,7417,7418,7419,7420,7421,7422,7423,7424,7425,7409,7410,7411,7412,7413,7414,7415,7416,7417,7418,1629,1629,1630,1631,1632,1633,1629,1629,1630,1631,1632,1633,
7549,7549,7550,7551,7552,7553,7554,7555,7556,7557,7558,7559,7560,7561,7562,7563,7564,7565,7566,7567,7556,7557,7558,7559,7560,7561,7562,7563,7564,7565,7566,7567,7549,7549,7550,7551,7552,7553,7554,7555,7556,7557,7558,7559,7560,7561,7562,7563,7564,7565,7566,7567,7568,7569,7570,7571,7572,7573,7574,7575,7576,7577,7578,7579,7580,7581,7582,7583,7584,7585,7586,7587,7588,7589,7549,7550,7551,7552,7553,7554,7555,7556,7557,7558,7559,7560,7561,7562,7563,7564,7565,7566,7567,7568,7569,7570,7571,7572,7573,7574,7575,7576,7577,7578,7579,7580,7581,7582,7583,7584,7585,7586,7587,7588,7589,7590,7591,7592,7593,7594,7595,7596,7597,7598,7599,7600,7601,7602,7603,7604,7605,7606,7607,7608,7609,7610,7611,7612,7613,7614,7615,7616,7617,7618,7619,7620,7621,7622,7623,7624,7625,7667,7668,7669,7670,7671,7672,7673,7674,7675,7676,7677,7678,7679,7680,7681,7682,7549,7550,7551,7552,7553,7554,7555,7556,7557,7558,7559,7560,7561,7562,7563,7564,7565,7566,7567,7568,7569,7570,7571,7572,7573,7574,7575,7576,7577,7578,7579,7580,7581,7582,7583,7584,7585,7586,7587,7588,7589,7590,7591,7592,7593,7594,7595,7596,7597,7598,7599,7600,7601,7602,7603,7549,7550,7551,7552,7553,7554,7555,7556,7557,7558,7559,7560,7561,7562,7563,7564,7565,7566,7567,7568,7569,7570,7571,7572,7573,7574,7575,7576,7577,7578,7579,7580,7581,7582,7583,7584,7585,7586,7587,7549,7550,7551,7552,7553,7554,7555,7556,7557,7558,7559,7560,7561,7562,7563,7564,7565,7566,7567,7568,7569,7570,7571,7572,7573,7557,7558,7559,7560,7561,7562,7563,7564,7565,7566,1777,1777,1778,1779,1780,1781,1777,1777,1778,1779,1780,1781,
7697,7697,7698,7699,7700,7701,7702,7703,7704,7705,7706,7707,7708,7709,7710,7711,7712,7713,7714,7715,7704,7705,7706,7707,7708,7709,7710,7711,7712,7713,7714,7715,7697,7697,7698,7699,7700,7701,7702,7703,7704,7705,7706,7707,7708,7709,7710,7711,7712,7713,7714,7715,7716,7717,7718,7719,7720,7721,7722,7723,7724,7725,7726,7727,7728,7729,7730,7731,7732,7733,7734,7735,7736,7737,7697,7698,7699,7700,7701,7702,7703,7704,7705,7706,7707,7708,7709,7710,7711,7712,7713,7714,7715,7716,7717,7718,7719,7720,7721,7722,7723,7724,7725,7726,7727,7728,7729,7730,7731,7732,7733,7734,7735,7736,7737,7738,7739,7740,7741,7742,7743,7744,7745,7746,7747,7748,7749,7750,7751,7752,7753,7754,7755,7756,7757,7758,7759,7760,7761,7762,7763,7764,7765,7766,7767,7768,7769,7770,7771,7772,7773,7815,7816,7817,7818,7819,7820,7821,7822,7823,7824,7825,7826,7827,7828,7829,7830,7697,7698,7699,7700,7701,7702,7703,7704,7705,7706,7707,7708,7709,7710,7711,7712,7713,7714,7715,7716,7717,7718,7719,7720,7721,7722,7723,7724,7725,7726,7727,7728,7729,7730,7731,7732,7733,7734,7735,7736,7737,7738,7739,7740,7741,7742,7743,7744,7745,7746,7747,7748,7749,7750,7751,7697,7698,7699,7700,7701,7702,7703,7704,7705,7706,7707,7708,7709,7710,7711,7712,7713,7714,7715,7716,7717,7718,7719,7720,7721,7722,7723,7724,7725,7726,7727,7728,7729,7730,7731,7732,7733,7734,7735,7697,7698,7699,7700,7701,7702,7703,7704,7705,7706,7707,7708,7709,7710,7711,7712,7713,7714,7715,7716,7717,7718,7719,7720,7721,7705,7706,7707,7708,7709,7710,7711,7712,7713,7714,1925,1925,1926,1927,1928,1929,1925,1925,1926,1927,1928,1929,
7845,7845,7846,7847,7848,7849,7850,7851,7852,7853,7854,7855,7856,7857,7858,7859,7860,7861,7862,7863,7852,7853,7854,7855,7856,7857,7858,7859,7860,7861,7862,7863,7845,7845,7846,7847,7848,7849,7850,7851,7852,7853,7854,7855,7856,7857,7858,7859,7860,7861,7862,7863,7864,7865,7866,7867,7868,7869,7870,7871,7872,7873,7874,7875,7876,7877,7878,7879,7880,7881,7882,7883,7884,7885,7845,7846,7847,7848,7849,7850,7851,7852,7853,7854,7855,7856,7857,7858,7859,7860,7861,7862,7863,7864,7865,7866,7867,7868,7869,7870,7871,7872,7873,7874,7875,7876,7877,7878,7879,7880,7881,7882,7883,7884,7885,7886,7887,7888,7889,7890,7891,7892,7893,7894,7895,7896,7897,7898,7899,7900,7901,7902,7903,7904,7905,7906,7907,7908,7909,7910,7911,7912,7913,7914,7915,7916,7917,7918,7919,7920,7921,7963,7964,7965,7966,7967,7968,7969,7970,7971,7972,7973,7974,7975,7976,7977,7978,7845,7846,7847,7848,7849,7850,7851,7852,7853,7854,7855,7856,7857,7858,7859,7860,7861,7862,7863,7864,7865,7866,7867,7868,7869,7870,7871,7872,7873,7874,7875,7876,7877,7878,7879,7880,7881,7882,7883,7884,7885,7886,7887,7888,7889,7890,7891,7892,7893,7894,7895,7896,7897,7898,7899,7845,7846,7847,7848,7849,7850,7851,7852,7853,7854,7855,7856,7857,7858,7859,7860,7861,7862,7863,7864,7865,7866,7867,7868,7869,7870,7871,7872,7873,7874,7875,7876,7877,7878,7879,7880,7881,7882,7883,7845,7846,7847,7848,7849,7850,7851,7852,7853,7854,7855,7856,7857,7858,7859,7860,7861,7862,7863,7864,7865,7866,7867,7868,7869,7853,7854,7855,7856,7857,7858,7859,7860,7861,7862,2073,2073,2074,2075,2076,2077,2073,2073,2074,2075,2076,2077,
7993,7993,7994,7995,7996,7997,7998,7999,8000,8001,8002,8003,8004,8005,8006,8007,8008,8009,8010,8011,8000,8001,8002,8003,8004,8005,8006,8007,8008,8009,8010,8011,7993,7993,7994,7995,7996,7997,7998,7999,8000,8001,8002,8003,8004,8005,8006,8007,8008,8009,8010,8011,8012,8013,8014,8015,8016,8017,8018,8019,8020,8021,8022,8023,8024,8025,8026,8027,8028,8029,8030,8031,8032,8033,7993,7994,7995,7996,7997,7998,7999,8000,8001,8002,8003,8004,8005,8006,8007,8008,8009,8010,8011,8012,8013,8014,8015,8016,8017,8018,8019,8020,8021,8022,8023,8024,8025,8026,8027,8028,8029,8030,8031,8032,8033,8034,8035,8036,8037,8038,8039,8040,8041,8042,8043,8044,8045,8046,8047,8048,8049,8050,8051,8052,8053,8054,8055,8056,8057,8058,8059,8060,8061,8062,8063,8064,8065,8066,8067,8068,8069,8111,8112,8113,8114,8115,8116,8117,8118,8119,8120,8121,8122,8123,8124,8125,8126,7993,7994,7995,7996,7997,7998,7999,8000,8001,8002,8003,8004,8005,8006,8007,8008,8009,8010,8011,8012,8013,8014,8015,8016,8017,8018,8019,8020,8021,8022,8023,8024,8025,8026,8027,8028,8029,8030,8031,8032,8033,8034,8035,8036,8037,8038,8039,8040,8041,8042,8043,8044,8045,8046,8047,7993,7994,7995,7996,7997,7998,7999,8000,8001,8002,8003,8004,8005,8006,8007,8008,8009,8010,8011,8012,8013,8014,8015,8016,8017,8018,8019,8020,8021,8022,8023,8024,8025,8026,8027,8028,8029,8030,8031,7993,7994,7995,7996,7997,7998,7999,8000,8001,8002,8003,8004,8005,8006,8007,8008,8009,8010,8011,8012,8013,8014,8015,8016,8017,8001,8002,8003,8004,8005,8006,8007,8008,8009,8010,2221,2221,2222,2223,2224,2225,2221,2221,2222,2223,2224,2225,
8141,8141,8142,8143,8144,8145,8146,8147,8148,8149,8150,8151,8152,8153,8154,8155,8156,8157,8158,8159,8148,8149,8150,8151,8152,8153,8154,8155,8156,8157,8158,8159,8141,8141,8142,8143,8144,8145,8146,8147,8148,8149,8150,8151,8152,8153,8154,8155,8156,8157,8158,8159,8160,8161,8162,8163,8164,8165,8166,8167,8168,8169,8170,8171,8172,8173,8174,8175,8176,8177,8178,8179,8180,8181,8141,8142,8143,8144,8145,8146,8147,8148,8149,8150,8151,8152,8153,8154,8155,8156,8157,8158,8159,8160,8161,8162,8163,8164,8165,8166,8167,8168,8169,8170,8171,8172,8173,8174,8175,8176,8177,8178,8179,8180,8181,8182,8183,8184,8185,8186,8187,8188,8189,8190,8191,8192,8193,8194,8195,8196,8197,8198,8199,8200,8201,8202,8203,8204,8205,8206,8207,8208,8209,8210,8211,8212,8213,8214,8215,8216,8217,8259,8260,8261,8262,8263,8264,8265,8266,8267,8268,8269,8270,8271,8272,8273,8274,8141,8142,8143,8144,8145,8146,8147,8148,8149,8150,8151,8152,8153,8154,8155,8156,8157,8158,8159,8160,8161,8162,8163,8164,8165,8166,8167,8168,8169,8170,8171,8172,8173,8174,8175,8176,8177,8178,8179,8180,8181,8182,8183,8184,8185,8186,8187,8188,8189,8190,8191,8192,8193,8194,8195,8141,8142,8143,8144,8145,8146,8147,8148,8149,8150,8151,8152,8153,8154,8155,8156,8157,8158,8159,8160,8161,8162,8163,8164,8165,8166,8167,8168,8169,8170,8171,8172,8173,8174,8175,8176,8177,8178,8179,8141,8142,8143,8144,8145,8146,8147,8148,8149,8150,8151,8152,8153,8154,8155,8156,8157,8158,8159,8160,8161,8162,8163,8164,8165,8149,8150,8151,8152,8153,8154,8155,8156,8157,8158,1185,1185,1186,1187,1188,1189,1185,1185,1186,1187,1188,1189,
8289,8289,8290,8291,8292,8293,8294,8295,8296,8297,8298,8299,8300,8301,8302,8303,8304,8305,8306,8307,8296,8297,8298,8299,8300,8301,8302,8303,8304,8305,8306,8307,8289,8289,8290,8291,8292,8293,8294,8295,8296,8297,8298,8299,8300,8301,8302,8303,8304,8305,8306,8307,8308,8309,8310,8311,8312,8313,8314,8315,8316,8317,8318,8319,8320,8321,8322,8323,8324,8325,8326,8327,8328,8329,8289,8290,8291,8292,8293,8294,8295,8296,8297,8298,8299,8300,8301,8302,8303,8304,8305,8306,8307,8308,8309,8310,8311,8312,8313,8314,8315,8316,8317,8318,8319,8320,8321,8322,8323,8324,8325,8326,8327,8328,8329,8330,8331,8332,8333,8334,8335,8336,8337,8338,8339,8340,8341,8342,8343,8344,8345,8346,8347,8348,8349,8350,8351,8352,8353,8354,8355,8356,8357,8358,8359,8360,8361,8362,8363,8364,8365,8407,8408,8409,8410,8411,8412,8413,8414,8415,8416,8417,8418,8419,8420,8421,8422,8289,8290,8291,8292,8293,8294,8295,8296,8297,8298,8299,8300,8301,8302,8303,8304,8305,8306,8307,8308,8309,8310,8311,8312,8313,8314,8315,8316,8317,8318,8319,8320,8321,8322,8323,8324,8325,8326,8327,8328,8329,8330,8331,8332,8333,8334,8335,8336,8337,8338,8339,8340,8341,8342,8343,8289,8290,8291,8292,8293,8294,8295,8296,8297,8298,8299,8300,8301,8302,8303,8304,8305,8306,8307,8308,8309,8310,8311,8312,8313,8314,8315,8316,8317,8318,8319,8320,8321,8322,8323,8324,8325,8326,8327,8289,8290,8291,8292,8293,8294,8295,8296,8297,8298,8299,8300,8301,8302,8303,8304,8305,8306,8307,8308,8309,8310,8311,8312,8313,8297,8298,8299,8300,8301,8302,8303,8304,8305,8306,1333,1333,1334,1335,1336,1337,1333,1333,1334,1335,1336,1337,
8437,8437,8438,8439,8440,8441,8442,8443,8444,8445,8446,8447,8448,8449,8450,8451,8452,8453,8454,8455,8444,8445,8446,8447,8448,8449,8450,8451,8452,8453,8454,8455,8437,8437,8438,8439,8440,8441,8442,8443,8444,8445,8446,8447,8448,8449,8450,8451,8452,8453,8454,8455,8456,8457,8458,8459,8460,8461,8462,8463,8464,8465,8466,8467,8468,8469,8470,8471,8472,8473,8474,8475,8476,8477,8437,8438,8439,8440,8441,8442,8443,8444,8445,8446,8447,8448,8449,8450,8451,8452,8453,8454,8455,8456,8457,8458,8459,8460,8461,8462,8463,8464,8465,8466,8467,8468,8469,8470,8471,8472,8473,8474,8475,8476,8477,8478,8479,8480,8481,8482,8483,8484,8485,8486,8487,8488,8489,8490,8491,8492,8493,8494,8495,8496,8497,8498,8499,8500,8501,8502,8503,8504,8505,8506,8507,8508,8509,8510,8511,8512,8513,8555,8556,8557,8558,8559,8560,8561,8562,8563,8564,8565,8566,8567,8568,8569,8570,8437,8438,8439,8440,8441,8442,8443,8444,8445,8446,8447,8448,8449,8450,8451,8452,8453,8454,8455,8456,8457,8458,8459,8460,8461,8462,8463,8464,8465,8466,8467,8468,8469,8470,8471,8472,8473,8474,8475,8476,8477,8478,8479,8480,8481,8482,8483,8484,8485,8486,8487,8488,8489,8490,8491,8437,8438,8439,8440,8441,8442,8443,8444,8445,8446,8447,8448,8449,8450,8451,8452,8453,8454,8455,8456,8457,8458,8459,8460,8461,8462,8463,8464,8465,8466,8467,8468,8469,8470,8471,8472,8473,8474,8475,8437,8438,8439,8440,8441,8442,8443,8444,8445,8446,8447,8448,8449,8450,8451,8452,8453,8454,8455,8456,8457,8458,8459,8460,8461,8445,8446,8447,8448,8449,8450,8451,8452,8453,8454,1481,1481,1482,1483,1484,1485,1481,1481,1482,1483,1484,1485,
8585,8585,8586,8587,8588,8589,8590,8591,8592,8593,8594,8595,8596,8597,8598,8599,8600,8601,8602,8603,8592,8593,8594,8595,8596,8597,8598,8599,8600,8601,8602,8603,8585,8585,8586,8587,8588,8589,8590,8591,8592,8593,8594,8595,8596,8597,8598,8599,8600,8601,8602,8603,8604,8605,8606,8607,8608,8609,8610,8611,8612,8613,8614,8615,8616,8617,8618,8619,8620,8621,8622,8623,8624,8625,8585,8586,8587,8588,8589,8590,8591,8592,8593,8594,8595,8596,8597,8598,8599,8600,8601,8602,8603,8604,8605,8606,8607,8608,8609,8610,8611,8612,8613,8614,8615,8616,8617,8618,8619,8620,8621,8622,8623,8624,8625,8626,8627,8628,8629,8630,8631,8632,8633,8634,8635,8636,8637,8638,8639,8640,8641,8642,8643,8644,8645,8646,8647,8648,8649,8650,8651,8652,8653,8654,8655,8656,8657,8658,8659,8660,8661,8703,8704,8705,8706,8707,8708,8709,8710,8711,8712,8713,8714,8715,8716,8717,8718,8585,8586,8587,8588,8589,8590,8591,8592,8593,8594,8595,8596,8597,8598,8599,8600,8601,8602,8603,8604,8605,8606,8607,8608,8609,8610,8611,8612,8613,8614,8615,8616,8617,8618,8619,8620,8621,8622,8623,8624,8625,8626,8627,8628,8629,8630,8631,8632,8633,8634,8635,8636,8637,8638,8639,8585,8586,8587,8588,8589,8590,8591,8592,8593,8594,8595,8596,8597,8598,8599,8600,8601,8602,8603,8604,8605,8606,8607,8608,8609,8610,8611,8612,8613,8614,8615,8616,8617,8618,8619,8620,8621,8622,8623,8585,8586,8587,8588,8589,8590,8591,8592,8593,8594,8595,8596,8597,8598,8599,8600,8601,8602,8603,8604,8605,8606,8607,8608,8609,8593,8594,8595,8596,8597,8598,8599,8600,8601,8602,1629,1629,1630,1631,1632,1633,1629,1629,1630,1631,1632,1633,
8733,8733,8734,8735,8736,8737,8738,8739,8740,8741,8742,8743,8744,8745,8746,8747,8748,8749,8750,8751,8740,8741,8742,8743,8744,8745,8746,8747,8748,8749,8750,8751,8733,8733,8734,8735,8736,8737,8738,8739,8740,8741,8742,8743,8744,8745,8746,8747,8748,8749,8750,8751,8752,8753,8754,8755,8756,8757,8758,8759,8760,8761,8762,8763,8764,8765,8766,8767,8768,8769,8770,8771,8772,8773,8733,8734,8735,8736,8737,8738,8739,8740,8741,8742,8743,8744,8745,8746,8747,8748,8749,8750,8751,8752,8753,8754,8755,8756,8757,8758,8759,8760,8761,8762,8763,8764,8765,8766,8767,8768,8769,8770,8771,8772,8773,8774,8775,8776,8777,8778,8779,8780,8781,8782,8783,8784,8785,8786,8787,8788,8789,8790,8791,8792,8793,8794,8795,8796,8797,8798,8799,8800,8801,8802,8803,8804,8805,8806,8807,8808,8809,8851,8852,8853,8854,8855,8856,8857,8858,8859,8860,8861,8862,8863,8864,8865,8866,8733,8734,8735,8736,8737,8738,8739,8740,8741,8742,8743,8744,8745,8746,8747,8748,8749,8750,8751,8752,8753,8754,8755,8756,8757,8758,8759,8760,8761,8762,8763,8764,8765,8766,8767,8768,8769,8770,8771,8772,8773,8774,8775,8776,8777,8778,8779,8780,8781,8782,8783,8784,8785,8786,8787,8733,8734,8735,8736,8737,8738,8739,8740,8741,8742,8743,8744,8745,8746,8747,8748,8749,8750,8751,8752,8753,8754,8755,8756,8757,8758,8759,8760,8761,8762,8763,8764,8765,8766,8767,8768,8769,8770,8771,8733,8734,8735,8736,8737,8738,8739,8740,8741,8742,8743,8744,8745,8746,8747,8748,8749,8750,8751,8752,8753,8754,8755,8756,8757,8741,8742,8743,8744,8745,8746,8747,8748,8749,8750,1777,1777,1778,1779,1780,1781,1777,1777,1778,1779,1780,1781,
8881,8881,8882,8883,8884,8885,8886,8887,8888,8889,8890,8891,8892,8893,8894,8895,8896,8897,8898,8899,8888,8889,8890,8891,8892,8893,8894,8895,8896,8897,8898,8899,8881,8881,8882,8883,8884,8885,8886,8887,8888,8889,8890,8891,8892,8893,8894,8895,8896,8897,8898,8899,8900,8901,8902,8903,8904,8905,8906,8907,8908,8909,8910,8911,8912,8913,8914,8915,8916,8917,8918,8919,8920,8921,8881,8882,8883,8884,8885,8886,8887,8888,8889,8890,8891,8892,8893,8894,8895,8896,8897,8898,8899,8900,8901,8902,8903,8904,8905,8906,8907,8908,8909,8910,8911,8912,8913,8914,8915,8916,8917,8918,8919,8920,8921,8922,8923,8924,8925,8926,8927,8928,8929,8930,8931,8932,8933,8934,8935,8936,8937,8938,8939,8940,8941,8942,8943,8944,8945,8946,8947,8948,8949,8950,8951,8952,8953,8954,8955,8956,8957,8999,9000,9001,9002,9003,9004,9005,9006,9007,9008,9009,9010,9011,9012,9013,9014,8881,8882,8883,8884,8885,8886,8887,8888,8889,8890,8891,8892,8893,8894,8895,8896,8897,8898,8899,8900,8901,8902,8903,8904,8905,8906,8907,8908,8909,8910,8911,8912,8913,8914,8915,8916,8917,8918,8919,8920,8921,8922,8923,8924,8925,8926,8927,8928,8929,8930,8931,8932,8933,8934,8935,8881,8882,8883,8884,8885,8886,8887,8888,8889,8890,8891,8892,8893,8894,8895,8896,8897,8898,8899,8900,8901,8902,8903,8904,8905,8906,8907,8908,8909,8910,8911,8912,8913,8914,8915,8916,8917,8918,8919,8881,8882,8883,8884,8885,8886,8887,8888,8889,8890,8891,8892,8893,8894,8895,8896,8897,8898,8899,8900,8901,8902,8903,8904,8905,8889,8890,8891,8892,8893,8894,8895,8896,8897,8898,1925,1925,1926,1927,1928,1929,1925,1925,1926,1927,1928,1929,
9029,9029,9030,9031,9032,9033,9034,9035,9036,9037,9038,9039,9040,9041,9042,9043,9044,9045,9046,9047,9036,9037,9038,9039,9040,9041,9042,9043,9044,9045,9046,9047,9029,9029,9030,9031,9032,9033,9034,9035,9036,9037,9038,9039,9040,9041,9042,9043,9044,9045,9046,9047,9048,9049,9050,9051,9052,9053,9054,9055,9056,9057,9058,9059,9060,9061,9062,9063,9064,9065,9066,9067,9068,9069,9029,9030,9031,9032,9033,9034,9035,9036,9037,9038,9039,9040,9041,9042,9043,9044,9045,9046,9047,9048,9049,9050,9051,9052,9053,9054,9055,9056,9057,9058,9059,9060,9061,9062,9063,9064,9065,9066,9067,9068,9069,9070,9071,9072,9073,9074,9075,9076,9077,9078,9079,9080,9081,9082,9083,9084,9085,9086,9087,9088,9089,9090,9091,9092,9093,9094,9095,9096,9097,9098,9099,9100,9101,9102,9103,9104,9105,9147,9148,9149,9150,9151,9152,9153,9154,9155,9156,9157,9158,9159,9160,9161,9162,9029,9030,9031,9032,9033,9034,9035,9036,9037,9038,9039,9040,9041,9042,9043,9044,9045,9046,9047,9048,9049,9050,9051,9052,9053,9054,9055,9056,9057,9058,9059,9060,9061,9062,9063,9064,9065,9066,9067,9068,9069,9070,9071,9072,9073,9074,9075,9076,9077,9078,9079,9080,9081,9082,9083,9029,9030,9031,9032,9033,9034,9035,9036,9037,9038,9039,9040,9041,9042,9043,9044,9045,9046,9047,9048,9049,9050,9051,9052,9053,9054,9055,9056,9057,9058,9059,9060,9061,9062,9063,9064,9065,9066,9067,9029,9030,9031,9032,9033,9034,9035,9036,9037,9038,9039,9040,9041,9042,9043,9044,9045,9046,9047,9048,9049,9050,9051,9052,9053,9037,9038,9039,9040,9041,9042,9043,9044,9045,9046,2073,2073,2074,2075,2076,2077,2073,2073,2074,2075,2076,2077,
9177,9177,9178,9179,9180,9181,9182,9183,9184,9185,9186,9187,9188,9189,9190,9191,9192,9193,9194,9195,9184,9185,9186,9187,9188,9189,9190,9191,9192,9193,9194,9195,9177,9177,9178,9179,9180,9181,9182,9183,9184,9185,9186,9187,9188,9189,9190,9191,9192,9193,9194,9195,9196,9197,9198,9199,9200,9201,9202,9203,9204,9205,9206,9207,9208,9209,9210,9211,9212,9213,9214,9215,9216,9217,9177,9178,9179,9180,9181,9182,9183,9184,9185,9186,9187,9188,9189,9190,9191,9192,9193,9194,9195,9196,9197,9198,9199,9200,9201,9202,9203,9204,9205,9206,9207,9208,9209,9210,9211,9212,9213,9214,9215,9216,9217,9218,9219,9220,9221,9222,9223,9224,9225,9226,9227,9228,9229,9230,9231,9232,9233,9234,9235,9236,9237,9238,9239,9240,9241,9242,9243,9244,9245,9246,9247,9248,9249,9250,9251,9252,9253,9295,9296,9297,9298,9299,9300,9301,9302,9303,9304,9305,9306,9307,9308,9309,9310,9177,9178,9179,9180,9181,9182,9183,9184,9185,9186,9187,9188,9189,9190,9191,9192,9193,9194,9195,9196,9197,9198,9199,9200,9201,9202,9203,9204,9205,9206,9207,9208,9209,9210,9211,9212,9213,9214,9215,9216,9217,9218,9219,9220,9221,9222,9223,9224,9225,9226,9227,9228,9229,9230,9231,9177,9178,9179,9180,9181,9182,9183,9184,9185,9186,9187,9188,9189,9190,9191,9192,9193,9194,9195,9196,9197,9198,9199,9200,9201,9202,9203,9204,9205,9206,9207,9208,9209,9210,9211,9212,9213,9214,9215,9177,9178,9179,9180,9181,9182,9183,9184,9185,9186,9187,9188,9189,9190,9191,9192,9193,9194,9195,9196,9197,9198,9199,9200,9201,9185,9186,9187,9188,9189,9190,9191,9192,9193,9194,2221,2221,2222,2223,2224,2225,2221,2221,2222,2223,2224,2225,
9325,9325,9326,9327,9328,9329,9330,9331,9332,9333,9334,9335,9336,9337,9338,9339,9340,9341,9342,9343,9332,9333,9334,9335,9336,9337,9338,9339,9340,9341,9342,9343,9325,9325,9326,9327,9328,9329,9330,9331,9332,9333,9334,9335,9336,9337,9338,9339,9340,9341,9342,9343,9344,9345,9346,9347,9348,9349,9350,9351,9352,9353,9354,9355,9356,9357,9358,9359,9360,9361,9362,9363,9364,9365,9325,9326,9327,9328,9329,9330,9331,9332,9333,9334,9335,9336,9337,9338,9339,9340,9341,9342,9343,9344,9345,9346,9347,9348,9349,9350,9351,9352,9353,9354,9355,9356,9357,9358,9359,9360,9361,9362,9363,9364,9365,9366,9367,9368,9369,9370,9371,9372,9373,9374,9375,9376,9377,9378,9379,9380,9381,9382,9383,9384,9385,9386,9387,9388,9389,9390,9391,9392,9393,9394,9395,9396,9397,9398,9399,9400,9401,9443,9444,9445,9446,9447,9448,9449,9450,9451,9452,9453,9454,9455,9456,9457,9458,9325,9326,9327,9328,9329,9330,9331,9332,9333,9334,9335,9336,9337,9338,9339,9340,9341,9342,9343,9344,9345,9346,9347,9348,9349,9350,9351,9352,9353,9354,9355,9356,9357,9358,9359,9360,9361,9362,9363,9364,9365,9366,9367,9368,9369,9370,9371,9372,9373,9374,9375,9376,9377,9378,9379,9325,9326,9327,9328,9329,9330,9331,9332,9333,9334,9335,9336,9337,9338,9339,9340,9341,9342,9343,9344,9345,9346,9347,9348,9349,9350,9351,9352,9353,9354,9355,9356,9357,9358,9359,9360,9361,9362,9363,9325,9326,9327,9328,9329,9330,9331,9332,9333,9334,9335,9336,9337,9338,9339,9340,9341,9342,9343,9344,9345,9346,9347,9348,9349,9333,9334,9335,9336,9337,9338,9339,9340,9341,9342,1185,1185,1186,1187,1188,1189,1185,1185,1186,1187,1188,1189,
9473,9473,9474,9475,9476,9477,9478,9479,9480,9481,9482,9483,9484,9485,9486,9487,9488,9489,9490,9491,9480,9481,9482,9483,9484,9485,9486,9487,9488,9489,9490,9491,9473,9473,9474,9475,9476,9477,9478,9479,9480,9481,9482,9483,9484,9485,9486,9487,9488,9489,9490,9491,9492,9493,9494,9495,9496,9497,9498,9499,9500,9501,9502,9503,9504,9505,9506,9507,9508,9509,9510,9511,9512,9513,9473,9474,9475,9476,9477,9478,9479,9480,9481,9482,9483,9484,9485,9486,9487,9488,9489,9490,9491,9492,9493,9494,9495,9496,9497,9498,9499,9500,9501,9502,9503,9504,9505,9506,9507,9508,9509,9510,9511,9512,9513,9514,9515,9516,9517,9518,9519,9520,9521,9522,9523,9524,9525,9526,9527,9528,9529,9530,9531,9532,9533,9534,9535,9536,9537,9538,9539,9540,9541,9542,9543,9544,9545,9546,9547,9548,9549,9591,9592,9593,9594,9595,9596,9597,9598,9599,9600,9601,9602,9603,9604,9605,9606,9473,9474,9475,9476,9477,9478,9479,9480,9481,9482,9483,9484,9485,9486,9487,9488,9489,9490,9491,9492,9493,9494,9495,9496,9497,9498,9499,9500,9501,9502,9503,9504,9505,9506,9507,9508,9509,9510,9511,9512,9513,9514,9515,9516,9517,9518,9519,9520,9521,9522,9523,9524,9525,9526,9527,9473,9474,9475,9476,9477,9478,9479,9480,9481,9482,9483,9484,9485,9486,9487,9488,9489,9490,9491,9492,9493,9494,9495,9496,9497,9498,9499,9500,9501,9502,9503,9504,9505,9506,9507,9508,9509,9510,9511,9473,9474,9475,9476,9477,9478,9479,9480,9481,9482,9483,9484,9485,9486,9487,9488,9489,9490,9491,9492,9493,9494,9495,9496,9497,9481,9482,9483,9484,9485,9486,9487,9488,9489,9490,1333,1333,1334,1335,1336,1337,1333,1333,1334,1335,1336,1337,
9621,9621,9622,9623,9624,9625,9626,9627,9628,9629,9630,9631,9632,9633,9634,9635,9636,9637,9638,9639,9628,9629,9630,9631,9632,9633,9634,9635,9636,9637,9638,9639,9621,9621,9622,9623,9624,9625,9626,9627,9628,9629,9630,9631,9632,9633,9634,9635,9636,9637,9638,9639,9640,9641,9642,9643,9644,9645,9646,9647,9648,9649,9650,9651,9652,9653,9654,9655,9656,9657,9658,9659,9660,9661,9621,9622,9623,9624,9625,9626,9627,9628,9629,9630,9631,9632,9633,9634,9635,9636,9637,9638,9639,9640,9641,9642,9643,9644,9645,9646,9647,9648,9649,9650,9651,9652,9653,9654,9655,9656,9657,9658,9659,9660,9661,9662,9663,9664,9665,9666,9667,9668,9669,9670,9671,9672,9673,9674,9675,9676,9677,9678,9679,9680,9681,9682,9683,9684,9685,9686,9687,9688,9689,9690,9691,9692,9693,9694,9695,9696,9697,9739,9740,9741,9742,9743,9744,9745,9746,9747,9748,9749,9750,9751,9752,9753,9754,9621,9622,9623,9624,9625,9626,9627,9628,9629,9630,9631,9632,9633,9634,9635,9636,9637,9638,9639,9640,9641,9642,9643,9644,9645,9646,9647,9648,9649,9650,9651,9652,9653,9654,9655,9656,9657,9658,9659,9660,9661,9662,9663,9664,9665,9666,9667,9668,9669,9670,9671,9672,9673,9674,9675,9621,9622,9623,9624,9625,9626,9627,9628,9629,9630,9631,9632,9633,9634,9635,9636,9637,9638,9639,9640,9641,9642,9643,9644,9645,9646,9647,9648,9649,9650,9651,9652,9653,9654,9655,9656,9657,9658,9659,9621,9622,9623,9624,9625,9626,9627,9628,9629,9630,9631,9632,9633,9634,9635,9636,9637,9638,9639,9640,9641,9642,9643,9644,9645,9629,9630,9631,9632,9633,9634,9635,9636,9637,9638,1481,1481,1482,1483,1484,1485,1481,1481,1482,1483,1484,1485,
9769,9769,9770,9771,9772,9773,9774,9775,9776,9777,9778,9779,9780,9781,9782,9783,9784,9785,9786,9787,9776,9777,9778,9779,9780,9781,9782,9783,9784,9785,9786,9787,9769,9769,9770,9771,9772,9773,9774,9775,9776,9777,9778,9779,9780,9781,9782,9783,9784,9785,9786,9787,9788,9789,9790,9791,9792,9793,9794,9795,9796,9797,9798,9799,9800,9801,9802,9803,9804,9805,9806,9807,9808,9809,9769,9770,9771,9772,9773,9774,9775,9776,9777,9778,9779,9780,9781,9782,9783,9784,9785,9786,9787,9788,9789,9790,9791,9792,9793,9794,9795,9796,9797,9798,9799,9800,9801,9802,9803,9804,9805,9806,9807,9808,9809,9810,9811,9812,9813,9814,9815,9816,9817,9818,9819,9820,9821,9822,9823,9824,9825,9826,9827,9828,9829,9830,9831,9832,9833,9834,9835,9836,9837,9838,9839,9840,9841,9842,9843,9844,9845,9887,9888,9889,9890,9891,9892,9893,9894,9895,9896,9897,9898,9899,9900,9901,9902,9769,9770,9771,9772,9773,9774,9775,9776,9777,9778,9779,9780,9781,9782,9783,9784,9785,9786,9787,9788,9789,9790,9791,9792,9793,9794,9795,9796,9797,9798,9799,9800,9801,9802,9803,9804,9805,9806,9807,9808,9809,9810,9811,9812,9813,9814,9815,9816,9817,9818,9819,9820,9821,9822,9823,9769,9770,9771,9772,9773,9774,9775,9776,9777,9778,9779,9780,9781,9782,9783,9784,9785,9786,9787,9788,9789,9790,9791,9792,9793,9794,9795,9796,9797,9798,9799,9800,9801,9802,9803,9804,9805,9806,9807,9769,9770,9771,9772,9773,9774,9775,9776,9777,9778,9779,9780,9781,9782,9783,9784,9785,9786,9787,9788,9789,9790,9791,9792,9793,9777,9778,9779,9780,9781,9782,9783,9784,9785,9786,1629,1629,1630,1631,1632,1633,1629,1629,1630,1631,1632,1633,
9917,9917,9918,9919,9920,9921,9922,9923,9924,9925,9926,9927,9928,9929,9930,9931,9932,9933,9934,9935,9924,9925,9926,9927,9928,9929,9930,9931,9932,9933,9934,9935,9917,9917,9918,9919,9920,9921,9922,9923,9924,9925,9926,9927,9928,9929,9930,9931,9932,9933,9934,9935,9936,9937,9938,9939,9940,9941,9942,9943,9944,9945,9946,9947,9948,9949,9950,9951,9952,9953,9954,9955,9956,9957,9917,9918,9919,9920,9921,9922,9923,9924,9925,9926,9927,9928,9929,9930,9931,9932,9933,9934,9935,9936,9937,9938,9939,9940,9941,9942,9943,9944,9945,9946,9947,9948,9949,9950,9951,9952,9953,9954,9955,9956,9957,9958,9959,9960,9961,9962,9963,9964,9965,9966,9967,9968,9969,9970,9971,9972,9973,9974,9975,9976,9977,9978,9979,9980,9981,9982,9983,9984,9985,9986,9987,9988,9989,9990,9991,9992,9993,10035,10036,10037,10038,10039,10040,10041,10042,10043,10044,10045,10046,10047,10048,10049,10050,9917,9918,9919,9920,9921,9922,9923,9924,9925,9926,9927,9928,9929,9930,9931,9932,9933,9934,9935,9936,9937,9938,9939,9940,9941,9942,9943,9944,9945,9946,9947,9948,9949,9950,9951,9952,9953,9954,9955,9956,9957,9958,9959,9960,9961,9962,9963,9964,9965,9966,9967,9968,9969,9970,9971,9917,9918,9919,9920,9921,9922,9923,9924,9925,9926,9927,9928,9929,9930,9931,9932,9933,9934,9935,9936,9937,9938,9939,9940,9941,9942,9943,9944,9945,9946,9947,9948,9949,9950,9951,9952,9953,9954,9955,9917,9918,9919,9920,9921,9922,9923,9924,9925,9926,9927,9928,9929,9930,9931,9932,9933,9934,9935,9936,9937,9938,9939,9940,9941,9925,9926,9927,9928,9929,9930,9931,9932,9933,9934,1777,1777,1778,1779,1780,1781,1777,1777,1778,1779,1780,1781,
9473,9473,9474,9475,9476,9477,9478,9479,9480,9481,9482,9483,9484,9485,9486,9487,9488,9489,9490,9491,9480,9481,9482,9483,9484,9485,9486,9487,9488,9489,9490,9491,9473,9473,9474,9475,9476,9477,9478,9479,9480,9481,9482,9483,9484,9485,9486,9487,9488,9489,9490,9491,9492,9493,9494,9473,9473,9474,9475,9476,9477,9478,9479,9480,9481,9482,9483,9484,9485,9486,9487,9488,9489,9490,9491,9480,9481,9482,9483,9484,9485,9486,9487,9488,9489,9490,9491,9473,9473,9474,9475,9476,9477,9478,9479,9480,9481,9482,9483,9484,9485,9486,9487,9488,9489,9490,9491,9492,9493,9494,9495,9496,9497,9498,9499,9500,9501,9502,9503,9504,9505,9506,9507,9508,9509,9510,9511,9512,9513,9473,9474,9475,9476,9477,9478,9479,9480,9481,9482,9483,9484,9485,9486,9487,9488,9489,9490,9491,9492,9493,9494,9495,9496,9497,9498,9499,9500,9501,9502,9503,9504,9505,9506,9507,9508,9509,9510,9511,9512,9513,9514,9515,9516,9517,9518,9519,9520,9521,9522,9523,9524,9525,9526,9527,9528,9529,9530,9531,9532,9533,9534,9535,9536,9537,9538,9539,9540,9541,9542,9543,9544,9545,9546,9547,9548,9549,9591,9592,9593,9594,9595,9596,9597,9598,9599,9600,9601,9602,9603,9604,9605,9606,9473,9474,9475,9476,9477,9478,9479,9480,9481,9482,9483,9484,9485,9486,9487,9488,9489,9490,9491,9492,9493,9494,9495,9496,9497,9498,9499,9500,9501,9502,9503,9504,9505,9506,9507,9508,9509,9510,9511,9512,9513,9514,9515,9516,9517,9518,9519,9520,9521,9522,9523,9524,9525,9526,9527,9473,9474,9475,9476,9477,9478,9479,9480,9481,9482,9483,9484,9485,9486,9487,9488,9489,9490,9491,1925,1925,1926,1927,1928,1929,1925,1925,1926,1927,1928,1929,
9621,9621,9622,9623,9624,9625,9626,9627,9628,9629,9630,9631,9632,9633,9634,9635,9636,9637,9638,9639,9628,9629,9630,9631,9632,9633,9634,9635,9636,9637,9638,9639,9621,9621,9622,9623,9624,9625,9626,9627,9628,9629,9630,9631,9632,9633,9634,9635,9636,9637,9638,9639,9640,9641,9642,9621,9621,9622,9623,9624,9625,9626,9627,9628,9629,9630,9631,9632,9633,9634,9635,9636,9637,9638,9639,9628,9629,9630,9631,9632,9633,9634,9635,9636,9637,9638,9639,9621,9621,9622,9623,9624,9625,9626,9627,9628,9629,9630,9631,9632,9633,9634,9635,9636,9637,9638,9639,9640,9641,9642,9643,9644,9645,9646,9647,9648,9649,9650,9651,9652,9653,9654,9655,9656,9657,9658,9659,9660,9661,9621,9622,9623,9624,9625,9626,9627,9628,9629,9630,9631,9632,9633,9634,9635,9636,9637,9638,9639,9640,9641,9642,9643,9644,9645,9646,9647,9648,9649,9650,9651,9652,9653,9654,9655,9656,9657,9658,9659,9660,9661,9662,9663,9664,9665,9666,9667,9668,9669,9670,9671,9672,9673,9674,9675,9676,9677,9678,9679,9680,9681,9682,9683,9684,9685,9686,9687,9688,9689,9690,9691,9692,9693,9694,9695,9696,9697,9739,9740,9741,9742,9743,9744,9745,9746,9747,9748,9749,9750,9751,9752,9753,9754,9621,9622,9623,9624,9625,9626,9627,9628,9629,9630,9631,9632,9633,9634,9635,9636,9637,9638,9639,9640,9641,9642,9643,9644,9645,9646,9647,9648,9649,9650,9651,9652,9653,9654,9655,9656,9657,9658,9659,9660,9661,9662,9663,9664,9665,9666,9667,9668,9669,9670,9671,9672,9673,9674,9675,9621,9622,9623,9624,9625,9626,9627,9628,9629,9630,9631,9632,9633,9634,9635,9636,9637,9638,9639,2073,2073,2074,2075,2076,2077,2073,2073,2074,2075,2076,2077,
9769,9769,9770,9771,9772,9773,9774,9775,9776,9777,9778,9779,9780,9781,9782,9783,9784,9785,9786,9787,9776,9777,9778,9779,9780,9781,9782,9783,9784,9785,9786,9787,9769,9769,9770,9771,9772,9773,9774,9775,9776,9777,9778,9779,9780,9781,9782,9783,9784,9785,9786,9787,9788,9789,9790,9769,9769,9770,9771,9772,9773,9774,9775,9776,9777,9778,9779,9780,9781,9782,9783,9784,9785,9786,9787,9776,9777,9778,9779,9780,9781,9782,9783,9784,9785,9786,9787,9769,9769,9770,9771,9772,9773,9774,9775,9776,9777,9778,9779,9780,9781,9782,9783,9784,9785,9786,9787,9788,9789,9790,9791,9792,9793,9794,9795,9796,9797,9798,9799,9800,9801,9802,9803,9804,9805,9806,9807,9808,9809,9769,9770,9771,9772,9773,9774,9775,9776,9777,9778,9779,9780,9781,9782,9783,9784,9785,9786,9787,9788,9789,9790,9791,9792,9793,9794,9795,9796,9797,9798,9799,9800,9801,9802,9803,9804,9805,9806,9807,9808,9809,9810,9811,9812,9813,9814,9815,9816,9817,9818,9819,9820,9821,9822,9823,9824,9825,9826,9827,9828,9829,9830,9831,9832,9833,9834,9835,9836,9837,9838,9839,9840,9841,9842,9843,9844,9845,9887,9888,9889,9890,9891,9892,9893,9894,9895,9896,9897,9898,9899,9900,9901,9902,9769,9770,9771,9772,9773,9774,9775,9776,9777,9778,9779,9780,9781,9782,9783,9784,9785,9786,9787,9788,9789,9790,9791,9792,9793,9794,9795,9796,9797,9798,9799,9800,9801,9802,9803,9804,9805,9806,9807,9808,9809,9810,9811,9812,9813,9814,9815,9816,9817,9818,9819,9820,9821,9822,9823,9769,9770,9771,9772,9773,9774,9775,9776,9777,9778,9779,9780,9781,9782,9783,9784,9785,9786,9787,2221,2221,2222,2223,2224,2225,2221,2221,2222,2223,2224,2225,
9917,9917,9918,9919,9920,9921,9922,9923,9924,9925,9926,9927,9928,9929,9930,9931,9932,9933,9934,9935,9924,9925,9926,9927,9928,9929,9930,9931,9932,9933,9934,9935,9917,9917,9918,9919,9920,9921,9922,9923,9924,9925,9926,9927,9928,9929,9930,9931,9932,9933,9934,9935,9936,9937,9938,9917,9917,9918,9919,9920,9921,9922,9923,9924,9925,9926,9927,9928,9929,9930,9931,9932,9933,9934,9935,9924,9925,9926,9927,9928,9929,9930,9931,9932,9933,9934,9935,9917,9917,9918,9919,9920,9921,9922,9923,9924,9925,9926,9927,9928,9929,9930,9931,9932,9933,9934,9935,9936,9937,9938,9939,9940,9941,9942,9943,9944,9945,9946,9947,9948,9949,9950,9951,9952,9953,9954,9955,9956,9957,9917,9918,9919,9920,9921,9922,9923,9924,9925,9926,9927,9928,9929,9930,9931,9932,9933,9934,9935,9936,9937,9938,9939,9940,9941,9942,9943,9944,9945,9946,9947,9948,9949,9950,9951,9952,9953,9954,9955,9956,9957,9958,9959,9960,9961,9962,9963,9964,9965,9966,9967,9968,9969,9970,9971,9972,9973,9974,9975,9976,9977,9978,9979,9980,9981,9982,9983,9984,9985,9986,9987,9988,9989,9990,9991,9992,9993,10035,10036,10037,10038,10039,10040,10041,10042,10043,10044,10045,10046,10047,10048,10049,10050,9917,9918,9919,9920,9921,9922,9923,9924,9925,9926,9927,9928,9929,9930,9931,9932,9933,9934,9935,9936,9937,9938,9939,9940,9941,9942,9943,9944,9945,9946,9947,9948,9949,9950,9951,9952,9953,9954,9955,9956,9957,9958,9959,9960,9961,9962,9963,9964,9965,9966,9967,9968,9969,9970,9971,9917,9918,9919,9920,9921,9922,9923,9924,9925,9926,9927,9928,9929,9930,9931,9932,9933,9934,9935,1185,1185,1186,1187,1188,1189,1185,1185,1186,1187,1188,1189
</data>
 </layer>
 <layer id="4" name="Tile Layer 1" width="308" height="81">
  <data encoding="csv">
0,0,0,0,0,0,0,0,0,0,0,0,0,0,0,0,0,0,0,0,0,0,0,0,0,0,0,0,0,0,0,0,0,0,0,0,0,0,0,0,0,0,0,0,0,0,0,0,0,0,0,0,0,0,0,0,0,0,0,0,0,0,0,0,0,0,0,0,0,0,0,0,0,0,0,0,0,0,0,0,0,0,0,0,0,0,0,0,0,0,0,0,0,0,0,0,0,0,0,0,0,0,0,0,0,0,0,0,0,0,0,0,0,0,0,0,0,0,0,0,0,0,0,0,0,0,0,0,0,0,0,0,0,0,0,0,0,0,0,0,0,0,0,0,0,0,0,0,0,0,0,0,0,0,0,0,0,0,0,0,0,0,0,0,0,0,0,0,0,0,0,0,0,0,0,0,0,0,0,0,0,0,0,0,0,0,0,0,0,0,0,0,0,0,0,0,0,0,0,0,0,0,0,0,0,0,0,0,0,0,0,0,0,0,0,0,0,0,0,0,0,0,0,0,0,0,0,0,0,0,0,0,0,0,0,0,0,0,0,0,0,0,0,0,0,0,0,0,0,0,0,0,0,0,0,0,0,0,0,0,0,0,0,0,0,0,0,0,0,0,0,0,0,0,0,0,0,0,0,0,0,0,0,0,0,0,0,0,0,0,0,0,0,0,0,0,0,0,0,0,0,0,0,0,0,0,0,0,
0,0,0,0,0,0,0,0,0,0,0,0,0,0,0,0,0,0,0,0,0,0,0,0,0,0,0,0,0,0,0,0,0,0,0,0,0,0,0,0,0,0,0,0,0,0,0,0,0,0,0,0,0,0,0,0,0,0,0,0,0,0,0,0,0,0,0,0,0,0,0,0,0,0,0,0,0,0,0,0,0,0,0,0,0,0,0,0,0,0,0,0,0,0,0,0,0,0,0,0,0,0,0,0,0,0,0,0,0,0,0,0,0,0,0,0,0,0,0,0,0,0,0,0,0,0,0,0,0,0,0,0,0,0,0,0,0,0,0,0,0,0,0,0,0,0,0,0,0,0,0,0,0,0,0,0,0,0,0,0,0,0,0,0,0,0,0,0,0,0,0,0,0,0,0,0,0,0,0,0,0,0,0,0,0,0,0,0,0,0,0,0,0,0,0,0,0,0,0,0,0,0,0,0,0,0,0,0,0,0,0,0,0,0,0,0,0,0,0,0,0,0,0,0,0,0,0,0,0,0,0,0,0,0,0,0,0,0,0,0,0,0,0,0,0,0,0,0,0,0,0,0,0,0,0,0,0,0,0,0,0,0,0,0,0,0,0,0,0,0,0,0,0,0,0,0,0,0,0,0,0,0,0,0,0,0,0,0,0,0,0,0,0,0,0,0,0,0,0,0,0,0,0,0,0,0,0,0,
0,0,0,0,0,0,0,0,0,0,0,0,0,0,0,0,0,0,0,0,0,0,0,0,0,0,0,0,0,0,0,0,0,0,0,0,0,0,0,0,0,0,0,0,0,0,0,0,0,0,0,0,0,0,0,0,0,0,0,0,0,0,0,0,0,0,0,0,0,0,0,0,0,0,0,0,0,0,0,0,0,0,0,0,0,0,0,0,0,0,0,0,0,0,0,0,0,0,0,0,0,0,0,0,0,0,0,0,0,0,0,0,0,0,0,0,0,0,0,0,0,0,0,0,0,0,0,0,0,0,0,0,0,0,0,0,0,0,0,0,0,0,0,0,0,0,0,0,0,0,0,0,0,0,0,0,0,0,0,0,0,0,0,0,0,0,0,0,0,0,0,0,0,0,0,0,0,0,0,0,0,0,0,0,0,0,0,0,0,0,0,0,0,0,0,0,0,0,0,0,0,0,0,0,0,0,0,0,0,0,0,0,0,0,0,0,0,0,0,0,0,0,0,0,0,0,0,0,0,0,0,0,0,0,0,0,0,0,0,0,0,0,0,0,0,0,0,0,0,0,0,0,0,0,0,0,0,0,0,0,0,0,0,0,0,0,0,0,0,0,0,0,0,0,0,0,0,0,0,0,0,0,0,0,0,0,0,0,0,0,0,0,0,0,0,0,0,0,0,0,0,0,0,0,0,0,0,0,
0,0,0,0,0,0,0,0,0,0,0,0,0,0,0,0,0,0,0,0,0,0,0,0,0,0,0,0,0,0,0,0,0,0,0,0,0,0,0,0,0,0,0,0,0,0,0,0,0,0,0,0,0,0,0,0,0,0,0,0,0,0,0,0,0,0,0,0,0,0,0,0,0,0,0,0,0,0,0,0,0,0,0,0,0,0,0,0,0,0,0,0,0,0,0,0,0,0,0,0,0,0,0,0,0,0,0,0,0,0,0,0,0,0,0,0,0,0,0,0,0,0,0,0,0,0,0,0,0,0,0,0,0,0,0,0,0,0,0,0,0,0,0,0,0,0,0,0,0,0,0,0,0,0,0,0,0,0,0,0,0,0,0,0,0,0,0,0,0,0,0,0,0,0,0,0,0,0,0,0,0,0,0,0,0,0,0,0,0,0,0,0,0,0,0,0,0,0,0,0,0,0,0,0,0,0,0,0,0,0,0,0,0,0,0,0,0,0,0,0,0,0,0,0,0,0,0,0,0,0,0,0,0,0,0,0,0,0,0,0,0,0,0,0,0,0,0,0,0,0,0,0,0,0,0,0,0,0,0,0,0,0,0,0,0,0,0,0,0,0,0,0,0,0,0,0,0,0,0,0,0,0,0,0,0,0,0,0,0,0,0,0,0,0,0,0,0,0,0,0,0,0,0,0,0,0,0,0,
0,0,0,0,0,0,0,0,0,0,0,0,0,0,0,0,0,0,0,0,0,0,0,0,0,0,0,0,0,0,0,0,0,0,0,0,0,0,0,0,0,0,0,0,0,0,0,0,0,0,0,0,0,0,0,0,0,0,0,0,0,0,0,0,0,0,0,0,0,0,0,0,0,0,0,0,0,0,0,0,0,0,0,0,0,0,0,0,0,0,0,0,0,0,0,0,0,0,0,0,0,0,0,0,0,0,0,0,0,0,0,0,0,0,0,0,0,0,0,0,0,0,0,0,0,0,0,0,0,0,0,0,0,0,0,0,0,0,0,0,0,0,0,0,0,0,0,0,0,0,0,0,0,0,0,0,0,0,0,0,0,0,0,0,0,0,0,0,0,0,0,0,0,0,0,0,0,0,0,0,0,0,0,0,0,0,0,0,0,0,0,0,0,0,0,0,0,0,0,0,0,0,0,0,0,0,0,0,0,0,0,0,0,0,0,0,0,0,0,0,0,0,0,0,0,0,0,0,0,0,0,0,0,0,0,0,0,0,0,0,0,0,0,0,0,0,0,0,0,0,0,0,0,0,0,0,0,0,0,0,0,0,0,0,0,0,0,0,0,0,0,0,0,0,0,0,0,0,0,0,0,0,0,0,0,0,0,0,0,0,0,0,0,0,0,0,0,0,0,0,0,0,0,0,0,0,0,0,
0,0,0,0,0,0,0,0,0,0,0,0,0,0,0,0,0,0,0,0,0,0,0,0,0,0,0,0,0,0,0,0,0,0,0,0,0,0,0,0,0,0,0,0,0,0,0,0,0,0,0,0,0,0,0,0,0,0,0,0,0,0,0,0,0,0,0,0,0,0,0,0,0,0,0,0,0,0,0,0,0,0,0,0,0,0,0,0,0,0,0,0,0,0,0,0,0,0,0,0,0,0,0,0,0,0,0,0,0,0,0,0,0,0,0,0,0,0,0,0,0,0,0,0,0,0,0,0,0,0,0,0,0,0,0,0,0,0,0,0,0,0,0,0,0,0,0,0,0,0,0,0,0,0,0,0,0,0,0,0,0,0,0,0,0,0,0,0,0,0,0,0,0,0,0,0,0,0,0,0,0,0,0,0,0,0,0,0,0,0,0,0,0,0,0,0,0,0,0,0,0,0,0,0,0,0,0,0,0,0,0,0,0,0,0,0,0,0,0,0,0,0,0,0,0,0,0,0,0,0,0,0,0,0,0,0,0,0,0,0,0,0,0,0,0,0,0,0,0,0,0,0,0,0,0,0,0,0,0,0,0,0,0,0,0,0,0,0,0,0,0,0,0,0,0,0,0,0,0,0,0,0,0,0,0,0,0,0,0,0,0,0,0,0,0,0,0,0,0,0,0,0,0,0,0,0,0,0,
0,0,0,0,0,0,0,0,0,0,0,0,0,0,0,0,0,0,0,0,0,0,0,0,0,0,0,0,0,0,0,0,0,0,0,0,0,0,0,0,0,0,0,0,0,0,0,0,0,0,0,0,0,0,0,0,0,0,0,0,0,0,0,0,0,0,0,0,0,0,0,0,0,0,0,0,0,0,0,0,0,0,0,0,0,0,0,0,0,0,0,0,0,0,0,0,0,0,0,0,0,0,0,0,0,0,0,0,0,0,0,0,0,0,0,0,0,0,0,0,0,0,0,0,0,0,0,0,0,0,0,0,0,0,0,0,0,0,0,0,0,0,0,0,0,0,0,0,0,0,0,0,0,0,0,0,0,0,0,0,0,0,0,0,0,0,0,0,0,0,0,0,0,0,0,0,0,0,0,0,0,0,0,0,0,0,0,0,0,0,0,0,0,0,0,0,0,0,0,0,0,0,0,0,0,0,0,0,0,0,0,0,0,0,0,0,0,0,0,0,0,0,0,0,0,0,0,0,0,0,0,0,0,0,0,0,0,0,0,0,0,0,0,0,0,0,0,0,0,0,0,0,0,0,0,0,0,0,0,0,0,0,0,0,0,0,0,0,0,0,0,0,0,0,0,0,0,0,0,0,0,0,0,0,0,0,0,0,0,0,0,0,0,0,0,0,0,0,0,0,0,0,0,0,0,0,0,0,
0,0,0,0,0,0,0,0,0,0,0,0,0,0,0,0,0,0,0,0,0,0,0,0,0,0,0,0,0,0,0,0,0,0,0,0,0,0,0,0,0,0,0,0,0,0,0,0,0,0,0,0,0,0,0,0,0,0,0,0,0,0,0,0,0,0,0,0,0,0,0,0,0,0,0,0,0,0,0,0,0,0,0,0,0,0,0,0,0,0,0,0,0,0,0,0,0,0,0,0,0,0,0,0,0,0,0,0,0,0,0,0,0,0,0,0,0,0,0,0,0,0,0,0,0,0,0,0,0,0,0,0,0,0,0,0,0,0,0,0,0,0,0,0,0,0,0,0,0,0,0,0,0,0,0,0,0,0,0,0,0,0,0,0,0,0,0,0,0,0,0,0,0,0,0,0,0,0,0,0,0,0,0,0,0,0,0,0,0,0,0,0,0,0,0,0,0,0,0,0,0,0,0,0,0,0,0,0,0,0,0,0,0,0,0,0,0,0,0,0,0,0,0,0,0,0,0,0,0,0,0,0,0,0,0,0,0,0,0,0,0,0,0,0,0,0,0,0,0,0,0,0,0,0,0,0,0,0,0,0,0,0,0,0,0,0,0,0,0,0,0,0,0,0,0,0,0,0,0,0,0,0,0,0,0,0,0,0,0,0,0,0,0,0,0,0,0,0,0,0,0,0,0,0,0,0,0,0,
85093,85093,85094,85095,85096,85097,85098,85099,85100,85101,85102,85103,85104,85105,85106,85107,85108,85109,85110,85111,85100,85101,85102,85103,85104,85105,85106,85107,85108,85109,85110,85111,85093,85093,85094,85095,85096,85097,85098,85099,85100,85101,85102,85103,85104,85105,85106,85107,85108,85109,85110,85111,85112,85113,85114,85115,85116,85117,85118,85119,85093,85093,85094,85095,85096,85097,85098,85099,85100,85101,85102,85103,85104,85105,85106,85107,85108,85109,85110,85111,85112,85113,85114,85115,85116,85117,85118,85119,85120,85121,85122,85123,85124,85125,85126,85127,85128,85129,85130,85131,85132,85133,85093,85094,85095,85096,85097,85098,85099,85100,85101,85102,85103,85104,85105,85106,85107,85108,85109,85110,85111,85112,85113,85114,85115,85116,85117,85118,85119,85120,85121,85122,85123,85124,85125,85126,85127,85128,85129,85130,85131,85132,85133,85134,85135,85136,85137,85138,85139,85140,85141,85142,85143,85144,85145,85146,85147,85148,85149,85150,85151,85152,85153,85154,85155,85156,85157,85158,85159,85160,85161,85162,85163,85164,85165,85166,85167,85168,85169,85211,85212,85213,85214,85215,85216,85217,85218,85219,85220,85221,85222,85223,85224,85225,85226,85093,85094,85095,85096,85097,85098,85099,85100,85101,85102,85103,85104,85105,85106,85107,85108,85109,85110,85111,85112,85113,85114,85115,85116,85117,85118,85119,85120,85121,85122,85123,85124,85125,85126,85127,85128,85129,85130,85131,85132,85133,85134,85135,85136,85137,85138,85139,85140,85141,85142,85143,85144,85145,85146,85147,85093,85094,85095,85096,85097,85098,85099,85100,85101,85102,85103,85104,85105,85106,85107,85108,85109,85110,85111,85112,85113,85114,85115,85116,85117,85118,85119,85120,85121,85122,85123,85124,85125,85126,85127,85128,85129,85130,85131,85093,85094,85095,85096,85097,85098,85099,84945,84945,84946,84947,84948,84949,84945,84945,84946,84947,84948,84949,
85241,85241,85242,85243,85244,85245,85246,85247,85248,85249,85250,85251,85252,85253,85254,85255,85256,85257,85258,85259,85248,85249,85250,85251,85252,85253,85254,85255,85256,85257,85258,85259,85241,85241,85242,85243,85244,85245,85246,85247,85248,85249,85250,85251,85252,85253,85254,85255,85256,85257,85258,85259,85260,85261,85262,85263,85264,85265,85266,85267,85241,85241,85242,85243,85244,85245,85246,85247,85248,85249,85250,85251,85252,85253,85254,85255,85256,85257,85258,85259,85260,85261,85262,85263,85264,85265,85266,85267,85268,85269,85270,85271,85272,85273,85274,85275,85276,85277,85278,85279,85280,85281,85241,85242,85243,85244,85245,85246,85247,85248,85249,85250,85251,85252,85253,85254,85255,85256,85257,85258,85259,85260,85261,85262,85263,85264,85265,85266,85267,85268,85269,85270,85271,85272,85273,85274,85275,85276,85277,85278,85279,85280,85281,85282,85283,85284,85285,85286,85287,85288,85289,85290,85291,85292,85293,85294,85295,85296,85297,85298,85299,85300,85301,85302,85303,85304,85305,85306,85307,85308,85309,85310,85311,85312,85313,85314,85315,85316,85317,85359,85360,85361,85362,85363,85364,85365,85366,85367,85368,85369,85370,85371,85372,85373,85374,85241,85242,85243,85244,85245,85246,85247,85248,85249,85250,85251,85252,85253,85254,85255,85256,85257,85258,85259,85260,85261,85262,85263,85264,85265,85266,85267,85268,85269,85270,85271,85272,85273,85274,85275,85276,85277,85278,85279,85280,85281,85282,85283,85284,85285,85286,85287,85288,85289,85290,85291,85292,85293,85294,85295,85241,85242,85243,85244,85245,85246,85247,85248,85249,85250,85251,85252,85253,85254,85255,85256,85257,85258,85259,85260,85261,85262,85263,85264,85265,85266,85267,85268,85269,85270,85271,85272,85273,85274,85275,85276,85277,85278,85279,85241,85242,85243,85244,85245,85246,85247,85093,85093,85094,85095,85096,85097,85093,85093,85094,85095,85096,85097,
85389,85389,85390,85391,85392,85393,85394,85395,85396,85397,85398,85399,85400,85401,85402,85403,85404,85405,85406,85407,85396,85397,85398,85399,85400,85401,85402,85403,85404,85405,85406,85407,85389,85389,85390,85391,85392,85393,85394,85395,85396,85397,85398,85399,85400,85401,85402,85403,85404,85405,85406,85407,85408,85409,85410,85411,85412,85413,85414,85415,85389,85389,85390,85391,85392,85393,85394,85395,85396,85397,85398,85399,85400,85401,85402,85403,85404,85405,85406,85407,85408,85409,85410,85411,85412,85413,85414,85415,85416,85417,85418,85419,85420,85421,85422,85423,85424,85425,85426,85427,85428,85429,85389,85390,85391,85392,85393,85394,85395,85396,85397,85398,85399,85400,85401,85402,85403,85404,85405,85406,85407,85408,85409,85410,85411,85412,85413,85414,85415,85416,85417,85418,85419,85420,85421,85422,85423,85424,85425,85426,85427,85428,85429,85430,85431,85432,85433,85434,85435,85436,85437,85438,85439,85440,85441,85442,85443,85444,85445,85446,85447,85448,85449,85450,85451,85452,85453,85454,85455,85456,85457,85458,85459,85460,85461,85462,85463,85464,85465,85507,85508,85509,85510,85511,85512,85513,85514,85515,85516,85517,85518,85519,85520,85521,85522,85389,85390,85391,85392,85393,85394,85395,85396,85397,85398,85399,85400,85401,85402,85403,85404,85405,85406,85407,85408,85409,85410,85411,85412,85413,85414,85415,85416,85417,85418,85419,85420,85421,85422,85423,85424,85425,85426,85427,85428,85429,85430,85431,85432,85433,85434,85435,85436,85437,85438,85439,85440,85441,85442,85443,85389,85390,85391,85392,85393,85394,85395,85396,85397,85398,85399,85400,85401,85402,85403,85404,85405,85406,85407,85408,85409,85410,85411,85412,85413,85414,85415,85416,85417,85418,85419,85420,85421,85422,85423,85424,85425,85426,85427,85389,85390,85391,85392,85393,85394,85395,85241,85241,85242,85243,85244,85245,85241,85241,85242,85243,85244,85245,
85537,85537,85538,85539,85540,85541,85542,85543,85544,85545,85546,85547,85548,85549,85550,85551,85552,85553,85554,85555,85544,85545,85546,85547,85548,85549,85550,85551,85552,85553,85554,85555,85537,85537,85538,85539,85540,85541,85542,85543,85544,85545,85546,85547,85548,85549,85550,85551,85552,85553,85554,85555,85556,85557,85558,85559,85560,85561,85562,85563,85537,85537,85538,85539,85540,85541,85542,85543,85544,85545,85546,85547,85548,85549,85550,85551,85552,85553,85554,85555,85556,85557,85558,85559,85560,85561,85562,85563,85564,85565,85566,85567,85568,85569,85570,85571,85572,85573,85574,85575,85576,85577,85537,85538,85539,85540,85541,85542,85543,85544,85545,85546,85547,85548,85549,85550,85551,85552,85553,85554,85555,85556,85557,85558,85559,85560,85561,85562,85563,85564,85565,85566,85567,85568,85569,85570,85571,85572,85573,85574,85575,85576,85577,85578,85579,85580,85581,85582,85583,85584,85585,85586,85587,85588,85589,85590,85591,85592,85593,85594,85595,85596,85597,85598,85599,85600,85601,85602,85603,85604,85605,85606,85607,85608,85609,85610,85611,85612,85613,85655,85656,85657,85658,85659,85660,85661,85662,85663,85664,85665,85666,85667,85668,85669,85670,85537,85538,85539,85540,85541,85542,85543,85544,85545,85546,85547,85548,85549,85550,85551,85552,85553,85554,85555,85556,85557,85558,85559,85560,85561,85562,85563,85564,85565,85566,85567,85568,85569,85570,85571,85572,85573,85574,85575,85576,85577,85578,85579,85580,85581,85582,85583,85584,85585,85586,85587,85588,85589,85590,85591,85537,85538,85539,85540,85541,85542,85543,85544,85545,85546,85547,85548,85549,85550,85551,85552,85553,85554,85555,85556,85557,85558,85559,85560,85561,85562,85563,85564,85565,85566,85567,85568,85569,85570,85571,85572,85573,85574,85575,85537,85538,85539,85540,85541,85542,85543,85389,85389,85390,85391,85392,85393,85389,85389,85390,85391,85392,85393,
85685,85685,85686,85687,85688,85689,85690,85691,85692,85693,85694,85695,85696,85697,85698,85699,85700,85701,85702,85703,85692,85693,85694,85695,85696,85697,85698,85699,85700,85701,85702,85703,85685,85685,85686,85687,85688,85689,85690,85691,85692,85693,85694,85695,85696,85697,85698,85699,85700,85701,85702,85703,85704,85705,85706,85707,85708,85709,85710,85711,85685,85685,85686,85687,85688,85689,85690,85691,85692,85693,85694,85695,85696,85697,85698,85699,85700,85701,85702,85703,85704,85705,85706,85707,85708,85709,85710,85711,85712,85713,85714,85715,85716,85717,85718,85719,85720,85721,85722,85723,85724,85725,85685,85686,85687,85688,85689,85690,85691,85692,85693,85694,85695,85696,85697,85698,85699,85700,85701,85702,85703,85704,85705,85706,85707,85708,85709,85710,85711,85712,85713,85714,85715,85716,85717,85718,85719,85720,85721,85722,85723,85724,85725,85726,85727,85728,85729,85730,85731,85732,85733,85734,85735,85736,85737,85738,85739,85740,85741,85742,85743,85744,85745,85746,85747,85748,85749,85750,85751,85752,85753,85754,85755,85756,85757,85758,85759,85760,85761,85803,85804,85805,85806,85807,85808,85809,85810,85811,85812,85813,85814,85815,85816,85817,85818,85685,85686,85687,85688,85689,85690,85691,85692,85693,85694,85695,85696,85697,85698,85699,85700,85701,85702,85703,85704,85705,85706,85707,85708,85709,85710,85711,85712,85713,85714,85715,85716,85717,85718,85719,85720,85721,85722,85723,85724,85725,85726,85727,85728,85729,85730,85731,85732,85733,85734,85735,85736,85737,85738,85739,85685,85686,85687,85688,85689,85690,85691,85692,85693,85694,85695,85696,85697,85698,85699,85700,85701,85702,85703,85704,85705,85706,85707,85708,85709,85710,85711,85712,85713,85714,85715,85716,85717,85718,85719,85720,85721,85722,85723,85685,85686,85687,85688,85689,85690,85691,85537,85537,85538,85539,85540,85541,85537,85537,85538,85539,85540,85541,
85833,85833,85834,85835,85836,85837,85838,85839,85840,85841,85842,85843,85844,85845,85846,85847,85848,85849,85850,85851,85840,85841,85842,85843,85844,85845,85846,85847,85848,85849,85850,85851,85833,85833,85834,85835,85836,85837,85838,85839,85840,85841,85842,85843,85844,85845,85846,85847,85848,85849,85850,85851,85852,85853,85854,85855,85856,85857,85858,85859,85833,85833,85834,85835,85836,85837,85838,85839,85840,85841,85842,85843,85844,85845,85846,85847,85848,85849,85850,85851,85852,85853,85854,85855,85856,85857,85858,85859,85860,85861,85862,85863,85864,85865,85866,85867,85868,85869,85870,85871,85872,85873,85833,85834,85835,85836,85837,85838,85839,85840,85841,85842,85843,85844,85845,85846,85847,85848,85849,85850,85851,85852,85853,85854,85855,85856,85857,85858,85859,85860,85861,85862,85863,85864,85865,85866,85867,85868,85869,85870,85871,85872,85873,85874,85875,85876,85877,85878,85879,85880,85881,85882,85883,85884,85885,85886,85887,85888,85889,85890,85891,85892,85893,85894,85895,85896,85897,85898,85899,85900,85901,85902,85903,85904,85905,85906,85907,85908,85909,85951,85952,85953,85954,85955,85956,85957,85958,85959,85960,85961,85962,85963,85964,85965,85966,85833,85834,85835,85836,85837,85838,85839,85840,85841,85842,85843,85844,85845,85846,85847,85848,85849,85850,85851,85852,85853,85854,85855,85856,85857,85858,85859,85860,85861,85862,85863,85864,85865,85866,85867,85868,85869,85870,85871,85872,85873,85874,85875,85876,85877,85878,85879,85880,85881,85882,85883,85884,85885,85886,85887,85833,85834,85835,85836,85837,85838,85839,85840,85841,85842,85843,85844,85845,85846,85847,85848,85849,85850,85851,85852,85853,85854,85855,85856,85857,85858,85859,85860,85861,85862,85863,85864,85865,85866,85867,85868,85869,85870,85871,85833,85834,85835,85836,85837,85838,85839,85685,85685,85686,85687,85688,85689,85685,85685,85686,85687,85688,85689,
85981,85981,85982,85983,85984,85985,85986,85987,85988,85989,85990,85991,85992,85993,85994,85995,85996,85997,85998,85999,85988,85989,85990,85991,85992,85993,85994,85995,85996,85997,85998,85999,85981,85981,85982,85983,85984,85985,85986,85987,85988,85989,85990,85991,85992,85993,85994,85995,85996,85997,85998,85999,86000,86001,86002,86003,86004,86005,86006,86007,85981,85981,85982,85983,85984,85985,85986,85987,85988,85989,85990,85991,85992,85993,85994,85995,85996,85997,85998,85999,86000,86001,86002,86003,86004,86005,86006,86007,86008,86009,86010,86011,86012,86013,86014,86015,86016,86017,86018,86019,86020,86021,85981,85982,85983,85984,85985,85986,85987,85988,85989,85990,85991,85992,85993,85994,85995,85996,85997,85998,85999,86000,86001,86002,86003,86004,86005,86006,86007,86008,86009,86010,86011,86012,86013,86014,86015,86016,86017,86018,86019,86020,86021,86022,86023,86024,86025,86026,86027,86028,86029,86030,86031,86032,86033,86034,86035,86036,86037,86038,86039,86040,86041,86042,86043,86044,86045,86046,86047,86048,86049,86050,86051,86052,86053,86054,86055,86056,86057,86099,86100,86101,86102,86103,86104,86105,86106,86107,86108,86109,86110,86111,86112,86113,86114,85981,85982,85983,85984,85985,85986,85987,85988,85989,85990,85991,85992,85993,85994,85995,85996,85997,85998,85999,86000,86001,86002,86003,86004,86005,86006,86007,86008,86009,86010,86011,86012,86013,86014,86015,86016,86017,86018,86019,86020,86021,86022,86023,86024,86025,86026,86027,86028,86029,86030,86031,86032,86033,86034,86035,85981,85982,85983,85984,85985,85986,85987,85988,85989,85990,85991,85992,85993,85994,85995,85996,85997,85998,85999,86000,86001,86002,86003,86004,86005,86006,86007,86008,86009,86010,86011,86012,86013,86014,86015,86016,86017,86018,86019,85981,85982,85983,85984,85985,85986,85987,85833,85833,85834,85835,85836,85837,85833,85833,85834,85835,85836,85837,
86129,86129,86130,86131,86132,86133,86134,86135,86136,86137,86138,86139,86140,86141,86142,86143,86144,86145,86146,86147,86136,86137,86138,86139,86140,86141,86142,86143,86144,86145,86146,86147,86129,86129,86130,86131,86132,86133,86134,86135,86136,86137,86138,86139,86140,86141,86142,86143,86144,86145,86146,86147,86148,86149,86150,86151,86152,86153,86154,86155,86129,86129,86130,86131,86132,86133,86134,86135,86136,86137,86138,86139,86140,86141,86142,86143,86144,86145,86146,86147,86148,86149,86150,86151,86152,86153,86154,86155,86156,86157,86158,86159,86160,86161,86162,86163,86164,86165,86166,86167,86168,86169,86129,86130,86131,86132,86133,86134,86135,86136,86137,86138,86139,86140,86141,86142,86143,86144,86145,86146,86147,86148,86149,86150,86151,86152,86153,86154,86155,86156,86157,86158,86159,86160,86161,86162,86163,86164,86165,86166,86167,86168,86169,86170,86171,86172,86173,86174,86175,86176,86177,86178,86179,86180,86181,86182,86183,86184,86185,86186,86187,86188,86189,86190,86191,86192,86193,86194,86195,86196,86197,86198,86199,86200,86201,86202,86203,86204,86205,86247,86248,86249,86250,86251,86252,86253,86254,86255,86256,86257,86258,86259,86260,86261,86262,86129,86130,86131,86132,86133,86134,86135,86136,86137,86138,86139,86140,86141,86142,86143,86144,86145,86146,86147,86148,86149,86150,86151,86152,86153,86154,86155,86156,86157,86158,86159,86160,86161,86162,86163,86164,86165,86166,86167,86168,86169,86170,86171,86172,86173,86174,86175,86176,86177,86178,86179,86180,86181,86182,86183,86129,86130,86131,86132,86133,86134,86135,86136,86137,86138,86139,86140,86141,86142,86143,86144,86145,86146,86147,86148,86149,86150,86151,86152,86153,86154,86155,86156,86157,86158,86159,86160,86161,86162,86163,86164,86165,86166,86167,86129,86130,86131,86132,86133,86134,86135,85981,85981,85982,85983,85984,85985,85981,85981,85982,85983,85984,85985,
86277,86277,86278,86279,86280,86281,86282,86283,86284,86285,86286,86287,86288,86289,86290,86291,86292,86293,86294,86295,86284,86285,86286,86287,86288,86289,86290,86291,86292,86293,86294,86295,86277,86277,86278,86279,86280,86281,86282,86283,86284,86285,86286,86287,86288,86289,86290,86291,86292,86293,86294,86295,86296,86297,86298,86299,86300,86301,86302,86303,86277,86277,86278,86279,86280,86281,86282,86283,86284,86285,86286,86287,86288,86289,86290,86291,86292,86293,86294,86295,86296,86297,86298,86299,86300,86301,86302,86303,86304,86305,86306,86307,86308,86309,86310,86311,86312,86313,86314,86315,86316,86317,86277,86278,86279,86280,86281,86282,86283,86284,86285,86286,86287,86288,86289,86290,86291,86292,86293,86294,86295,86296,86297,86298,86299,86300,86301,86302,86303,86304,86305,86306,86307,86308,86309,86310,86311,86312,86313,86314,86315,86316,86317,86318,86319,86320,86321,86322,86323,86324,86325,86326,86327,86328,86329,86330,86331,86332,86333,86334,86335,86336,86337,86338,86339,86340,86341,86342,86343,86344,86345,86346,86347,86348,86349,86350,86351,86352,86353,86395,86396,86397,86398,86399,86400,86401,86402,86403,86404,86405,86406,86407,86408,86409,86410,86277,86278,86279,86280,86281,86282,86283,86284,86285,86286,86287,86288,86289,86290,86291,86292,86293,86294,86295,86296,86297,86298,86299,86300,86301,86302,86303,86304,86305,86306,86307,86308,86309,86310,86311,86312,86313,86314,86315,86316,86317,86318,86319,86320,86321,86322,86323,86324,86325,86326,86327,86328,86329,86330,86331,86277,86278,86279,86280,86281,86282,86283,86284,86285,86286,86287,86288,86289,86290,86291,86292,86293,86294,86295,86296,86297,86298,86299,86300,86301,86302,86303,86304,86305,86306,86307,86308,86309,86310,86311,86312,86313,86314,86315,86277,86278,86279,86280,86281,86282,86283,84945,84945,84946,84947,84948,84949,84945,84945,84946,84947,84948,84949,
84945,84945,84946,84947,84948,84949,84950,84951,84952,84953,84954,84955,84956,84957,84958,84959,84960,84961,84962,84963,84952,84953,84954,84955,84956,84957,84958,84959,84960,84961,84962,84963,84945,84945,84946,84947,84948,84949,84950,84951,84952,84953,84954,84955,84956,84957,84958,84959,84960,84961,84962,84963,84964,84965,84966,84967,84968,84969,84970,84971,84972,84973,84974,84975,84976,84977,84978,84979,84980,84981,84982,84983,84984,84985,84945,84946,84947,84948,84949,84950,84951,84952,84953,84954,84955,84956,84957,84958,84959,84960,84961,84962,84963,84964,84965,84966,84967,84968,84969,84970,84971,84972,84973,84974,84975,84976,84977,84978,84979,84980,84981,84982,84983,84984,84985,84986,84987,84988,84989,84990,84991,84992,84993,84994,84995,84996,84997,84998,84999,85000,85001,85002,85003,85004,85005,85006,85007,85008,85009,85010,85011,85012,85013,85014,85015,85016,85017,85018,85019,85020,85021,85063,85064,85065,85066,85067,85068,85069,85070,85071,85072,85073,85074,85075,85076,85077,85078,84945,84946,84947,84948,84949,84950,84951,84952,84953,84954,84955,84956,84957,84958,84959,84960,84961,84962,84963,84964,84965,84966,84967,84968,84969,84970,84971,84972,84973,84974,84975,84976,84977,84978,84979,84980,84981,84982,84983,84984,84985,84986,84987,84988,84989,84990,84991,84992,84993,84994,84995,84996,84997,84998,84999,84945,84946,84947,84948,84949,84950,84951,84952,84953,84954,84955,84956,84957,84958,84959,84960,84961,84962,84963,84964,84965,84966,84967,84968,84969,84970,84971,84972,84973,84974,84975,84976,84977,84978,84979,84980,84981,84982,84983,84945,84946,84947,84948,84949,84950,84951,84952,84953,84954,84955,84956,84957,84958,84959,84960,84961,84962,84963,84964,84965,84966,84967,84968,84969,84953,84954,84955,84956,84957,84958,84959,84960,84961,84962,85093,85093,85094,85095,85096,85097,85093,85093,85094,85095,85096,85097,
85093,85093,85094,85095,85096,85097,85098,85099,85100,85101,85102,85103,85104,85105,85106,85107,85108,85109,85110,85111,85100,85101,85102,85103,85104,85105,85106,85107,85108,85109,85110,85111,85093,85093,85094,85095,85096,85097,85098,85099,85100,85101,85102,85103,85104,85105,85106,85107,85108,85109,85110,85111,85112,85113,85114,85115,85116,85117,85118,85119,85120,85121,85122,85123,85124,85125,85126,85127,85128,85129,85130,85131,85132,85133,85093,85094,85095,85096,85097,85098,85099,85100,85101,85102,85103,85104,85105,85106,85107,85108,85109,85110,85111,85112,85113,85114,85115,85116,85117,85118,85119,85120,85121,85122,85123,85124,85125,85126,85127,85128,85129,85130,85131,85132,85133,85134,85135,85136,85137,85138,85139,85140,85141,85142,85143,85144,85145,85146,85147,85148,85149,85150,85151,85152,85153,85154,85155,85156,85157,85158,85159,85160,85161,85162,85163,85164,85165,85166,85167,85168,85169,85211,85212,85213,85214,85215,85216,85217,85218,85219,85220,85221,85222,85223,85224,85225,85226,85093,85094,85095,85096,85097,85098,85099,85100,85101,85102,85103,85104,85105,85106,85107,85108,85109,85110,85111,85112,85113,85114,85115,85116,85117,85118,85119,85120,85121,85122,85123,85124,85125,85126,85127,85128,85129,85130,85131,85132,85133,85134,85135,85136,85137,85138,85139,85140,85141,85142,85143,85144,85145,85146,85147,85093,85094,85095,85096,85097,85098,85099,85100,85101,85102,85103,85104,85105,85106,85107,85108,85109,85110,85111,85112,85113,85114,85115,85116,85117,85118,85119,85120,85121,85122,85123,85124,85125,85126,85127,85128,85129,85130,85131,85093,85094,85095,85096,85097,85098,85099,85100,85101,85102,85103,85104,85105,85106,85107,85108,85109,85110,85111,85112,85113,85114,85115,85116,85117,85101,85102,85103,85104,85105,85106,85107,85108,85109,85110,85241,85241,85242,85243,85244,85245,85241,85241,85242,85243,85244,85245,
85241,85241,85242,85243,85244,85245,85246,85247,85248,85249,85250,85251,85252,85253,85254,85255,85256,85257,85258,85259,85248,85249,85250,85251,85252,85253,85254,85255,85256,85257,85258,85259,85241,85241,85242,85243,85244,85245,85246,85247,85248,85249,85250,85251,85252,85253,85254,85255,85256,85257,85258,85259,85260,85261,85262,85263,85264,85265,85266,85267,85268,85269,85270,85271,85272,85273,85274,85275,85276,85277,85278,85279,85280,85281,85241,85242,85243,85244,85245,85246,85247,85248,85249,85250,85251,85252,85253,85254,85255,85256,85257,85258,85259,85260,85261,85262,85263,85264,85265,85266,85267,85268,85269,85270,85271,85272,85273,85274,85275,85276,85277,85278,85279,85280,85281,85282,85283,85284,85285,85286,85287,85288,85289,85290,85291,85292,85293,85294,85295,85296,85297,85298,85299,85300,85301,85302,85303,85304,85305,85306,85307,85308,85309,85310,85311,85312,85313,85314,85315,85316,85317,85359,85360,85361,85362,85363,85364,85365,85366,85367,85368,85369,85370,85371,85372,85373,85374,85241,85242,85243,85244,85245,85246,85247,85248,85249,85250,85251,85252,85253,85254,85255,85256,85257,85258,85259,85260,85261,85262,85263,85264,85265,85266,85267,85268,85269,85270,85271,85272,85273,85274,85275,85276,85277,85278,85279,85280,85281,85282,85283,85284,85285,85286,85287,85288,85289,85290,85291,85292,85293,85294,85295,85241,85242,85243,85244,85245,85246,85247,85248,85249,85250,85251,85252,85253,85254,85255,85256,85257,85258,85259,85260,85261,85262,85263,85264,85265,85266,85267,85268,85269,85270,85271,85272,85273,85274,85275,85276,85277,85278,85279,85241,85242,85243,85244,85245,85246,85247,85248,85249,85250,85251,85252,85253,85254,85255,85256,85257,85258,85259,85260,85261,85262,85263,85264,85265,85249,85250,85251,85252,85253,85254,85255,85256,85257,85258,85389,85389,85390,85391,85392,85393,85389,85389,85390,85391,85392,85393,
85389,85389,85390,85391,85392,85393,85394,85395,85396,85397,85398,85399,85400,85401,85402,85403,85404,85405,85406,85407,85396,85397,85398,85399,85400,85401,85402,85403,85404,85405,85406,85407,85389,85389,85390,85391,85392,85393,85394,85395,85396,85397,85398,85399,85400,85401,85402,85403,85404,85405,85406,85407,85408,85409,85410,85411,85412,85413,85414,85415,85416,85417,85418,85419,85420,85421,85422,85423,85424,85425,85426,85427,85428,85429,85389,85390,85391,85392,85393,85394,85395,85396,85397,85398,85399,85400,85401,85402,85403,85404,85405,85406,85407,85408,85409,85410,85411,85412,85413,85414,85415,85416,85417,85418,85419,85420,85421,85422,85423,85424,85425,85426,85427,85428,85429,85430,85431,85432,85433,85434,85435,85436,85437,85438,85439,85440,85441,85442,85443,85444,85445,85446,85447,85448,85449,85450,85451,85452,85453,85454,85455,85456,85457,85458,85459,85460,85461,85462,85463,85464,85465,85507,85508,85509,85510,85511,85512,85513,85514,85515,85516,85517,85518,85519,85520,85521,85522,85389,85390,85391,85392,85393,85394,85395,85396,85397,85398,85399,85400,85401,85402,85403,85404,85405,85406,85407,85408,85409,85410,85411,85412,85413,85414,85415,85416,85417,85418,85419,85420,85421,85422,85423,85424,85425,85426,85427,85428,85429,85430,85431,85432,85433,85434,85435,85436,85437,85438,85439,85440,85441,85442,85443,85389,85390,85391,85392,85393,85394,85395,85396,85397,85398,85399,85400,85401,85402,85403,85404,85405,85406,85407,85408,85409,85410,85411,85412,85413,85414,85415,85416,85417,85418,85419,85420,85421,85422,85423,85424,85425,85426,85427,85389,85390,85391,85392,85393,85394,85395,85396,85397,85398,85399,85400,85401,85402,85403,85404,85405,85406,85407,85408,85409,85410,85411,85412,85413,85397,85398,85399,85400,85401,85402,85403,85404,85405,85406,85537,85537,85538,85539,85540,85541,85537,85537,85538,85539,85540,85541,
85537,85537,85538,85539,85540,85541,85542,85543,85544,85545,85546,85547,85548,85549,85550,85551,85552,85553,85554,85555,85544,85545,85546,85547,85548,85549,85550,85551,85552,85553,85554,85555,85537,85537,85538,85539,85540,85541,85542,85543,85544,85545,85546,85547,85548,85549,85550,85551,85552,85553,85554,85555,85556,85557,85558,85559,85560,85561,85562,85563,85564,85565,85566,85567,85568,85569,85570,85571,85572,85573,85574,85575,85576,85577,85537,85538,85539,85540,85541,85542,85543,85544,85545,85546,85547,85548,85549,85550,85551,85552,85553,85554,85555,85556,85557,85558,85559,85560,85561,85562,85563,85564,85565,85566,85567,85568,85569,85570,85571,85572,85573,85574,85575,85576,85577,85578,85579,85580,85581,85582,85583,85584,85585,85586,85587,85588,85589,85590,85591,85592,85593,85594,85595,85596,85597,85598,85599,85600,85601,85602,85603,85604,85605,85606,85607,85608,85609,85610,85611,85612,85613,85655,85656,85657,85658,85659,85660,85661,85662,85663,85664,85665,85666,85667,85668,85669,85670,85537,85538,85539,85540,85541,85542,85543,85544,85545,85546,85547,85548,85549,85550,85551,85552,85553,85554,85555,85556,85557,85558,85559,85560,85561,85562,85563,85564,85565,85566,85567,85568,85569,85570,85571,85572,85573,85574,85575,85576,85577,85578,85579,85580,85581,85582,85583,85584,85585,85586,85587,85588,85589,85590,85591,85537,85538,85539,85540,85541,85542,85543,85544,85545,85546,85547,85548,85549,85550,85551,85552,85553,85554,85555,85556,85557,85558,85559,85560,85561,85562,85563,85564,85565,85566,85567,85568,85569,85570,85571,85572,85573,85574,85575,85537,85538,85539,85540,85541,85542,85543,85544,85545,85546,85547,85548,85549,85550,85551,85552,85553,85554,85555,85556,85557,85558,85559,85560,85561,85545,85546,85547,85548,85549,85550,85551,85552,85553,85554,85685,85685,85686,85687,85688,85689,85685,85685,85686,85687,85688,85689,
85685,85685,85686,85687,85688,85689,85690,85691,85692,85693,85694,85695,85696,85697,85698,85699,85700,85701,85702,85703,85692,85693,85694,85695,85696,85697,85698,85699,85700,85701,85702,85703,85685,85685,85686,85687,85688,85689,85690,85691,85692,85693,85694,85695,85696,85697,85698,85699,85700,85701,85702,85703,85704,85705,85706,85707,85708,85709,85710,85711,85712,85713,85714,85715,85716,85717,85718,85719,85720,85721,85722,85723,85724,85725,85685,85686,85687,85688,85689,85690,85691,85692,85693,85694,85695,85696,85697,85698,85699,85700,85701,85702,85703,85704,85705,85706,85707,85708,85709,85710,85711,85712,85713,85714,85715,85716,85717,85718,85719,85720,85721,85722,85723,85724,85725,85726,85727,85728,85729,85730,85731,85732,85733,85734,85735,85736,85737,85738,85739,85740,85741,85742,85743,85744,85745,85746,85747,85748,85749,85750,85751,85752,85753,85754,85755,85756,85757,85758,85759,85760,85761,85803,85804,85805,85806,85807,85808,85809,85810,85811,85812,85813,85814,85815,85816,85817,85818,85685,85686,85687,85688,85689,85690,85691,85692,85693,85694,85695,85696,85697,85698,85699,85700,85701,85702,85703,85704,85705,85706,85707,85708,85709,85710,85711,85712,85713,85714,85715,85716,85717,85718,85719,85720,85721,85722,85723,85724,85725,85726,85727,85728,85729,85730,85731,85732,85733,85734,85735,85736,85737,85738,85739,85685,85686,85687,85688,85689,85690,85691,85692,85693,85694,85695,85696,85697,85698,85699,85700,85701,85702,85703,85704,85705,85706,85707,85708,85709,85710,85711,85712,85713,85714,85715,85716,85717,85718,85719,85720,85721,85722,85723,85685,85686,85687,85688,85689,85690,85691,85692,85693,85694,85695,85696,85697,85698,85699,85700,85701,85702,85703,85704,85705,85706,85707,85708,85709,85693,85694,85695,85696,85697,85698,85699,85700,85701,85702,85833,85833,85834,85835,85836,85837,85833,85833,85834,85835,85836,85837,
85833,85833,85834,85835,85836,85837,85838,85839,85840,85841,85842,85843,85844,85845,85846,85847,85848,85849,85850,85851,85840,85841,85842,85843,85844,85845,85846,85847,85848,85849,85850,85851,85833,85833,85834,85835,85836,85837,85838,85839,85840,85841,85842,85843,85844,85845,85846,85847,85848,85849,85850,85851,85852,85853,85854,85855,85856,85857,85858,85859,85860,85861,85862,85863,85864,85865,85866,85867,85868,85869,85870,85871,85872,85873,85833,85834,85835,85836,85837,85838,85839,85840,85841,85842,85843,85844,85845,85846,85847,85848,85849,85850,85851,85852,85853,85854,85855,85856,85857,85858,85859,85860,85861,85862,85863,85864,85865,85866,85867,85868,85869,85870,85871,85872,85873,85874,85875,85876,85877,85878,85879,85880,85881,85882,85883,85884,85885,85886,85887,85888,85889,85890,85891,85892,85893,85894,85895,85896,85897,85898,85899,85900,85901,85902,85903,85904,85905,85906,85907,85908,85909,85951,85952,85953,85954,85955,85956,85957,85958,85959,85960,85961,85962,85963,85964,85965,85966,85833,85834,85835,85836,85837,85838,85839,85840,85841,85842,85843,85844,85845,85846,85847,85848,85849,85850,85851,85852,85853,85854,85855,85856,85857,85858,85859,85860,85861,85862,85863,85864,85865,85866,85867,85868,85869,85870,85871,85872,85873,85874,85875,85876,85877,85878,85879,85880,85881,85882,85883,85884,85885,85886,85887,85833,85834,85835,85836,85837,85838,85839,85840,85841,85842,85843,85844,85845,85846,85847,85848,85849,85850,85851,85852,85853,85854,85855,85856,85857,85858,85859,85860,85861,85862,85863,85864,85865,85866,85867,85868,85869,85870,85871,85833,85834,85835,85836,85837,85838,85839,85840,85841,85842,85843,85844,85845,85846,85847,85848,85849,85850,85851,85852,85853,85854,85855,85856,85857,85841,85842,85843,85844,85845,85846,85847,85848,85849,85850,85981,85981,85982,85983,85984,85985,85981,85981,85982,85983,85984,85985,
85981,85981,85982,85983,85984,85985,85986,85987,85988,85989,85990,85991,85992,85993,85994,85995,85996,85997,85998,85999,85988,85989,85990,85991,85992,85993,85994,85995,85996,85997,85998,85999,85981,85981,85982,85983,85984,85985,85986,85987,85988,85989,85990,85991,85992,85993,85994,85995,85996,85997,85998,85999,86000,86001,86002,86003,86004,86005,86006,86007,86008,86009,86010,86011,86012,86013,86014,86015,86016,86017,86018,86019,86020,86021,85981,85982,85983,85984,85985,85986,85987,85988,85989,85990,85991,85992,85993,85994,85995,85996,85997,85998,85999,86000,86001,86002,86003,86004,86005,86006,86007,86008,86009,86010,86011,86012,86013,86014,86015,86016,86017,86018,86019,86020,86021,86022,86023,86024,86025,86026,86027,86028,86029,86030,86031,86032,86033,86034,86035,86036,86037,86038,86039,86040,86041,86042,86043,86044,86045,86046,86047,86048,86049,86050,86051,86052,86053,86054,86055,86056,86057,86099,86100,86101,86102,86103,86104,86105,86106,86107,86108,86109,86110,86111,86112,86113,86114,85981,85982,85983,85984,85985,85986,85987,85988,85989,85990,85991,85992,85993,85994,85995,85996,85997,85998,85999,86000,86001,86002,86003,86004,86005,86006,86007,86008,86009,86010,86011,86012,86013,86014,86015,86016,86017,86018,86019,86020,86021,86022,86023,86024,86025,86026,86027,86028,86029,86030,86031,86032,86033,86034,86035,85981,85982,85983,85984,85985,85986,85987,85988,85989,85990,85991,85992,85993,85994,85995,85996,85997,85998,85999,86000,86001,86002,86003,86004,86005,86006,86007,86008,86009,86010,86011,86012,86013,86014,86015,86016,86017,86018,86019,85981,85982,85983,85984,85985,85986,85987,85988,85989,85990,85991,85992,85993,85994,85995,85996,85997,85998,85999,86000,86001,86002,86003,86004,86005,85989,85990,85991,85992,85993,85994,85995,85996,85997,85998,84945,84945,84946,84947,84948,84949,84945,84945,84946,84947,84948,84949,
86129,86129,86130,86131,86132,86133,86134,86135,86136,86137,86138,86139,86140,86141,86142,86143,86144,86145,86146,86147,86136,86137,86138,86139,86140,86141,86142,86143,86144,86145,86146,86147,86129,86129,86130,86131,86132,86133,86134,86135,86136,86137,86138,86139,86140,86141,86142,86143,86144,86145,86146,86147,86148,86149,86150,86151,86152,86153,86154,86155,86156,86157,86158,86159,86160,86161,86162,86163,86164,86165,86166,86167,86168,86169,86129,86130,86131,86132,86133,86134,86135,86136,86137,86138,86139,86140,86141,86142,86143,86144,86145,86146,86147,86148,86149,86150,86151,86152,86153,86154,86155,86156,86157,86158,86159,86160,86161,86162,86163,86164,86165,86166,86167,86168,86169,86170,86171,86172,86173,86174,86175,86176,86177,86178,86179,86180,86181,86182,86183,86184,86185,86186,86187,86188,86189,86190,86191,86192,86193,86194,86195,86196,86197,86198,86199,86200,86201,86202,86203,86204,86205,86247,86248,86249,86250,86251,86252,86253,86254,86255,86256,86257,86258,86259,86260,86261,86262,86129,86130,86131,86132,86133,86134,86135,86136,86137,86138,86139,86140,86141,86142,86143,86144,86145,86146,86147,86148,86149,86150,86151,86152,86153,86154,86155,86156,86157,86158,86159,86160,86161,86162,86163,86164,86165,86166,86167,86168,86169,86170,86171,86172,86173,86174,86175,86176,86177,86178,86179,86180,86181,86182,86183,86129,86130,86131,86132,86133,86134,86135,86136,86137,86138,86139,86140,86141,86142,86143,86144,86145,86146,86147,86148,86149,86150,86151,86152,86153,86154,86155,86156,86157,86158,86159,86160,86161,86162,86163,86164,86165,86166,86167,86129,86130,86131,86132,86133,86134,86135,86136,86137,86138,86139,86140,86141,86142,86143,86144,86145,86146,86147,86148,86149,86150,86151,86152,86153,86137,86138,86139,86140,86141,86142,86143,86144,86145,86146,85093,85093,85094,85095,85096,85097,85093,85093,85094,85095,85096,85097,
86277,86277,86278,86279,86280,86281,86282,86283,86284,86285,86286,86287,86288,86289,86290,86291,86292,86293,86294,86295,86284,86285,86286,86287,86288,86289,86290,86291,86292,86293,86294,86295,86277,86277,86278,86279,86280,86281,86282,86283,86284,86285,86286,86287,86288,86289,86290,86291,86292,86293,86294,86295,86296,86297,86298,86299,86300,86301,86302,86303,86304,86305,86306,86307,86308,86309,86310,86311,86312,86313,86314,86315,86316,86317,86277,86278,86279,86280,86281,86282,86283,86284,86285,86286,86287,86288,86289,86290,86291,86292,86293,86294,86295,86296,86297,86298,86299,86300,86301,86302,86303,86304,86305,86306,86307,86308,86309,86310,86311,86312,86313,86314,86315,86316,86317,86318,86319,86320,86321,86322,86323,86324,86325,86326,86327,86328,86329,86330,86331,86332,86333,86334,86335,86336,86337,86338,86339,86340,86341,86342,86343,86344,86345,86346,86347,86348,86349,86350,86351,86352,86353,86395,86396,86397,86398,86399,86400,86401,86402,86403,86404,86405,86406,86407,86408,86409,86410,86277,86278,86279,86280,86281,86282,86283,86284,86285,86286,86287,86288,86289,86290,86291,86292,86293,86294,86295,86296,86297,86298,86299,86300,86301,86302,86303,86304,86305,86306,86307,86308,86309,86310,86311,86312,86313,86314,86315,86316,86317,86318,86319,86320,86321,86322,86323,86324,86325,86326,86327,86328,86329,86330,86331,86277,86278,86279,86280,86281,86282,86283,86284,86285,86286,86287,86288,86289,86290,86291,86292,86293,86294,86295,86296,86297,86298,86299,86300,86301,86302,86303,86304,86305,86306,86307,86308,86309,86310,86311,86312,86313,86314,86315,86277,86278,86279,86280,86281,86282,86283,86284,86285,86286,86287,86288,86289,86290,86291,86292,86293,86294,86295,86296,86297,86298,86299,86300,86301,86285,86286,86287,86288,86289,86290,86291,86292,86293,86294,85241,85241,85242,85243,85244,85245,85241,85241,85242,85243,85244,85245,
86425,86425,86426,86427,86428,86429,86430,86431,86432,86433,86434,86435,86436,86437,86438,86439,86440,86441,86442,86443,86432,86433,86434,86435,86436,86437,86438,86439,86440,86441,86442,86443,86425,86425,86426,86427,86428,86429,86430,86431,86432,86433,86434,86435,86436,86437,86438,86439,86440,86441,86442,86443,86444,86445,86446,86447,86448,86449,86450,86451,86452,86453,86454,86455,86456,86457,86458,86459,86460,86461,86462,86463,86464,86465,86425,86426,86427,86428,86429,86430,86431,86432,86433,86434,86435,86436,86437,86438,86439,86440,86441,86442,86443,86444,86445,86446,86447,86448,86449,86450,86451,86452,86453,86454,86455,86456,86457,86458,86459,86460,86461,86462,86463,86464,86465,86466,86467,86468,86469,86470,86471,86472,86473,86474,86475,86476,86477,86478,86479,86480,86481,86482,86483,86484,86485,86486,86487,86488,86489,86490,86491,86492,86493,86494,86495,86496,86497,86498,86499,86500,86501,86543,86544,86545,86546,86547,86548,86549,86550,86551,86552,86553,86554,86555,86556,86557,86558,86425,86426,86427,86428,86429,86430,86431,86432,86433,86434,86435,86436,86437,86438,86439,86440,86441,86442,86443,86444,86445,86446,86447,86448,86449,86450,86451,86452,86453,86454,86455,86456,86457,86458,86459,86460,86461,86462,86463,86464,86465,86466,86467,86468,86469,86470,86471,86472,86473,86474,86475,86476,86477,86478,86479,86425,86426,86427,86428,86429,86430,86431,86432,86433,86434,86435,86436,86437,86438,86439,86440,86441,86442,86443,86444,86445,86446,86447,86448,86449,86450,86451,86452,86453,86454,86455,86456,86457,86458,86459,86460,86461,86462,86463,86425,86426,86427,86428,86429,86430,86431,86432,86433,86434,86435,86436,86437,86438,86439,86440,86441,86442,86443,86444,86445,86446,86447,86448,86449,86433,86434,86435,86436,86437,86438,86439,86440,86441,86442,85389,85389,85390,85391,85392,85393,85389,85389,85390,85391,85392,85393,
86573,86573,86574,86575,86576,86577,86578,86579,86580,86581,86582,86583,86584,86585,86586,86587,86588,86589,86590,86591,86580,86581,86582,86583,86584,86585,86586,86587,86588,86589,86590,86591,86573,86573,86574,86575,86576,86577,86578,86579,86580,86581,86582,86583,86584,86585,86586,86587,86588,86589,86590,86591,86592,86593,86594,86595,86596,86597,86598,86599,86600,86601,86602,86603,86604,86605,86606,86607,86608,86609,86610,86611,86612,86613,86573,86574,86575,86576,86577,86578,86579,86580,86581,86582,86583,86584,86585,86586,86587,86588,86589,86590,86591,86592,86593,86594,86595,86596,86597,86598,86599,86600,86601,86602,86603,86604,86605,86606,86607,86608,86609,86610,86611,86612,86613,86614,86615,86616,86617,86618,86619,86620,86621,86622,86623,86624,86625,86626,86627,86628,86629,86630,86631,86632,86633,86634,86635,86636,86637,86638,86639,86640,86641,86642,86643,86644,86645,86646,86647,86648,86649,86691,86692,86693,86694,86695,86696,86697,86698,86699,86700,86701,86702,86703,86704,86705,86706,86573,86574,86575,86576,86577,86578,86579,86580,86581,86582,86583,86584,86585,86586,86587,86588,86589,86590,86591,86592,86593,86594,86595,86596,86597,86598,86599,86600,86601,86602,86603,86604,86605,86606,86607,86608,86609,86610,86611,86612,86613,86614,86615,86616,86617,86618,86619,86620,86621,86622,86623,86624,86625,86626,86627,86573,86574,86575,86576,86577,86578,86579,86580,86581,86582,86583,86584,86585,86586,86587,86588,86589,86590,86591,86592,86593,86594,86595,86596,86597,86598,86599,86600,86601,86602,86603,86604,86605,86606,86607,86608,86609,86610,86611,86573,86574,86575,86576,86577,86578,86579,86580,86581,86582,86583,86584,86585,86586,86587,86588,86589,86590,86591,86592,86593,86594,86595,86596,86597,86581,86582,86583,86584,86585,86586,86587,86588,86589,86590,85537,85537,85538,85539,85540,85541,85537,85537,85538,85539,85540,85541,
86721,86721,86722,86723,86724,86725,86726,86727,86728,86729,86730,86731,86732,86733,86734,86735,86736,86737,86738,86739,86728,86729,86730,86731,86732,86733,86734,86735,86736,86737,86738,86739,86721,86721,86722,86723,86724,86725,86726,86727,86728,86729,86730,86731,86732,86733,86734,86735,86736,86737,86738,86739,86740,86741,86742,86743,86744,86745,86746,86747,86748,86749,86750,86751,86752,86753,86754,86755,86756,86757,86758,86759,86760,86761,86721,86722,86723,86724,86725,86726,86727,86728,86729,86730,86731,86732,86733,86734,86735,86736,86737,86738,86739,86740,86741,86742,86743,86744,86745,86746,86747,86748,86749,86750,86751,86752,86753,86754,86755,86756,86757,86758,86759,86760,86761,86762,86763,86764,86765,86766,86767,86768,86769,86770,86771,86772,86773,86774,86775,86776,86777,86778,86779,86780,86781,86782,86783,86784,86785,86786,86787,86788,86789,86790,86791,86792,86793,86794,86795,86796,86797,86839,86840,86841,86842,86843,86844,86845,86846,86847,86848,86849,86850,86851,86852,86853,86854,86721,86722,86723,86724,86725,86726,86727,86728,86729,86730,86731,86732,86733,86734,86735,86736,86737,86738,86739,86740,86741,86742,86743,86744,86745,86746,86747,86748,86749,86750,86751,86752,86753,86754,86755,86756,86757,86758,86759,86760,86761,86762,86763,86764,86765,86766,86767,86768,86769,86770,86771,86772,86773,86774,86775,86721,86722,86723,86724,86725,86726,86727,86728,86729,86730,86731,86732,86733,86734,86735,86736,86737,86738,86739,86740,86741,86742,86743,86744,86745,86746,86747,86748,86749,86750,86751,86752,86753,86754,86755,86756,86757,86758,86759,86721,86722,86723,86724,86725,86726,86727,86728,86729,86730,86731,86732,86733,86734,86735,86736,86737,86738,86739,86740,86741,86742,86743,86744,86745,86729,86730,86731,86732,86733,86734,86735,86736,86737,86738,85685,85685,85686,85687,85688,85689,85685,85685,85686,85687,85688,85689,
86869,86869,86870,86871,86872,86873,86874,86875,86876,86877,86878,86879,86880,86881,86882,86883,86884,86885,86886,86887,86876,86877,86878,86879,86880,86881,86882,86883,86884,86885,86886,86887,86869,86869,86870,86871,86872,86873,86874,86875,86876,86877,86878,86879,86880,86881,86882,86883,86884,86885,86886,86887,86888,86889,86890,86891,86892,86893,86894,86895,86896,86897,86898,86899,86900,86901,86902,86903,86904,86905,86906,86907,86908,86909,86869,86870,86871,86872,86873,86874,86875,86876,86877,86878,86879,86880,86881,86882,86883,86884,86885,86886,86887,86888,86889,86890,86891,86892,86893,86894,86895,86896,86897,86898,86899,86900,86901,86902,86903,86904,86905,86906,86907,86908,86909,86910,86911,86912,86913,86914,86915,86916,86917,86918,86919,86920,86921,86922,86923,86924,86925,86926,86927,86928,86929,86930,86931,86932,86933,86934,86935,86936,86937,86938,86939,86940,86941,86942,86943,86944,86945,86987,86988,86989,86990,86991,86992,86993,86994,86995,86996,86997,86998,86999,87000,87001,87002,86869,86870,86871,86872,86873,86874,86875,86876,86877,86878,86879,86880,86881,86882,86883,86884,86885,86886,86887,86888,86889,86890,86891,86892,86893,86894,86895,86896,86897,86898,86899,86900,86901,86902,86903,86904,86905,86906,86907,86908,86909,86910,86911,86912,86913,86914,86915,86916,86917,86918,86919,86920,86921,86922,86923,86869,86870,86871,86872,86873,86874,86875,86876,86877,86878,86879,86880,86881,86882,86883,86884,86885,86886,86887,86888,86889,86890,86891,86892,86893,86894,86895,86896,86897,86898,86899,86900,86901,86902,86903,86904,86905,86906,86907,86869,86870,86871,86872,86873,86874,86875,86876,86877,86878,86879,86880,86881,86882,86883,86884,86885,86886,86887,86888,86889,86890,86891,86892,86893,86877,86878,86879,86880,86881,86882,86883,86884,86885,86886,85833,85833,85834,85835,85836,85837,85833,85833,85834,85835,85836,85837,
87017,87017,87018,87019,87020,87021,87022,87023,87024,87025,87026,87027,87028,87029,87030,87031,87032,87033,87034,87035,87024,87025,87026,87027,87028,87029,87030,87031,87032,87033,87034,87035,87017,87017,87018,87019,87020,87021,87022,87023,87024,87025,87026,87027,87028,87029,87030,87031,87032,87033,87034,87035,87036,87037,87038,87039,87040,87041,87042,87043,87044,87045,87046,87047,87048,87049,87050,87051,87052,87053,87054,87055,87056,87057,87017,87018,87019,87020,87021,87022,87023,87024,87025,87026,87027,87028,87029,87030,87031,87032,87033,87034,87035,87036,87037,87038,87039,87040,87041,87042,87043,87044,87045,87046,87047,87048,87049,87050,87051,87052,87053,87054,87055,87056,87057,87058,87059,87060,87061,87062,87063,87064,87065,87066,87067,87068,87069,87070,87071,87072,87073,87074,87075,87076,87077,87078,87079,87080,87081,87082,87083,87084,87085,87086,87087,87088,87089,87090,87091,87092,87093,87135,87136,87137,87138,87139,87140,87141,87142,87143,87144,87145,87146,87147,87148,87149,87150,87017,87018,87019,87020,87021,87022,87023,87024,87025,87026,87027,87028,87029,87030,87031,87032,87033,87034,87035,87036,87037,87038,87039,87040,87041,87042,87043,87044,87045,87046,87047,87048,87049,87050,87051,87052,87053,87054,87055,87056,87057,87058,87059,87060,87061,87062,87063,87064,87065,87066,87067,87068,87069,87070,87071,87017,87018,87019,87020,87021,87022,87023,87024,87025,87026,87027,87028,87029,87030,87031,87032,87033,87034,87035,87036,87037,87038,87039,87040,87041,87042,87043,87044,87045,87046,87047,87048,87049,87050,87051,87052,87053,87054,87055,87017,87018,87019,87020,87021,87022,87023,87024,87025,87026,87027,87028,87029,87030,87031,87032,87033,87034,87035,87036,87037,87038,87039,87040,87041,87025,87026,87027,87028,87029,87030,87031,87032,87033,87034,85981,85981,85982,85983,85984,85985,85981,85981,85982,85983,85984,85985,
87165,87165,87166,87167,87168,87169,87170,87171,87172,87173,87174,87175,87176,87177,87178,87179,87180,87181,87182,87183,87172,87173,87174,87175,87176,87177,87178,87179,87180,87181,87182,87183,87165,87165,87166,87167,87168,87169,87170,87171,87172,87173,87174,87175,87176,87177,87178,87179,87180,87181,87182,87183,87184,87185,87186,87187,87188,87189,87190,87191,87192,87193,87194,87195,87196,87197,87198,87199,87200,87201,87202,87203,87204,87205,87165,87166,87167,87168,87169,87170,87171,87172,87173,87174,87175,87176,87177,87178,87179,87180,87181,87182,87183,87184,87185,87186,87187,87188,87189,87190,87191,87192,87193,87194,87195,87196,87197,87198,87199,87200,87201,87202,87203,87204,87205,87206,87207,87208,87209,87210,87211,87212,87213,87214,87215,87216,87217,87218,87219,87220,87221,87222,87223,87224,87225,87226,87227,87228,87229,87230,87231,87232,87233,87234,87235,87236,87237,87238,87239,87240,87241,87283,87284,87285,87286,87287,87288,87289,87290,87291,87292,87293,87294,87295,87296,87297,87298,87165,87166,87167,87168,87169,87170,87171,87172,87173,87174,87175,87176,87177,87178,87179,87180,87181,87182,87183,87184,87185,87186,87187,87188,87189,87190,87191,87192,87193,87194,87195,87196,87197,87198,87199,87200,87201,87202,87203,87204,87205,87206,87207,87208,87209,87210,87211,87212,87213,87214,87215,87216,87217,87218,87219,87165,87166,87167,87168,87169,87170,87171,87172,87173,87174,87175,87176,87177,87178,87179,87180,87181,87182,87183,87184,87185,87186,87187,87188,87189,87190,87191,87192,87193,87194,87195,87196,87197,87198,87199,87200,87201,87202,87203,87165,87166,87167,87168,87169,87170,87171,87172,87173,87174,87175,87176,87177,87178,87179,87180,87181,87182,87183,87184,87185,87186,87187,87188,87189,87173,87174,87175,87176,87177,87178,87179,87180,87181,87182,84945,84945,84946,84947,84948,84949,84945,84945,84946,84947,84948,84949,
87313,87313,87314,87315,87316,87317,87318,87319,87320,87321,87322,87323,87324,87325,87326,87327,87328,87329,87330,87331,87320,87321,87322,87323,87324,87325,87326,87327,87328,87329,87330,87331,87313,87313,87314,87315,87316,87317,87318,87319,87320,87321,87322,87323,87324,87325,87326,87327,87328,87329,87330,87331,87332,87333,87334,87335,87336,87337,87338,87339,87340,87341,87342,87343,87344,87345,87346,87347,87348,87349,87350,87351,87352,87353,87313,87314,87315,87316,87317,87318,87319,87320,87321,87322,87323,87324,87325,87326,87327,87328,87329,87330,87331,87332,87333,87334,87335,87336,87337,87338,87339,87340,87341,87342,87343,87344,87345,87346,87347,87348,87349,87350,87351,87352,87353,87354,87355,87356,87357,87358,87359,87360,87361,87362,87363,87364,87365,87366,87367,87368,87369,87370,87371,87372,87373,87374,87375,87376,87377,87378,87379,87380,87381,87382,87383,87384,87385,87386,87387,87388,87389,87431,87432,87433,87434,87435,87436,87437,87438,87439,87440,87441,87442,87443,87444,87445,87446,87313,87314,87315,87316,87317,87318,87319,87320,87321,87322,87323,87324,87325,87326,87327,87328,87329,87330,87331,87332,87333,87334,87335,87336,87337,87338,87339,87340,87341,87342,87343,87344,87345,87346,87347,87348,87349,87350,87351,87352,87353,87354,87355,87356,87357,87358,87359,87360,87361,87362,87363,87364,87365,87366,87367,87313,87314,87315,87316,87317,87318,87319,87320,87321,87322,87323,87324,87325,87326,87327,87328,87329,87330,87331,87332,87333,87334,87335,87336,87337,87338,87339,87340,87341,87342,87343,87344,87345,87346,87347,87348,87349,87350,87351,87313,87314,87315,87316,87317,87318,87319,87320,87321,87322,87323,87324,87325,87326,87327,87328,87329,87330,87331,87332,87333,87334,87335,87336,87337,87321,87322,87323,87324,87325,87326,87327,87328,87329,87330,85093,85093,85094,85095,85096,85097,85093,85093,85094,85095,85096,85097,
87461,87461,87462,87463,87464,87465,87466,87467,87468,87469,87470,87471,87472,87473,87474,87475,87476,87477,87478,87479,87468,87469,87470,87471,87472,87473,87474,87475,87476,87477,87478,87479,87461,87461,87462,87463,87464,87465,87466,87467,87468,87469,87470,87471,87472,87473,87474,87475,87476,87477,87478,87479,87480,87481,87482,87483,87484,87485,87486,87487,87488,87489,87490,87491,87492,87493,87494,87495,87496,87497,87498,87499,87500,87501,87461,87462,87463,87464,87465,87466,87467,87468,87469,87470,87471,87472,87473,87474,87475,87476,87477,87478,87479,87480,87481,87482,87483,87484,87485,87486,87487,87488,87489,87490,87491,87492,87493,87494,87495,87496,87497,87498,87499,87500,87501,87502,87503,87504,87505,87506,87507,87508,87509,87510,87511,87512,87513,87514,87515,87516,87517,87518,87519,87520,87521,87522,87523,87524,87525,87526,87527,87528,87529,87530,87531,87532,87533,87534,87535,87536,87537,87579,87580,87581,87582,87583,87584,87585,87586,87587,87588,87589,87590,87591,87592,87593,87594,87461,87462,87463,87464,87465,87466,87467,87468,87469,87470,87471,87472,87473,87474,87475,87476,87477,87478,87479,87480,87481,87482,87483,87484,87485,87486,87487,87488,87489,87490,87491,87492,87493,87494,87495,87496,87497,87498,87499,87500,87501,87502,87503,87504,87505,87506,87507,87508,87509,87510,87511,87512,87513,87514,87515,87461,87462,87463,87464,87465,87466,87467,87468,87469,87470,87471,87472,87473,87474,87475,87476,87477,87478,87479,87480,87481,87482,87483,87484,87485,87486,87487,87488,87489,87490,87491,87492,87493,87494,87495,87496,87497,87498,87499,87461,87462,87463,87464,87465,87466,87467,87468,87469,87470,87471,87472,87473,87474,87475,87476,87477,87478,87479,87480,87481,87482,87483,87484,87485,87469,87470,87471,87472,87473,87474,87475,87476,87477,87478,85241,85241,85242,85243,85244,85245,85241,85241,85242,85243,85244,85245,
87609,87609,87610,87611,87612,87613,87614,87615,87616,87617,87618,87619,87620,87621,87622,87623,87624,87625,87626,87627,87616,87617,87618,87619,87620,87621,87622,87623,87624,87625,87626,87627,87609,87609,87610,87611,87612,87613,87614,87615,87616,87617,87618,87619,87620,87621,87622,87623,87624,87625,87626,87627,87628,87629,87630,87631,87632,87633,87634,87635,87636,87637,87638,87639,87640,87641,87642,87643,87644,87645,87646,87647,87648,87649,87609,87610,87611,87612,87613,87614,87615,87616,87617,87618,87619,87620,87621,87622,87623,87624,87625,87626,87627,87628,87629,87630,87631,87632,87633,87634,87635,87636,87637,87638,87639,87640,87641,87642,87643,87644,87645,87646,87647,87648,87649,87650,87651,87652,87653,87654,87655,87656,87657,87658,87659,87660,87661,87662,87663,87664,87665,87666,87667,87668,87669,87670,87671,87672,87673,87674,87675,87676,87677,87678,87679,87680,87681,87682,87683,87684,87685,87727,87728,87729,87730,87731,87732,87733,87734,87735,87736,87737,87738,87739,87740,87741,87742,87609,87610,87611,87612,87613,87614,87615,87616,87617,87618,87619,87620,87621,87622,87623,87624,87625,87626,87627,87628,87629,87630,87631,87632,87633,87634,87635,87636,87637,87638,87639,87640,87641,87642,87643,87644,87645,87646,87647,87648,87649,87650,87651,87652,87653,87654,87655,87656,87657,87658,87659,87660,87661,87662,87663,87609,87610,87611,87612,87613,87614,87615,87616,87617,87618,87619,87620,87621,87622,87623,87624,87625,87626,87627,87628,87629,87630,87631,87632,87633,87634,87635,87636,87637,87638,87639,87640,87641,87642,87643,87644,87645,87646,87647,87609,87610,87611,87612,87613,87614,87615,87616,87617,87618,87619,87620,87621,87622,87623,87624,87625,87626,87627,87628,87629,87630,87631,87632,87633,87617,87618,87619,87620,87621,87622,87623,87624,87625,87626,85389,85389,85390,85391,85392,85393,85389,85389,85390,85391,85392,85393,
87757,87757,87758,87759,87760,87761,87762,87763,87764,87765,87766,87767,87768,87769,87770,87771,87772,87773,87774,87775,87764,87765,87766,87767,87768,87769,87770,87771,87772,87773,87774,87775,87757,87757,87758,87759,87760,87761,87762,87763,87764,87765,87766,87767,87768,87769,87770,87771,87772,87773,87774,87775,87776,87777,87778,87779,87780,87781,87782,87783,87784,87785,87786,87787,87788,87789,87790,87791,87792,87793,87794,87795,87796,87797,87757,87758,87759,87760,87761,87762,87763,87764,87765,87766,87767,87768,87769,87770,87771,87772,87773,87774,87775,87776,87777,87778,87779,87780,87781,87782,87783,87784,87785,87786,87787,87788,87789,87790,87791,87792,87793,87794,87795,87796,87797,87798,87799,87800,87801,87802,87803,87804,87805,87806,87807,87808,87809,87810,87811,87812,87813,87814,87815,87816,87817,87818,87819,87820,87821,87822,87823,87824,87825,87826,87827,87828,87829,87830,87831,87832,87833,87875,87876,87877,87878,87879,87880,87881,87882,87883,87884,87885,87886,87887,87888,87889,87890,87757,87758,87759,87760,87761,87762,87763,87764,87765,87766,87767,87768,87769,87770,87771,87772,87773,87774,87775,87776,87777,87778,87779,87780,87781,87782,87783,87784,87785,87786,87787,87788,87789,87790,87791,87792,87793,87794,87795,87796,87797,87798,87799,87800,87801,87802,87803,87804,87805,87806,87807,87808,87809,87810,87811,87757,87758,87759,87760,87761,87762,87763,87764,87765,87766,87767,87768,87769,87770,87771,87772,87773,87774,87775,87776,87777,87778,87779,87780,87781,87782,87783,87784,87785,87786,87787,87788,87789,87790,87791,87792,87793,87794,87795,87757,87758,87759,87760,87761,87762,87763,87764,87765,87766,87767,87768,87769,87770,87771,87772,87773,87774,87775,87776,87777,87778,87779,87780,87781,87765,87766,87767,87768,87769,87770,87771,87772,87773,87774,85537,85537,85538,85539,85540,85541,85537,85537,85538,85539,85540,85541,
87905,87905,87906,87907,87908,87909,87910,87911,87912,87913,87914,87915,87916,87917,87918,87919,87920,87921,87922,87923,87912,87913,87914,87915,87916,87917,87918,87919,87920,87921,87922,87923,87905,87905,87906,87907,87908,87909,87910,87911,87912,87913,87914,87915,87916,87917,87918,87919,87920,87921,87922,87923,87924,87925,87926,87927,87928,87929,87930,87931,87932,87933,87934,87935,87936,87937,87938,87939,87940,87941,87942,87943,87944,87945,87905,87906,87907,87908,87909,87910,87911,87912,87913,87914,87915,87916,87917,87918,87919,87920,87921,87922,87923,87924,87925,87926,87927,87928,87929,87930,87931,87932,87933,87934,87935,87936,87937,87938,87939,87940,87941,87942,87943,87944,87945,87946,87947,87948,87949,87950,87951,87952,87953,87954,87955,87956,87957,87958,87959,87960,87961,87962,87963,87964,87965,87966,87967,87968,87969,87970,87971,87972,87973,87974,87975,87976,87977,87978,87979,87980,87981,88023,88024,88025,88026,88027,88028,88029,88030,88031,88032,88033,88034,88035,88036,88037,88038,87905,87906,87907,87908,87909,87910,87911,87912,87913,87914,87915,87916,87917,87918,87919,87920,87921,87922,87923,87924,87925,87926,87927,87928,87929,87930,87931,87932,87933,87934,87935,87936,87937,87938,87939,87940,87941,87942,87943,87944,87945,87946,87947,87948,87949,87950,87951,87952,87953,87954,87955,87956,87957,87958,87959,87905,87906,87907,87908,87909,87910,87911,87912,87913,87914,87915,87916,87917,87918,87919,87920,87921,87922,87923,87924,87925,87926,87927,87928,87929,87930,87931,87932,87933,87934,87935,87936,87937,87938,87939,87940,87941,87942,87943,87905,87906,87907,87908,87909,87910,87911,87912,87913,87914,87915,87916,87917,87918,87919,87920,87921,87922,87923,87924,87925,87926,87927,87928,87929,87913,87914,87915,87916,87917,87918,87919,87920,87921,87922,85685,85685,85686,85687,85688,85689,85685,85685,85686,85687,85688,85689,
88053,88053,88054,88055,88056,88057,88058,88059,88060,88061,88062,88063,88064,88065,88066,88067,88068,88069,88070,88071,88060,88061,88062,88063,88064,88065,88066,88067,88068,88069,88070,88071,88053,88053,88054,88055,88056,88057,88058,88059,88060,88061,88062,88063,88064,88065,88066,88067,88068,88069,88070,88071,88072,88073,88074,88075,88076,88077,88078,88079,88080,88081,88082,88083,88084,88085,88086,88087,88088,88089,88090,88091,88092,88093,88053,88054,88055,88056,88057,88058,88059,88060,88061,88062,88063,88064,88065,88066,88067,88068,88069,88070,88071,88072,88073,88074,88075,88076,88077,88078,88079,88080,88081,88082,88083,88084,88085,88086,88087,88088,88089,88090,88091,88092,88093,88094,88095,88096,88097,88098,88099,88100,88101,88102,88103,88104,88105,88106,88107,88108,88109,88110,88111,88112,88113,88114,88115,88116,88117,88118,88119,88120,88121,88122,88123,88124,88125,88126,88127,88128,88129,88171,88172,88173,88174,88175,88176,88177,88178,88179,88180,88181,88182,88183,88184,88185,88186,88053,88054,88055,88056,88057,88058,88059,88060,88061,88062,88063,88064,88065,88066,88067,88068,88069,88070,88071,88072,88073,88074,88075,88076,88077,88078,88079,88080,88081,88082,88083,88084,88085,88086,88087,88088,88089,88090,88091,88092,88093,88094,88095,88096,88097,88098,88099,88100,88101,88102,88103,88104,88105,88106,88107,88053,88054,88055,88056,88057,88058,88059,88060,88061,88062,88063,88064,88065,88066,88067,88068,88069,88070,88071,88072,88073,88074,88075,88076,88077,88078,88079,88080,88081,88082,88083,88084,88085,88086,88087,88088,88089,88090,88091,88053,88054,88055,88056,88057,88058,88059,88060,88061,88062,88063,88064,88065,88066,88067,88068,88069,88070,88071,88072,88073,88074,88075,88076,88077,88061,88062,88063,88064,88065,88066,88067,88068,88069,88070,85833,85833,85834,85835,85836,85837,85833,85833,85834,85835,85836,85837,
88201,88201,88202,88203,88204,88205,88206,88207,88208,88209,88210,88211,88212,88213,88214,88215,88216,88217,88218,88219,88208,88209,88210,88211,88212,88213,88214,88215,88216,88217,88218,88219,88201,88201,88202,88203,88204,88205,88206,88207,88208,88209,88210,88211,88212,88213,88214,88215,88216,88217,88218,88219,88220,88221,88222,88223,88224,88225,88226,88227,88228,88229,88230,88231,88232,88233,88234,88235,88236,88237,88238,88239,88240,88241,88201,88202,88203,88204,88205,88206,88207,88208,88209,88210,88211,88212,88213,88214,88215,88216,88217,88218,88219,88220,88221,88222,88223,88224,88225,88226,88227,88228,88229,88230,88231,88232,88233,88234,88235,88236,88237,88238,88239,88240,88241,88242,88243,88244,88245,88246,88247,88248,88249,88250,88251,88252,88253,88254,88255,88256,88257,88258,88259,88260,88261,88262,88263,88264,88265,88266,88267,88268,88269,88270,88271,88272,88273,88274,88275,88276,88277,88319,88320,88321,88322,88323,88324,88325,88326,88327,88328,88329,88330,88331,88332,88333,88334,88201,88202,88203,88204,88205,88206,88207,88208,88209,88210,88211,88212,88213,88214,88215,88216,88217,88218,88219,88220,88221,88222,88223,88224,88225,88226,88227,88228,88229,88230,88231,88232,88233,88234,88235,88236,88237,88238,88239,88240,88241,88242,88243,88244,88245,88246,88247,88248,88249,88250,88251,88252,88253,88254,88255,88201,88202,88203,88204,88205,88206,88207,88208,88209,88210,88211,88212,88213,88214,88215,88216,88217,88218,88219,88220,88221,88222,88223,88224,88225,88226,88227,88228,88229,88230,88231,88232,88233,88234,88235,88236,88237,88238,88239,88201,88202,88203,88204,88205,88206,88207,88208,88209,88210,88211,88212,88213,88214,88215,88216,88217,88218,88219,88220,88221,88222,88223,88224,88225,88209,88210,88211,88212,88213,88214,88215,88216,88217,88218,85981,85981,85982,85983,85984,85985,85981,85981,85982,85983,85984,85985,
88349,88349,88350,88351,88352,88353,88354,88355,88356,88357,88358,88359,88360,88361,88362,88363,88364,88365,88366,88367,88356,88357,88358,88359,88360,88361,88362,88363,88364,88365,88366,88367,88349,88349,88350,88351,88352,88353,88354,88355,88356,88357,88358,88359,88360,88361,88362,88363,88364,88365,88366,88367,88368,88369,88370,88371,88372,88373,88374,88375,88376,88377,88378,88379,88380,88381,88382,88383,88384,88385,88386,88387,88388,88389,88349,88350,88351,88352,88353,88354,88355,88356,88357,88358,88359,88360,88361,88362,88363,88364,88365,88366,88367,88368,88369,88370,88371,88372,88373,88374,88375,88376,88377,88378,88379,88380,88381,88382,88383,88384,88385,88386,88387,88388,88389,88390,88391,88392,88393,88394,88395,88396,88397,88398,88399,88400,88401,88402,88403,88404,88405,88406,88407,88408,88409,88410,88411,88412,88413,88414,88415,88416,88417,88418,88419,88420,88421,88422,88423,88424,88425,88467,88468,88469,88470,88471,88472,88473,88474,88475,88476,88477,88478,88479,88480,88481,88482,88349,88350,88351,88352,88353,88354,88355,88356,88357,88358,88359,88360,88361,88362,88363,88364,88365,88366,88367,88368,88369,88370,88371,88372,88373,88374,88375,88376,88377,88378,88379,88380,88381,88382,88383,88384,88385,88386,88387,88388,88389,88390,88391,88392,88393,88394,88395,88396,88397,88398,88399,88400,88401,88402,88403,88349,88350,88351,88352,88353,88354,88355,88356,88357,88358,88359,88360,88361,88362,88363,88364,88365,88366,88367,88368,88369,88370,88371,88372,88373,88374,88375,88376,88377,88378,88379,88380,88381,88382,88383,88384,88385,88386,88387,88349,88350,88351,88352,88353,88354,88355,88356,88357,88358,88359,88360,88361,88362,88363,88364,88365,88366,88367,88368,88369,88370,88371,88372,88373,88357,88358,88359,88360,88361,88362,88363,88364,88365,88366,84945,84945,84946,84947,84948,84949,84945,84945,84946,84947,84948,84949,
88497,88497,88498,88499,88500,88501,88502,88503,88504,88505,88506,88507,88508,88509,88510,88511,88512,88513,88514,88515,88504,88505,88506,88507,88508,88509,88510,88511,88512,88513,88514,88515,88497,88497,88498,88499,88500,88501,88502,88503,88504,88505,88506,88507,88508,88509,88510,88511,88512,88513,88514,88515,88516,88517,88518,88519,88520,88521,88522,88523,88524,88525,88526,88527,88528,88529,88530,88531,88532,88533,88534,88535,88536,88537,88497,88498,88499,88500,88501,88502,88503,88504,88505,88506,88507,88508,88509,88510,88511,88512,88513,88514,88515,88516,88517,88518,88519,88520,88521,88522,88523,88524,88525,88526,88527,88528,88529,88530,88531,88532,88533,88534,88535,88536,88537,88538,88539,88540,88541,88542,88543,88544,88545,88546,88547,88548,88549,88550,88551,88552,88553,88554,88555,88556,88557,88558,88559,88560,88561,88562,88563,88564,88565,88566,88567,88568,88569,88570,88571,88572,88573,88615,88616,88617,88618,88619,88620,88621,88622,88623,88624,88625,88626,88627,88628,88629,88630,88497,88498,88499,88500,88501,88502,88503,88504,88505,88506,88507,88508,88509,88510,88511,88512,88513,88514,88515,88516,88517,88518,88519,88520,88521,88522,88523,88524,88525,88526,88527,88528,88529,88530,88531,88532,88533,88534,88535,88536,88537,88538,88539,88540,88541,88542,88543,88544,88545,88546,88547,88548,88549,88550,88551,88497,88498,88499,88500,88501,88502,88503,88504,88505,88506,88507,88508,88509,88510,88511,88512,88513,88514,88515,88516,88517,88518,88519,88520,88521,88522,88523,88524,88525,88526,88527,88528,88529,88530,88531,88532,88533,88534,88535,88497,88498,88499,88500,88501,88502,88503,88504,88505,88506,88507,88508,88509,88510,88511,88512,88513,88514,88515,88516,88517,88518,88519,88520,88521,88505,88506,88507,88508,88509,88510,88511,88512,88513,88514,85093,85093,85094,85095,85096,85097,85093,85093,85094,85095,85096,85097,
88645,88645,88646,88647,88648,88649,88650,88651,88652,88653,88654,88655,88656,88657,88658,88659,88660,88661,88662,88663,88652,88653,88654,88655,88656,88657,88658,88659,88660,88661,88662,88663,88645,88645,88646,88647,88648,88649,88650,88651,88652,88653,88654,88655,88656,88657,88658,88659,88660,88661,88662,88663,88664,88665,88666,88667,88668,88669,88670,88671,88672,88673,88674,88675,88676,88677,88678,88679,88680,88681,88682,88683,88684,88685,88645,88646,88647,88648,88649,88650,88651,88652,88653,88654,88655,88656,88657,88658,88659,88660,88661,88662,88663,88664,88665,88666,88667,88668,88669,88670,88671,88672,88673,88674,88675,88676,88677,88678,88679,88680,88681,88682,88683,88684,88685,88686,88687,88688,88689,88690,88691,88692,88693,88694,88695,88696,88697,88698,88699,88700,88701,88702,88703,88704,88705,88706,88707,88708,88709,88710,88711,88712,88713,88714,88715,88716,88717,88718,88719,88720,88721,88763,88764,88765,88766,88767,88768,88769,88770,88771,88772,88773,88774,88775,88776,88777,88778,88645,88646,88647,88648,88649,88650,88651,88652,88653,88654,88655,88656,88657,88658,88659,88660,88661,88662,88663,88664,88665,88666,88667,88668,88669,88670,88671,88672,88673,88674,88675,88676,88677,88678,88679,88680,88681,88682,88683,88684,88685,88686,88687,88688,88689,88690,88691,88692,88693,88694,88695,88696,88697,88698,88699,88645,88646,88647,88648,88649,88650,88651,88652,88653,88654,88655,88656,88657,88658,88659,88660,88661,88662,88663,88664,88665,88666,88667,88668,88669,88670,88671,88672,88673,88674,88675,88676,88677,88678,88679,88680,88681,88682,88683,88645,88646,88647,88648,88649,88650,88651,88652,88653,88654,88655,88656,88657,88658,88659,88660,88661,88662,88663,88664,88665,88666,88667,88668,88669,88653,88654,88655,88656,88657,88658,88659,88660,88661,88662,85241,85241,85242,85243,85244,85245,85241,85241,85242,85243,85244,85245,
88793,88793,88794,88795,88796,88797,88798,88799,88800,88801,88802,88803,88804,88805,88806,88807,88808,88809,88810,88811,88800,88801,88802,88803,88804,88805,88806,88807,88808,88809,88810,88811,88793,88793,88794,88795,88796,88797,88798,88799,88800,88801,88802,88803,88804,88805,88806,88807,88808,88809,88810,88811,88812,88813,88814,88815,88816,88817,88818,88819,88820,88821,88822,88823,88824,88825,88826,88827,88828,88829,88830,88831,88832,88833,88793,88794,88795,88796,88797,88798,88799,88800,88801,88802,88803,88804,88805,88806,88807,88808,88809,88810,88811,88812,88813,88814,88815,88816,88817,88818,88819,88820,88821,88822,88823,88824,88825,88826,88827,88828,88829,88830,88831,88832,88833,88834,88835,88836,88837,88838,88839,88840,88841,88842,88843,88844,88845,88846,88847,88848,88849,88850,88851,88852,88853,88854,88855,88856,88857,88858,88859,88860,88861,88862,88863,88864,88865,88866,88867,88868,88869,88911,88912,88913,88914,88915,88916,88917,88918,88919,88920,88921,88922,88923,88924,88925,88926,88793,88794,88795,88796,88797,88798,88799,88800,88801,88802,88803,88804,88805,88806,88807,88808,88809,88810,88811,88812,88813,88814,88815,88816,88817,88818,88819,88820,88821,88822,88823,88824,88825,88826,88827,88828,88829,88830,88831,88832,88833,88834,88835,88836,88837,88838,88839,88840,88841,88842,88843,88844,88845,88846,88847,88793,88794,88795,88796,88797,88798,88799,88800,88801,88802,88803,88804,88805,88806,88807,88808,88809,88810,88811,88812,88813,88814,88815,88816,88817,88818,88819,88820,88821,88822,88823,88824,88825,88826,88827,88828,88829,88830,88831,88793,88794,88795,88796,88797,88798,88799,88800,88801,88802,88803,88804,88805,88806,88807,88808,88809,88810,88811,88812,88813,88814,88815,88816,88817,88801,88802,88803,88804,88805,88806,88807,88808,88809,88810,85389,85389,85390,85391,85392,85393,85389,85389,85390,85391,85392,85393,
88941,88941,88942,88943,88944,88945,88946,88947,88948,88949,88950,88951,88952,88953,88954,88955,88956,88957,88958,88959,88948,88949,88950,88951,88952,88953,88954,88955,88956,88957,88958,88959,88941,88941,88942,88943,88944,88945,88946,88947,88948,88949,88950,88951,88952,88953,88954,88955,88956,88957,88958,88959,88960,88961,88962,88963,88964,88965,88966,88967,88968,88969,88970,88971,88972,88973,88974,88975,88976,88977,88978,88979,88980,88981,88941,88942,88943,88944,88945,88946,88947,88948,88949,88950,88951,88952,88953,88954,88955,88956,88957,88958,88959,88960,88961,88962,88963,88964,88965,88966,88967,88968,88969,88970,88971,88972,88973,88974,88975,88976,88977,88978,88979,88980,88981,88982,88983,88984,88985,88986,88987,88988,88989,88990,88991,88992,88993,88994,88995,88996,88997,88998,88999,89000,89001,89002,89003,89004,89005,89006,89007,89008,89009,89010,89011,89012,89013,89014,89015,89016,89017,89059,89060,89061,89062,89063,89064,89065,89066,89067,89068,89069,89070,89071,89072,89073,89074,88941,88942,88943,88944,88945,88946,88947,88948,88949,88950,88951,88952,88953,88954,88955,88956,88957,88958,88959,88960,88961,88962,88963,88964,88965,88966,88967,88968,88969,88970,88971,88972,88973,88974,88975,88976,88977,88978,88979,88980,88981,88982,88983,88984,88985,88986,88987,88988,88989,88990,88991,88992,88993,88994,88995,88941,88942,88943,88944,88945,88946,88947,88948,88949,88950,88951,88952,88953,88954,88955,88956,88957,88958,88959,88960,88961,88962,88963,88964,88965,88966,88967,88968,88969,88970,88971,88972,88973,88974,88975,88976,88977,88978,88979,88941,88942,88943,88944,88945,88946,88947,88948,88949,88950,88951,88952,88953,88954,88955,88956,88957,88958,88959,88960,88961,88962,88963,88964,88965,88949,88950,88951,88952,88953,88954,88955,88956,88957,88958,85537,85537,85538,85539,85540,85541,85537,85537,85538,85539,85540,85541,
89089,89089,89090,89091,89092,89093,89094,89095,89096,89097,89098,89099,89100,89101,89102,89103,89104,89105,89106,89107,89096,89097,89098,89099,89100,89101,89102,89103,89104,89105,89106,89107,89089,89089,89090,89091,89092,89093,89094,89095,89096,89097,89098,89099,89100,89101,89102,89103,89104,89105,89106,89107,89108,89109,89110,89111,89112,89113,89114,89115,89116,89117,89118,89119,89120,89121,89122,89123,89124,89125,89126,89127,89128,89129,89089,89090,89091,89092,89093,89094,89095,89096,89097,89098,89099,89100,89101,89102,89103,89104,89105,89106,89107,89108,89109,89110,89111,89112,89113,89114,89115,89116,89117,89118,89119,89120,89121,89122,89123,89124,89125,89126,89127,89128,89129,89130,89131,89132,89133,89134,89135,89136,89137,89138,89139,89140,89141,89142,89143,89144,89145,89146,89147,89148,89149,89150,89151,89152,89153,89154,89155,89156,89157,89158,89159,89160,89161,89162,89163,89164,89165,89207,89208,89209,89210,89211,89212,89213,89214,89215,89216,89217,89218,89219,89220,89221,89222,89089,89090,89091,89092,89093,89094,89095,89096,89097,89098,89099,89100,89101,89102,89103,89104,89105,89106,89107,89108,89109,89110,89111,89112,89113,89114,89115,89116,89117,89118,89119,89120,89121,89122,89123,89124,89125,89126,89127,89128,89129,89130,89131,89132,89133,89134,89135,89136,89137,89138,89139,89140,89141,89142,89143,89089,89090,89091,89092,89093,89094,89095,89096,89097,89098,89099,89100,89101,89102,89103,89104,89105,89106,89107,89108,89109,89110,89111,89112,89113,89114,89115,89116,89117,89118,89119,89120,89121,89122,89123,89124,89125,89126,89127,89089,89090,89091,89092,89093,89094,89095,89096,89097,89098,89099,89100,89101,89102,89103,89104,89105,89106,89107,89108,89109,89110,89111,89112,89113,89097,89098,89099,89100,89101,89102,89103,89104,89105,89106,85685,85685,85686,85687,85688,85689,85685,85685,85686,85687,85688,85689,
89237,89237,89238,89239,89240,89241,89242,89243,89244,89245,89246,89247,89248,89249,89250,89251,89252,89253,89254,89255,89244,89245,89246,89247,89248,89249,89250,89251,89252,89253,89254,89255,89237,89237,89238,89239,89240,89241,89242,89243,89244,89245,89246,89247,89248,89249,89250,89251,89252,89253,89254,89255,89256,89257,89258,89259,89260,89261,89262,89263,89264,89265,89266,89267,89268,89269,89270,89271,89272,89273,89274,89275,89276,89277,89237,89238,89239,89240,89241,89242,89243,89244,89245,89246,89247,89248,89249,89250,89251,89252,89253,89254,89255,89256,89257,89258,89259,89260,89261,89262,89263,89264,89265,89266,89267,89268,89269,89270,89271,89272,89273,89274,89275,89276,89277,89278,89279,89280,89281,89282,89283,89284,89285,89286,89287,89288,89289,89290,89291,89292,89293,89294,89295,89296,89297,89298,89299,89300,89301,89302,89303,89304,89305,89306,89307,89308,89309,89310,89311,89312,89313,89355,89356,89357,89358,89359,89360,89361,89362,89363,89364,89365,89366,89367,89368,89369,89370,89237,89238,89239,89240,89241,89242,89243,89244,89245,89246,89247,89248,89249,89250,89251,89252,89253,89254,89255,89256,89257,89258,89259,89260,89261,89262,89263,89264,89265,89266,89267,89268,89269,89270,89271,89272,89273,89274,89275,89276,89277,89278,89279,89280,89281,89282,89283,89284,89285,89286,89287,89288,89289,89290,89291,89237,89238,89239,89240,89241,89242,89243,89244,89245,89246,89247,89248,89249,89250,89251,89252,89253,89254,89255,89256,89257,89258,89259,89260,89261,89262,89263,89264,89265,89266,89267,89268,89269,89270,89271,89272,89273,89274,89275,89237,89238,89239,89240,89241,89242,89243,89244,89245,89246,89247,89248,89249,89250,89251,89252,89253,89254,89255,89256,89257,89258,89259,89260,89261,89245,89246,89247,89248,89249,89250,89251,89252,89253,89254,85833,85833,85834,85835,85836,85837,85833,85833,85834,85835,85836,85837,
89385,89385,89386,89387,89388,89389,89390,89391,89392,89393,89394,89395,89396,89397,89398,89399,89400,89401,89402,89403,89392,89393,89394,89395,89396,89397,89398,89399,89400,89401,89402,89403,89385,89385,89386,89387,89388,89389,89390,89391,89392,89393,89394,89395,89396,89397,89398,89399,89400,89401,89402,89403,89404,89405,89406,89407,89408,89409,89410,89411,89412,89413,89414,89415,89416,89417,89418,89419,89420,89421,89422,89423,89424,89425,89385,89386,89387,89388,89389,89390,89391,89392,89393,89394,89395,89396,89397,89398,89399,89400,89401,89402,89403,89404,89405,89406,89407,89408,89409,89410,89411,89412,89413,89414,89415,89416,89417,89418,89419,89420,89421,89422,89423,89424,89425,89426,89427,89428,89429,89430,89431,89432,89433,89434,89435,89436,89437,89438,89439,89440,89441,89442,89443,89444,89445,89446,89447,89448,89449,89450,89451,89452,89453,89454,89455,89456,89457,89458,89459,89460,89461,89503,89504,89505,89506,89507,89508,89509,89510,89511,89512,89513,89514,89515,89516,89517,89518,89385,89386,89387,89388,89389,89390,89391,89392,89393,89394,89395,89396,89397,89398,89399,89400,89401,89402,89403,89404,89405,89406,89407,89408,89409,89410,89411,89412,89413,89414,89415,89416,89417,89418,89419,89420,89421,89422,89423,89424,89425,89426,89427,89428,89429,89430,89431,89432,89433,89434,89435,89436,89437,89438,89439,89385,89386,89387,89388,89389,89390,89391,89392,89393,89394,89395,89396,89397,89398,89399,89400,89401,89402,89403,89404,89405,89406,89407,89408,89409,89410,89411,89412,89413,89414,89415,89416,89417,89418,89419,89420,89421,89422,89423,89385,89386,89387,89388,89389,89390,89391,89392,89393,89394,89395,89396,89397,89398,89399,89400,89401,89402,89403,89404,89405,89406,89407,89408,89409,89393,89394,89395,89396,89397,89398,89399,89400,89401,89402,85981,85981,85982,85983,85984,85985,85981,85981,85982,85983,85984,85985,
89533,89533,89534,89535,89536,89537,89538,89539,89540,89541,89542,89543,89544,89545,89546,89547,89548,89549,89550,89551,89540,89541,89542,89543,89544,89545,89546,89547,89548,89549,89550,89551,89533,89533,89534,89535,89536,89537,89538,89539,89540,89541,89542,89543,89544,89545,89546,89547,89548,89549,89550,89551,89552,89553,89554,89555,89556,89557,89558,89559,89560,89561,89562,89563,89564,89565,89566,89567,89568,89569,89570,89571,89572,89573,89533,89534,89535,89536,89537,89538,89539,89540,89541,89542,89543,89544,89545,89546,89547,89548,89549,89550,89551,89552,89553,89554,89555,89556,89557,89558,89559,89560,89561,89562,89563,89564,89565,89566,89567,89568,89569,89570,89571,89572,89573,89574,89575,89576,89577,89578,89579,89580,89581,89582,89583,89584,89585,89586,89587,89588,89589,89590,89591,89592,89593,89594,89595,89596,89597,89598,89599,89600,89601,89602,89603,89604,89605,89606,89607,89608,89609,89651,89652,89653,89654,89655,89656,89657,89658,89659,89660,89661,89662,89663,89664,89665,89666,89533,89534,89535,89536,89537,89538,89539,89540,89541,89542,89543,89544,89545,89546,89547,89548,89549,89550,89551,89552,89553,89554,89555,89556,89557,89558,89559,89560,89561,89562,89563,89564,89565,89566,89567,89568,89569,89570,89571,89572,89573,89574,89575,89576,89577,89578,89579,89580,89581,89582,89583,89584,89585,89586,89587,89533,89534,89535,89536,89537,89538,89539,89540,89541,89542,89543,89544,89545,89546,89547,89548,89549,89550,89551,89552,89553,89554,89555,89556,89557,89558,89559,89560,89561,89562,89563,89564,89565,89566,89567,89568,89569,89570,89571,89533,89534,89535,89536,89537,89538,89539,89540,89541,89542,89543,89544,89545,89546,89547,89548,89549,89550,89551,89552,89553,89554,89555,89556,89557,89541,89542,89543,89544,89545,89546,89547,89548,89549,89550,84945,84945,84946,84947,84948,84949,84945,84945,84946,84947,84948,84949,
89681,89681,89682,89683,89684,89685,89686,89687,89688,89689,89690,89691,89692,89693,89694,89695,89696,89697,89698,89699,89688,89689,89690,89691,89692,89693,89694,89695,89696,89697,89698,89699,89681,89681,89682,89683,89684,89685,89686,89687,89688,89689,89690,89691,89692,89693,89694,89695,89696,89697,89698,89699,89700,89701,89702,89703,89704,89705,89706,89707,89708,89709,89710,89711,89712,89713,89714,89715,89716,89717,89718,89719,89720,89721,89681,89682,89683,89684,89685,89686,89687,89688,89689,89690,89691,89692,89693,89694,89695,89696,89697,89698,89699,89700,89701,89702,89703,89704,89705,89706,89707,89708,89709,89710,89711,89712,89713,89714,89715,89716,89717,89718,89719,89720,89721,89722,89723,89724,89725,89726,89727,89728,89729,89730,89731,89732,89733,89734,89735,89736,89737,89738,89739,89740,89741,89742,89743,89744,89745,89746,89747,89748,89749,89750,89751,89752,89753,89754,89755,89756,89757,89799,89800,89801,89802,89803,89804,89805,89806,89807,89808,89809,89810,89811,89812,89813,89814,89681,89682,89683,89684,89685,89686,89687,89688,89689,89690,89691,89692,89693,89694,89695,89696,89697,89698,89699,89700,89701,89702,89703,89704,89705,89706,89707,89708,89709,89710,89711,89712,89713,89714,89715,89716,89717,89718,89719,89720,89721,89722,89723,89724,89725,89726,89727,89728,89729,89730,89731,89732,89733,89734,89735,89681,89682,89683,89684,89685,89686,89687,89688,89689,89690,89691,89692,89693,89694,89695,89696,89697,89698,89699,89700,89701,89702,89703,89704,89705,89706,89707,89708,89709,89710,89711,89712,89713,89714,89715,89716,89717,89718,89719,89681,89682,89683,89684,89685,89686,89687,89688,89689,89690,89691,89692,89693,89694,89695,89696,89697,89698,89699,89700,89701,89702,89703,89704,89705,89689,89690,89691,89692,89693,89694,89695,89696,89697,89698,85093,85093,85094,85095,85096,85097,85093,85093,85094,85095,85096,85097,
89829,89829,89830,89831,89832,89833,89834,89835,89836,89837,89838,89839,89840,89841,89842,89843,89844,89845,89846,89847,89836,89837,89838,89839,89840,89841,89842,89843,89844,89845,89846,89847,89829,89829,89830,89831,89832,89833,89834,89835,89836,89837,89838,89839,89840,89841,89842,89843,89844,89845,89846,89847,89848,89849,89850,89851,89852,89853,89854,89855,89856,89857,89858,89859,89860,89861,89862,89863,89864,89865,89866,89867,89868,89869,89829,89830,89831,89832,89833,89834,89835,89836,89837,89838,89839,89840,89841,89842,89843,89844,89845,89846,89847,89848,89849,89850,89851,89852,89853,89854,89855,89856,89857,89858,89859,89860,89861,89862,89863,89864,89865,89866,89867,89868,89869,89870,89871,89872,89873,89874,89875,89876,89877,89878,89879,89880,89881,89882,89883,89884,89885,89886,89887,89888,89889,89890,89891,89892,89893,89894,89895,89896,89897,89898,89899,89900,89901,89902,89903,89904,89905,89947,89948,89949,89950,89951,89952,89953,89954,89955,89956,89957,89958,89959,89960,89961,89962,89829,89830,89831,89832,89833,89834,89835,89836,89837,89838,89839,89840,89841,89842,89843,89844,89845,89846,89847,89848,89849,89850,89851,89852,89853,89854,89855,89856,89857,89858,89859,89860,89861,89862,89863,89864,89865,89866,89867,89868,89869,89870,89871,89872,89873,89874,89875,89876,89877,89878,89879,89880,89881,89882,89883,89829,89830,89831,89832,89833,89834,89835,89836,89837,89838,89839,89840,89841,89842,89843,89844,89845,89846,89847,89848,89849,89850,89851,89852,89853,89854,89855,89856,89857,89858,89859,89860,89861,89862,89863,89864,89865,89866,89867,89829,89830,89831,89832,89833,89834,89835,89836,89837,89838,89839,89840,89841,89842,89843,89844,89845,89846,89847,89848,89849,89850,89851,89852,89853,89837,89838,89839,89840,89841,89842,89843,89844,89845,89846,85241,85241,85242,85243,85244,85245,85241,85241,85242,85243,85244,85245,
89977,89977,89978,89979,89980,89981,89982,89983,89984,89985,89986,89987,89988,89989,89990,89991,89992,89993,89994,89995,89984,89985,89986,89987,89988,89989,89990,89991,89992,89993,89994,89995,89977,89977,89978,89979,89980,89981,89982,89983,89984,89985,89986,89987,89988,89989,89990,89991,89992,89993,89994,89995,89996,89997,89998,89999,90000,90001,90002,90003,90004,90005,90006,90007,90008,90009,90010,90011,90012,90013,90014,90015,90016,90017,89977,89978,89979,89980,89981,89982,89983,89984,89985,89986,89987,89988,89989,89990,89991,89992,89993,89994,89995,89996,89997,89998,89999,90000,90001,90002,90003,90004,90005,90006,90007,90008,90009,90010,90011,90012,90013,90014,90015,90016,90017,90018,90019,90020,90021,90022,90023,90024,90025,90026,90027,90028,90029,90030,90031,90032,90033,90034,90035,90036,90037,90038,90039,90040,90041,90042,90043,90044,90045,90046,90047,90048,90049,90050,90051,90052,90053,90095,90096,90097,90098,90099,90100,90101,90102,90103,90104,90105,90106,90107,90108,90109,90110,89977,89978,89979,89980,89981,89982,89983,89984,89985,89986,89987,89988,89989,89990,89991,89992,89993,89994,89995,89996,89997,89998,89999,90000,90001,90002,90003,90004,90005,90006,90007,90008,90009,90010,90011,90012,90013,90014,90015,90016,90017,90018,90019,90020,90021,90022,90023,90024,90025,90026,90027,90028,90029,90030,90031,89977,89978,89979,89980,89981,89982,89983,89984,89985,89986,89987,89988,89989,89990,89991,89992,89993,89994,89995,89996,89997,89998,89999,90000,90001,90002,90003,90004,90005,90006,90007,90008,90009,90010,90011,90012,90013,90014,90015,89977,89978,89979,89980,89981,89982,89983,89984,89985,89986,89987,89988,89989,89990,89991,89992,89993,89994,89995,89996,89997,89998,89999,90000,90001,89985,89986,89987,89988,89989,89990,89991,89992,89993,89994,85389,85389,85390,85391,85392,85393,85389,85389,85390,85391,85392,85393,
90125,90125,90126,90127,90128,90129,90130,90131,90132,90133,90134,90135,90136,90137,90138,90139,90140,90141,90142,90143,90132,90133,90134,90135,90136,90137,90138,90139,90140,90141,90142,90143,90125,90125,90126,90127,90128,90129,90130,90131,90132,90133,90134,90135,90136,90137,90138,90139,90140,90141,90142,90143,90144,90145,90146,90147,90148,90149,90150,90151,90152,90153,90154,90155,90156,90157,90158,90159,90160,90161,90162,90163,90164,90165,90125,90126,90127,90128,90129,90130,90131,90132,90133,90134,90135,90136,90137,90138,90139,90140,90141,90142,90143,90144,90145,90146,90147,90148,90149,90150,90151,90152,90153,90154,90155,90156,90157,90158,90159,90160,90161,90162,90163,90164,90165,90166,90167,90168,90169,90170,90171,90172,90173,90174,90175,90176,90177,90178,90179,90180,90181,90182,90183,90184,90185,90186,90187,90188,90189,90190,90191,90192,90193,90194,90195,90196,90197,90198,90199,90200,90201,90243,90244,90245,90246,90247,90248,90249,90250,90251,90252,90253,90254,90255,90256,90257,90258,90125,90126,90127,90128,90129,90130,90131,90132,90133,90134,90135,90136,90137,90138,90139,90140,90141,90142,90143,90144,90145,90146,90147,90148,90149,90150,90151,90152,90153,90154,90155,90156,90157,90158,90159,90160,90161,90162,90163,90164,90165,90166,90167,90168,90169,90170,90171,90172,90173,90174,90175,90176,90177,90178,90179,90125,90126,90127,90128,90129,90130,90131,90132,90133,90134,90135,90136,90137,90138,90139,90140,90141,90142,90143,90144,90145,90146,90147,90148,90149,90150,90151,90152,90153,90154,90155,90156,90157,90158,90159,90160,90161,90162,90163,90125,90126,90127,90128,90129,90130,90131,90132,90133,90134,90135,90136,90137,90138,90139,90140,90141,90142,90143,90144,90145,90146,90147,90148,90149,90133,90134,90135,90136,90137,90138,90139,90140,90141,90142,85537,85537,85538,85539,85540,85541,85537,85537,85538,85539,85540,85541,
90273,90273,90274,90275,90276,90277,90278,90279,90280,90281,90282,90283,90284,90285,90286,90287,90288,90289,90290,90291,90280,90281,90282,90283,90284,90285,90286,90287,90288,90289,90290,90291,90273,90273,90274,90275,90276,90277,90278,90279,90280,90281,90282,90283,90284,90285,90286,90287,90288,90289,90290,90291,90292,90293,90294,90295,90296,90297,90298,90299,90300,90301,90302,90303,90304,90305,90306,90307,90308,90309,90310,90311,90312,90313,90273,90274,90275,90276,90277,90278,90279,90280,90281,90282,90283,90284,90285,90286,90287,90288,90289,90290,90291,90292,90293,90294,90295,90296,90297,90298,90299,90300,90301,90302,90303,90304,90305,90306,90307,90308,90309,90310,90311,90312,90313,90314,90315,90316,90317,90318,90319,90320,90321,90322,90323,90324,90325,90326,90327,90328,90329,90330,90331,90332,90333,90334,90335,90336,90337,90338,90339,90340,90341,90342,90343,90344,90345,90346,90347,90348,90349,90391,90392,90393,90394,90395,90396,90397,90398,90399,90400,90401,90402,90403,90404,90405,90406,90273,90274,90275,90276,90277,90278,90279,90280,90281,90282,90283,90284,90285,90286,90287,90288,90289,90290,90291,90292,90293,90294,90295,90296,90297,90298,90299,90300,90301,90302,90303,90304,90305,90306,90307,90308,90309,90310,90311,90312,90313,90314,90315,90316,90317,90318,90319,90320,90321,90322,90323,90324,90325,90326,90327,90273,90274,90275,90276,90277,90278,90279,90280,90281,90282,90283,90284,90285,90286,90287,90288,90289,90290,90291,90292,90293,90294,90295,90296,90297,90298,90299,90300,90301,90302,90303,90304,90305,90306,90307,90308,90309,90310,90311,90273,90274,90275,90276,90277,90278,90279,90280,90281,90282,90283,90284,90285,90286,90287,90288,90289,90290,90291,90292,90293,90294,90295,90296,90297,90281,90282,90283,90284,90285,90286,90287,90288,90289,90290,85685,85685,85686,85687,85688,85689,85685,85685,85686,85687,85688,85689,
90421,90421,90422,90423,90424,90425,90426,90427,90428,90429,90430,90431,90432,90433,90434,90435,90436,90437,90438,90439,90428,90429,90430,90431,90432,90433,90434,90435,90436,90437,90438,90439,90421,90421,90422,90423,90424,90425,90426,90427,90428,90429,90430,90431,90432,90433,90434,90435,90436,90437,90438,90439,90440,90441,90442,90443,90444,90445,90446,90447,90448,90449,90450,90451,90452,90453,90454,90455,90456,90457,90458,90459,90460,90461,90421,90422,90423,90424,90425,90426,90427,90428,90429,90430,90431,90432,90433,90434,90435,90436,90437,90438,90439,90440,90441,90442,90443,90444,90445,90446,90447,90448,90449,90450,90451,90452,90453,90454,90455,90456,90457,90458,90459,90460,90461,90462,90463,90464,90465,90466,90467,90468,90469,90470,90471,90472,90473,90474,90475,90476,90477,90478,90479,90480,90481,90482,90483,90484,90485,90486,90487,90488,90489,90490,90491,90492,90493,90494,90495,90496,90497,90539,90540,90541,90542,90543,90544,90545,90546,90547,90548,90549,90550,90551,90552,90553,90554,90421,90422,90423,90424,90425,90426,90427,90428,90429,90430,90431,90432,90433,90434,90435,90436,90437,90438,90439,90440,90441,90442,90443,90444,90445,90446,90447,90448,90449,90450,90451,90452,90453,90454,90455,90456,90457,90458,90459,90460,90461,90462,90463,90464,90465,90466,90467,90468,90469,90470,90471,90472,90473,90474,90475,90421,90422,90423,90424,90425,90426,90427,90428,90429,90430,90431,90432,90433,90434,90435,90436,90437,90438,90439,90440,90441,90442,90443,90444,90445,90446,90447,90448,90449,90450,90451,90452,90453,90454,90455,90456,90457,90458,90459,90421,90422,90423,90424,90425,90426,90427,90428,90429,90430,90431,90432,90433,90434,90435,90436,90437,90438,90439,90440,90441,90442,90443,90444,90445,90429,90430,90431,90432,90433,90434,90435,90436,90437,90438,85833,85833,85834,85835,85836,85837,85833,85833,85834,85835,85836,85837,
90569,90569,90570,90571,90572,90573,90574,90575,90576,90577,90578,90579,90580,90581,90582,90583,90584,90585,90586,90587,90576,90577,90578,90579,90580,90581,90582,90583,90584,90585,90586,90587,90569,90569,90570,90571,90572,90573,90574,90575,90576,90577,90578,90579,90580,90581,90582,90583,90584,90585,90586,90587,90588,90589,90590,90591,90592,90593,90594,90595,90596,90597,90598,90599,90600,90601,90602,90603,90604,90605,90606,90607,90608,90609,90569,90570,90571,90572,90573,90574,90575,90576,90577,90578,90579,90580,90581,90582,90583,90584,90585,90586,90587,90588,90589,90590,90591,90592,90593,90594,90595,90596,90597,90598,90599,90600,90601,90602,90603,90604,90605,90606,90607,90608,90609,90610,90611,90612,90613,90614,90615,90616,90617,90618,90619,90620,90621,90622,90623,90624,90625,90626,90627,90628,90629,90630,90631,90632,90633,90634,90635,90636,90637,90638,90639,90640,90641,90642,90643,90644,90645,90687,90688,90689,90690,90691,90692,90693,90694,90695,90696,90697,90698,90699,90700,90701,90702,90569,90570,90571,90572,90573,90574,90575,90576,90577,90578,90579,90580,90581,90582,90583,90584,90585,90586,90587,90588,90589,90590,90591,90592,90593,90594,90595,90596,90597,90598,90599,90600,90601,90602,90603,90604,90605,90606,90607,90608,90609,90610,90611,90612,90613,90614,90615,90616,90617,90618,90619,90620,90621,90622,90623,90569,90570,90571,90572,90573,90574,90575,90576,90577,90578,90579,90580,90581,90582,90583,90584,90585,90586,90587,90588,90589,90590,90591,90592,90593,90594,90595,90596,90597,90598,90599,90600,90601,90602,90603,90604,90605,90606,90607,90569,90570,90571,90572,90573,90574,90575,90576,90577,90578,90579,90580,90581,90582,90583,90584,90585,90586,90587,90588,90589,90590,90591,90592,90593,90577,90578,90579,90580,90581,90582,90583,90584,90585,90586,85981,85981,85982,85983,85984,85985,85981,85981,85982,85983,85984,85985,
90717,90717,90718,90719,90720,90721,90722,90723,90724,90725,90726,90727,90728,90729,90730,90731,90732,90733,90734,90735,90724,90725,90726,90727,90728,90729,90730,90731,90732,90733,90734,90735,90717,90717,90718,90719,90720,90721,90722,90723,90724,90725,90726,90727,90728,90729,90730,90731,90732,90733,90734,90735,90736,90737,90738,90739,90740,90741,90742,90743,90744,90745,90746,90747,90748,90749,90750,90751,90752,90753,90754,90755,90756,90757,90717,90718,90719,90720,90721,90722,90723,90724,90725,90726,90727,90728,90729,90730,90731,90732,90733,90734,90735,90736,90737,90738,90739,90740,90741,90742,90743,90744,90745,90746,90747,90748,90749,90750,90751,90752,90753,90754,90755,90756,90757,90758,90759,90760,90761,90762,90763,90764,90765,90766,90767,90768,90769,90770,90771,90772,90773,90774,90775,90776,90777,90778,90779,90780,90781,90782,90783,90784,90785,90786,90787,90788,90789,90790,90791,90792,90793,90835,90836,90837,90838,90839,90840,90841,90842,90843,90844,90845,90846,90847,90848,90849,90850,90717,90718,90719,90720,90721,90722,90723,90724,90725,90726,90727,90728,90729,90730,90731,90732,90733,90734,90735,90736,90737,90738,90739,90740,90741,90742,90743,90744,90745,90746,90747,90748,90749,90750,90751,90752,90753,90754,90755,90756,90757,90758,90759,90760,90761,90762,90763,90764,90765,90766,90767,90768,90769,90770,90771,90717,90718,90719,90720,90721,90722,90723,90724,90725,90726,90727,90728,90729,90730,90731,90732,90733,90734,90735,90736,90737,90738,90739,90740,90741,90742,90743,90744,90745,90746,90747,90748,90749,90750,90751,90752,90753,90754,90755,90717,90718,90719,90720,90721,90722,90723,90724,90725,90726,90727,90728,90729,90730,90731,90732,90733,90734,90735,90736,90737,90738,90739,90740,90741,90725,90726,90727,90728,90729,90730,90731,90732,90733,90734,84945,84945,84946,84947,84948,84949,84945,84945,84946,84947,84948,84949,
90865,90865,90866,90867,90868,90869,90870,90871,90872,90873,90874,90875,90876,90877,90878,90879,90880,90881,90882,90883,90872,90873,90874,90875,90876,90877,90878,90879,90880,90881,90882,90883,90865,90865,90866,90867,90868,90869,90870,90871,90872,90873,90874,90875,90876,90877,90878,90879,90880,90881,90882,90883,90884,90885,90886,90887,90888,90889,90890,90891,90892,90893,90894,90895,90896,90897,90898,90899,90900,90901,90902,90903,90904,90905,90865,90866,90867,90868,90869,90870,90871,90872,90873,90874,90875,90876,90877,90878,90879,90880,90881,90882,90883,90884,90885,90886,90887,90888,90889,90890,90891,90892,90893,90894,90895,90896,90897,90898,90899,90900,90901,90902,90903,90904,90905,90906,90907,90908,90909,90910,90911,90912,90913,90914,90915,90916,90917,90918,90919,90920,90921,90922,90923,90924,90925,90926,90927,90928,90929,90930,90931,90932,90933,90934,90935,90936,90937,90938,90939,90940,90941,90983,90984,90985,90986,90987,90988,90989,90990,90991,90992,90993,90994,90995,90996,90997,90998,90865,90866,90867,90868,90869,90870,90871,90872,90873,90874,90875,90876,90877,90878,90879,90880,90881,90882,90883,90884,90885,90886,90887,90888,90889,90890,90891,90892,90893,90894,90895,90896,90897,90898,90899,90900,90901,90902,90903,90904,90905,90906,90907,90908,90909,90910,90911,90912,90913,90914,90915,90916,90917,90918,90919,90865,90866,90867,90868,90869,90870,90871,90872,90873,90874,90875,90876,90877,90878,90879,90880,90881,90882,90883,90884,90885,90886,90887,90888,90889,90890,90891,90892,90893,90894,90895,90896,90897,90898,90899,90900,90901,90902,90903,90865,90866,90867,90868,90869,90870,90871,90872,90873,90874,90875,90876,90877,90878,90879,90880,90881,90882,90883,90884,90885,90886,90887,90888,90889,90873,90874,90875,90876,90877,90878,90879,90880,90881,90882,85093,85093,85094,85095,85096,85097,85093,85093,85094,85095,85096,85097,
91013,91013,91014,91015,91016,91017,91018,91019,91020,91021,91022,91023,91024,91025,91026,91027,91028,91029,91030,91031,91020,91021,91022,91023,91024,91025,91026,91027,91028,91029,91030,91031,91013,91013,91014,91015,91016,91017,91018,91019,91020,91021,91022,91023,91024,91025,91026,91027,91028,91029,91030,91031,91032,91033,91034,91035,91036,91037,91038,91039,91040,91041,91042,91043,91044,91045,91046,91047,91048,91049,91050,91051,91052,91053,91013,91014,91015,91016,91017,91018,91019,91020,91021,91022,91023,91024,91025,91026,91027,91028,91029,91030,91031,91032,91033,91034,91035,91036,91037,91038,91039,91040,91041,91042,91043,91044,91045,91046,91047,91048,91049,91050,91051,91052,91053,91054,91055,91056,91057,91058,91059,91060,91061,91062,91063,91064,91065,91066,91067,91068,91069,91070,91071,91072,91073,91074,91075,91076,91077,91078,91079,91080,91081,91082,91083,91084,91085,91086,91087,91088,91089,91131,91132,91133,91134,91135,91136,91137,91138,91139,91140,91141,91142,91143,91144,91145,91146,91013,91014,91015,91016,91017,91018,91019,91020,91021,91022,91023,91024,91025,91026,91027,91028,91029,91030,91031,91032,91033,91034,91035,91036,91037,91038,91039,91040,91041,91042,91043,91044,91045,91046,91047,91048,91049,91050,91051,91052,91053,91054,91055,91056,91057,91058,91059,91060,91061,91062,91063,91064,91065,91066,91067,91013,91014,91015,91016,91017,91018,91019,91020,91021,91022,91023,91024,91025,91026,91027,91028,91029,91030,91031,91032,91033,91034,91035,91036,91037,91038,91039,91040,91041,91042,91043,91044,91045,91046,91047,91048,91049,91050,91051,91013,91014,91015,91016,91017,91018,91019,91020,91021,91022,91023,91024,91025,91026,91027,91028,91029,91030,91031,91032,91033,91034,91035,91036,91037,91021,91022,91023,91024,91025,91026,91027,91028,91029,91030,85241,85241,85242,85243,85244,85245,85241,85241,85242,85243,85244,85245,
91161,91161,91162,91163,91164,91165,91166,91167,91168,91169,91170,91171,91172,91173,91174,91175,91176,91177,91178,91179,91168,91169,91170,91171,91172,91173,91174,91175,91176,91177,91178,91179,91161,91161,91162,91163,91164,91165,91166,91167,91168,91169,91170,91171,91172,91173,91174,91175,91176,91177,91178,91179,91180,91181,91182,91183,91184,91185,91186,91187,91188,91189,91190,91191,91192,91193,91194,91195,91196,91197,91198,91199,91200,91201,91161,91162,91163,91164,91165,91166,91167,91168,91169,91170,91171,91172,91173,91174,91175,91176,91177,91178,91179,91180,91181,91182,91183,91184,91185,91186,91187,91188,91189,91190,91191,91192,91193,91194,91195,91196,91197,91198,91199,91200,91201,91202,91203,91204,91205,91206,91207,91208,91209,91210,91211,91212,91213,91214,91215,91216,91217,91218,91219,91220,91221,91222,91223,91224,91225,91226,91227,91228,91229,91230,91231,91232,91233,91234,91235,91236,91237,91279,91280,91281,91282,91283,91284,91285,91286,91287,91288,91289,91290,91291,91292,91293,91294,91161,91162,91163,91164,91165,91166,91167,91168,91169,91170,91171,91172,91173,91174,91175,91176,91177,91178,91179,91180,91181,91182,91183,91184,91185,91186,91187,91188,91189,91190,91191,91192,91193,91194,91195,91196,91197,91198,91199,91200,91201,91202,91203,91204,91205,91206,91207,91208,91209,91210,91211,91212,91213,91214,91215,91161,91162,91163,91164,91165,91166,91167,91168,91169,91170,91171,91172,91173,91174,91175,91176,91177,91178,91179,91180,91181,91182,91183,91184,91185,91186,91187,91188,91189,91190,91191,91192,91193,91194,91195,91196,91197,91198,91199,91161,91162,91163,91164,91165,91166,91167,91168,91169,91170,91171,91172,91173,91174,91175,91176,91177,91178,91179,91180,91181,91182,91183,91184,91185,91169,91170,91171,91172,91173,91174,91175,91176,91177,91178,85389,85389,85390,85391,85392,85393,85389,85389,85390,85391,85392,85393,
91309,91309,91310,91311,91312,91313,91314,91315,91316,91317,91318,91319,91320,91321,91322,91323,91324,91325,91326,91327,91316,91317,91318,91319,91320,91321,91322,91323,91324,91325,91326,91327,91309,91309,91310,91311,91312,91313,91314,91315,91316,91317,91318,91319,91320,91321,91322,91323,91324,91325,91326,91327,91328,91329,91330,91331,91332,91333,91334,91335,91336,91337,91338,91339,91340,91341,91342,91343,91344,91345,91346,91347,91348,91349,91309,91310,91311,91312,91313,91314,91315,91316,91317,91318,91319,91320,91321,91322,91323,91324,91325,91326,91327,91328,91329,91330,91331,91332,91333,91334,91335,91336,91337,91338,91339,91340,91341,91342,91343,91344,91345,91346,91347,91348,91349,91350,91351,91352,91353,91354,91355,91356,91357,91358,91359,91360,91361,91362,91363,91364,91365,91366,91367,91368,91369,91370,91371,91372,91373,91374,91375,91376,91377,91378,91379,91380,91381,91382,91383,91384,91385,91427,91428,91429,91430,91431,91432,91433,91434,91435,91436,91437,91438,91439,91440,91441,91442,91309,91310,91311,91312,91313,91314,91315,91316,91317,91318,91319,91320,91321,91322,91323,91324,91325,91326,91327,91328,91329,91330,91331,91332,91333,91334,91335,91336,91337,91338,91339,91340,91341,91342,91343,91344,91345,91346,91347,91348,91349,91350,91351,91352,91353,91354,91355,91356,91357,91358,91359,91360,91361,91362,91363,91309,91310,91311,91312,91313,91314,91315,91316,91317,91318,91319,91320,91321,91322,91323,91324,91325,91326,91327,91328,91329,91330,91331,91332,91333,91334,91335,91336,91337,91338,91339,91340,91341,91342,91343,91344,91345,91346,91347,91309,91310,91311,91312,91313,91314,91315,91316,91317,91318,91319,91320,91321,91322,91323,91324,91325,91326,91327,91328,91329,91330,91331,91332,91333,91317,91318,91319,91320,91321,91322,91323,91324,91325,91326,85537,85537,85538,85539,85540,85541,85537,85537,85538,85539,85540,85541,
91457,91457,91458,91459,91460,91461,91462,91463,91464,91465,91466,91467,91468,91469,91470,91471,91472,91473,91474,91475,91464,91465,91466,91467,91468,91469,91470,91471,91472,91473,91474,91475,91457,91457,91458,91459,91460,91461,91462,91463,91464,91465,91466,91467,91468,91469,91470,91471,91472,91473,91474,91475,91476,91477,91478,91479,91480,91481,91482,91483,91484,91485,91486,91487,91488,91489,91490,91491,91492,91493,91494,91495,91496,91497,91457,91458,91459,91460,91461,91462,91463,91464,91465,91466,91467,91468,91469,91470,91471,91472,91473,91474,91475,91476,91477,91478,91479,91480,91481,91482,91483,91484,91485,91486,91487,91488,91489,91490,91491,91492,91493,91494,91495,91496,91497,91498,91499,91500,91501,91502,91503,91504,91505,91506,91507,91508,91509,91510,91511,91512,91513,91514,91515,91516,91517,91518,91519,91520,91521,91522,91523,91524,91525,91526,91527,91528,91529,91530,91531,91532,91533,91575,91576,91577,91578,91579,91580,91581,91582,91583,91584,91585,91586,91587,91588,91589,91590,91457,91458,91459,91460,91461,91462,91463,91464,91465,91466,91467,91468,91469,91470,91471,91472,91473,91474,91475,91476,91477,91478,91479,91480,91481,91482,91483,91484,91485,91486,91487,91488,91489,91490,91491,91492,91493,91494,91495,91496,91497,91498,91499,91500,91501,91502,91503,91504,91505,91506,91507,91508,91509,91510,91511,91457,91458,91459,91460,91461,91462,91463,91464,91465,91466,91467,91468,91469,91470,91471,91472,91473,91474,91475,91476,91477,91478,91479,91480,91481,91482,91483,91484,91485,91486,91487,91488,91489,91490,91491,91492,91493,91494,91495,91457,91458,91459,91460,91461,91462,91463,91464,91465,91466,91467,91468,91469,91470,91471,91472,91473,91474,91475,91476,91477,91478,91479,91480,91481,91465,91466,91467,91468,91469,91470,91471,91472,91473,91474,85685,85685,85686,85687,85688,85689,85685,85685,85686,85687,85688,85689,
91605,91605,91606,91607,91608,91609,91610,91611,91612,91613,91614,91615,91616,91617,91618,91619,91620,91621,91622,91623,91612,91613,91614,91615,91616,91617,91618,91619,91620,91621,91622,91623,91605,91605,91606,91607,91608,91609,91610,91611,91612,91613,91614,91615,91616,91617,91618,91619,91620,91621,91622,91623,91624,91625,91626,91627,91628,91629,91630,91631,91632,91633,91634,91635,91636,91637,91638,91639,91640,91641,91642,91643,91644,91645,91605,91606,91607,91608,91609,91610,91611,91612,91613,91614,91615,91616,91617,91618,91619,91620,91621,91622,91623,91624,91625,91626,91627,91628,91629,91630,91631,91632,91633,91634,91635,91636,91637,91638,91639,91640,91641,91642,91643,91644,91645,91646,91647,91648,91649,91650,91651,91652,91653,91654,91655,91656,91657,91658,91659,91660,91661,91662,91663,91664,91665,91666,91667,91668,91669,91670,91671,91672,91673,91674,91675,91676,91677,91678,91679,91680,91681,91723,91724,91725,91726,91727,91728,91729,91730,91731,91732,91733,91734,91735,91736,91737,91738,91605,91606,91607,91608,91609,91610,91611,91612,91613,91614,91615,91616,91617,91618,91619,91620,91621,91622,91623,91624,91625,91626,91627,91628,91629,91630,91631,91632,91633,91634,91635,91636,91637,91638,91639,91640,91641,91642,91643,91644,91645,91646,91647,91648,91649,91650,91651,91652,91653,91654,91655,91656,91657,91658,91659,91605,91606,91607,91608,91609,91610,91611,91612,91613,91614,91615,91616,91617,91618,91619,91620,91621,91622,91623,91624,91625,91626,91627,91628,91629,91630,91631,91632,91633,91634,91635,91636,91637,91638,91639,91640,91641,91642,91643,91605,91606,91607,91608,91609,91610,91611,91612,91613,91614,91615,91616,91617,91618,91619,91620,91621,91622,91623,91624,91625,91626,91627,91628,91629,91613,91614,91615,91616,91617,91618,91619,91620,91621,91622,85833,85833,85834,85835,85836,85837,85833,85833,85834,85835,85836,85837,
91753,91753,91754,91755,91756,91757,91758,91759,91760,91761,91762,91763,91764,91765,91766,91767,91768,91769,91770,91771,91760,91761,91762,91763,91764,91765,91766,91767,91768,91769,91770,91771,91753,91753,91754,91755,91756,91757,91758,91759,91760,91761,91762,91763,91764,91765,91766,91767,91768,91769,91770,91771,91772,91773,91774,91775,91776,91777,91778,91779,91780,91781,91782,91783,91784,91785,91786,91787,91788,91789,91790,91791,91792,91793,91753,91754,91755,91756,91757,91758,91759,91760,91761,91762,91763,91764,91765,91766,91767,91768,91769,91770,91771,91772,91773,91774,91775,91776,91777,91778,91779,91780,91781,91782,91783,91784,91785,91786,91787,91788,91789,91790,91791,91792,91793,91794,91795,91796,91797,91798,91799,91800,91801,91802,91803,91804,91805,91806,91807,91808,91809,91810,91811,91812,91813,91814,91815,91816,91817,91818,91819,91820,91821,91822,91823,91824,91825,91826,91827,91828,91829,91871,91872,91873,91874,91875,91876,91877,91878,91879,91880,91881,91882,91883,91884,91885,91886,91753,91754,91755,91756,91757,91758,91759,91760,91761,91762,91763,91764,91765,91766,91767,91768,91769,91770,91771,91772,91773,91774,91775,91776,91777,91778,91779,91780,91781,91782,91783,91784,91785,91786,91787,91788,91789,91790,91791,91792,91793,91794,91795,91796,91797,91798,91799,91800,91801,91802,91803,91804,91805,91806,91807,91753,91754,91755,91756,91757,91758,91759,91760,91761,91762,91763,91764,91765,91766,91767,91768,91769,91770,91771,91772,91773,91774,91775,91776,91777,91778,91779,91780,91781,91782,91783,91784,91785,91786,91787,91788,91789,91790,91791,91753,91754,91755,91756,91757,91758,91759,91760,91761,91762,91763,91764,91765,91766,91767,91768,91769,91770,91771,91772,91773,91774,91775,91776,91777,91761,91762,91763,91764,91765,91766,91767,91768,91769,91770,85981,85981,85982,85983,85984,85985,85981,85981,85982,85983,85984,85985,
91901,91901,91902,91903,91904,91905,91906,91907,91908,91909,91910,91911,91912,91913,91914,91915,91916,91917,91918,91919,91908,91909,91910,91911,91912,91913,91914,91915,91916,91917,91918,91919,91901,91901,91902,91903,91904,91905,91906,91907,91908,91909,91910,91911,91912,91913,91914,91915,91916,91917,91918,91919,91920,91921,91922,91923,91924,91925,91926,91927,91928,91929,91930,91931,91932,91933,91934,91935,91936,91937,91938,91939,91940,91941,91901,91902,91903,91904,91905,91906,91907,91908,91909,91910,91911,91912,91913,91914,91915,91916,91917,91918,91919,91920,91921,91922,91923,91924,91925,91926,91927,91928,91929,91930,91931,91932,91933,91934,91935,91936,91937,91938,91939,91940,91941,91942,91943,91944,91945,91946,91947,91948,91949,91950,91951,91952,91953,91954,91955,91956,91957,91958,91959,91960,91961,91962,91963,91964,91965,91966,91967,91968,91969,91970,91971,91972,91973,91974,91975,91976,91977,92019,92020,92021,92022,92023,92024,92025,92026,92027,92028,92029,92030,92031,92032,92033,92034,91901,91902,91903,91904,91905,91906,91907,91908,91909,91910,91911,91912,91913,91914,91915,91916,91917,91918,91919,91920,91921,91922,91923,91924,91925,91926,91927,91928,91929,91930,91931,91932,91933,91934,91935,91936,91937,91938,91939,91940,91941,91942,91943,91944,91945,91946,91947,91948,91949,91950,91951,91952,91953,91954,91955,91901,91902,91903,91904,91905,91906,91907,91908,91909,91910,91911,91912,91913,91914,91915,91916,91917,91918,91919,91920,91921,91922,91923,91924,91925,91926,91927,91928,91929,91930,91931,91932,91933,91934,91935,91936,91937,91938,91939,91901,91902,91903,91904,91905,91906,91907,91908,91909,91910,91911,91912,91913,91914,91915,91916,91917,91918,91919,91920,91921,91922,91923,91924,91925,91909,91910,91911,91912,91913,91914,91915,91916,91917,91918,84945,84945,84946,84947,84948,84949,84945,84945,84946,84947,84948,84949,
92049,92049,92050,92051,92052,92053,92054,92055,92056,92057,92058,92059,92060,92061,92062,92063,92064,92065,92066,92067,92056,92057,92058,92059,92060,92061,92062,92063,92064,92065,92066,92067,92049,92049,92050,92051,92052,92053,92054,92055,92056,92057,92058,92059,92060,92061,92062,92063,92064,92065,92066,92067,92068,92069,92070,92071,92072,92073,92074,92075,92076,92077,92078,92079,92080,92081,92082,92083,92084,92085,92086,92087,92088,92089,92049,92050,92051,92052,92053,92054,92055,92056,92057,92058,92059,92060,92061,92062,92063,92064,92065,92066,92067,92068,92069,92070,92071,92072,92073,92074,92075,92076,92077,92078,92079,92080,92081,92082,92083,92084,92085,92086,92087,92088,92089,92090,92091,92092,92093,92094,92095,92096,92097,92098,92099,92100,92101,92102,92103,92104,92105,92106,92107,92108,92109,92110,92111,92112,92113,92114,92115,92116,92117,92118,92119,92120,92121,92122,92123,92124,92125,92167,92168,92169,92170,92171,92172,92173,92174,92175,92176,92177,92178,92179,92180,92181,92182,92049,92050,92051,92052,92053,92054,92055,92056,92057,92058,92059,92060,92061,92062,92063,92064,92065,92066,92067,92068,92069,92070,92071,92072,92073,92074,92075,92076,92077,92078,92079,92080,92081,92082,92083,92084,92085,92086,92087,92088,92089,92090,92091,92092,92093,92094,92095,92096,92097,92098,92099,92100,92101,92102,92103,92049,92050,92051,92052,92053,92054,92055,92056,92057,92058,92059,92060,92061,92062,92063,92064,92065,92066,92067,92068,92069,92070,92071,92072,92073,92074,92075,92076,92077,92078,92079,92080,92081,92082,92083,92084,92085,92086,92087,92049,92050,92051,92052,92053,92054,92055,92056,92057,92058,92059,92060,92061,92062,92063,92064,92065,92066,92067,92068,92069,92070,92071,92072,92073,92057,92058,92059,92060,92061,92062,92063,92064,92065,92066,85093,85093,85094,85095,85096,85097,85093,85093,85094,85095,85096,85097,
92197,92197,92198,92199,92200,92201,92202,92203,92204,92205,92206,92207,92208,92209,92210,92211,92212,92213,92214,92215,92204,92205,92206,92207,92208,92209,92210,92211,92212,92213,92214,92215,92197,92197,92198,92199,92200,92201,92202,92203,92204,92205,92206,92207,92208,92209,92210,92211,92212,92213,92214,92215,92216,92217,92218,92219,92220,92221,92222,92223,92224,92225,92226,92227,92228,92229,92230,92231,92232,92233,92234,92235,92236,92237,92197,92198,92199,92200,92201,92202,92203,92204,92205,92206,92207,92208,92209,92210,92211,92212,92213,92214,92215,92216,92217,92218,92219,92220,92221,92222,92223,92224,92225,92226,92227,92228,92229,92230,92231,92232,92233,92234,92235,92236,92237,92238,92239,92240,92241,92242,92243,92244,92245,92246,92247,92248,92249,92250,92251,92252,92253,92254,92255,92256,92257,92258,92259,92260,92261,92262,92263,92264,92265,92266,92267,92268,92269,92270,92271,92272,92273,92315,92316,92317,92318,92319,92320,92321,92322,92323,92324,92325,92326,92327,92328,92329,92330,92197,92198,92199,92200,92201,92202,92203,92204,92205,92206,92207,92208,92209,92210,92211,92212,92213,92214,92215,92216,92217,92218,92219,92220,92221,92222,92223,92224,92225,92226,92227,92228,92229,92230,92231,92232,92233,92234,92235,92236,92237,92238,92239,92240,92241,92242,92243,92244,92245,92246,92247,92248,92249,92250,92251,92197,92198,92199,92200,92201,92202,92203,92204,92205,92206,92207,92208,92209,92210,92211,92212,92213,92214,92215,92216,92217,92218,92219,92220,92221,92222,92223,92224,92225,92226,92227,92228,92229,92230,92231,92232,92233,92234,92235,92197,92198,92199,92200,92201,92202,92203,92204,92205,92206,92207,92208,92209,92210,92211,92212,92213,92214,92215,92216,92217,92218,92219,92220,92221,92205,92206,92207,92208,92209,92210,92211,92212,92213,92214,85241,85241,85242,85243,85244,85245,85241,85241,85242,85243,85244,85245,
92345,92345,92346,92347,92348,92349,92350,92351,92352,92353,92354,92355,92356,92357,92358,92359,92360,92361,92362,92363,92352,92353,92354,92355,92356,92357,92358,92359,92360,92361,92362,92363,92345,92345,92346,92347,92348,92349,92350,92351,92352,92353,92354,92355,92356,92357,92358,92359,92360,92361,92362,92363,92364,92365,92366,92367,92368,92369,92370,92371,92372,92373,92374,92375,92376,92377,92378,92379,92380,92381,92382,92383,92384,92385,92345,92346,92347,92348,92349,92350,92351,92352,92353,92354,92355,92356,92357,92358,92359,92360,92361,92362,92363,92364,92365,92366,92367,92368,92369,92370,92371,92372,92373,92374,92375,92376,92377,92378,92379,92380,92381,92382,92383,92384,92385,92386,92387,92388,92389,92390,92391,92392,92393,92394,92395,92396,92397,92398,92399,92400,92401,92402,92403,92404,92405,92406,92407,92408,92409,92410,92411,92412,92413,92414,92415,92416,92417,92418,92419,92420,92421,92463,92464,92465,92466,92467,92468,92469,92470,92471,92472,92473,92474,92475,92476,92477,92478,92345,92346,92347,92348,92349,92350,92351,92352,92353,92354,92355,92356,92357,92358,92359,92360,92361,92362,92363,92364,92365,92366,92367,92368,92369,92370,92371,92372,92373,92374,92375,92376,92377,92378,92379,92380,92381,92382,92383,92384,92385,92386,92387,92388,92389,92390,92391,92392,92393,92394,92395,92396,92397,92398,92399,92345,92346,92347,92348,92349,92350,92351,92352,92353,92354,92355,92356,92357,92358,92359,92360,92361,92362,92363,92364,92365,92366,92367,92368,92369,92370,92371,92372,92373,92374,92375,92376,92377,92378,92379,92380,92381,92382,92383,92345,92346,92347,92348,92349,92350,92351,92352,92353,92354,92355,92356,92357,92358,92359,92360,92361,92362,92363,92364,92365,92366,92367,92368,92369,92353,92354,92355,92356,92357,92358,92359,92360,92361,92362,85389,85389,85390,85391,85392,85393,85389,85389,85390,85391,85392,85393,
92493,92493,92494,92495,92496,92497,92498,92499,92500,92501,92502,92503,92504,92505,92506,92507,92508,92509,92510,92511,92500,92501,92502,92503,92504,92505,92506,92507,92508,92509,92510,92511,92493,92493,92494,92495,92496,92497,92498,92499,92500,92501,92502,92503,92504,92505,92506,92507,92508,92509,92510,92511,92512,92513,92514,92515,92516,92517,92518,92519,92520,92521,92522,92523,92524,92525,92526,92527,92528,92529,92530,92531,92532,92533,92493,92494,92495,92496,92497,92498,92499,92500,92501,92502,92503,92504,92505,92506,92507,92508,92509,92510,92511,92512,92513,92514,92515,92516,92517,92518,92519,92520,92521,92522,92523,92524,92525,92526,92527,92528,92529,92530,92531,92532,92533,92534,92535,92536,92537,92538,92539,92540,92541,92542,92543,92544,92545,92546,92547,92548,92549,92550,92551,92552,92553,92554,92555,92556,92557,92558,92559,92560,92561,92562,92563,92564,92565,92566,92567,92568,92569,92611,92612,92613,92614,92615,92616,92617,92618,92619,92620,92621,92622,92623,92624,92625,92626,92493,92494,92495,92496,92497,92498,92499,92500,92501,92502,92503,92504,92505,92506,92507,92508,92509,92510,92511,92512,92513,92514,92515,92516,92517,92518,92519,92520,92521,92522,92523,92524,92525,92526,92527,92528,92529,92530,92531,92532,92533,92534,92535,92536,92537,92538,92539,92540,92541,92542,92543,92544,92545,92546,92547,92493,92494,92495,92496,92497,92498,92499,92500,92501,92502,92503,92504,92505,92506,92507,92508,92509,92510,92511,92512,92513,92514,92515,92516,92517,92518,92519,92520,92521,92522,92523,92524,92525,92526,92527,92528,92529,92530,92531,92493,92494,92495,92496,92497,92498,92499,92500,92501,92502,92503,92504,92505,92506,92507,92508,92509,92510,92511,92512,92513,92514,92515,92516,92517,92501,92502,92503,92504,92505,92506,92507,92508,92509,92510,85537,85537,85538,85539,85540,85541,85537,85537,85538,85539,85540,85541,
92641,92641,92642,92643,92644,92645,92646,92647,92648,92649,92650,92651,92652,92653,92654,92655,92656,92657,92658,92659,92648,92649,92650,92651,92652,92653,92654,92655,92656,92657,92658,92659,92641,92641,92642,92643,92644,92645,92646,92647,92648,92649,92650,92651,92652,92653,92654,92655,92656,92657,92658,92659,92660,92661,92662,92663,92664,92665,92666,92667,92668,92669,92670,92671,92672,92673,92674,92675,92676,92677,92678,92679,92680,92681,92641,92642,92643,92644,92645,92646,92647,92648,92649,92650,92651,92652,92653,92654,92655,92656,92657,92658,92659,92660,92661,92662,92663,92664,92665,92666,92667,92668,92669,92670,92671,92672,92673,92674,92675,92676,92677,92678,92679,92680,92681,92682,92683,92684,92685,92686,92687,92688,92689,92690,92691,92692,92693,92694,92695,92696,92697,92698,92699,92700,92701,92702,92703,92704,92705,92706,92707,92708,92709,92710,92711,92712,92713,92714,92715,92716,92717,92759,92760,92761,92762,92763,92764,92765,92766,92767,92768,92769,92770,92771,92772,92773,92774,92641,92642,92643,92644,92645,92646,92647,92648,92649,92650,92651,92652,92653,92654,92655,92656,92657,92658,92659,92660,92661,92662,92663,92664,92665,92666,92667,92668,92669,92670,92671,92672,92673,92674,92675,92676,92677,92678,92679,92680,92681,92682,92683,92684,92685,92686,92687,92688,92689,92690,92691,92692,92693,92694,92695,92641,92642,92643,92644,92645,92646,92647,92648,92649,92650,92651,92652,92653,92654,92655,92656,92657,92658,92659,92660,92661,92662,92663,92664,92665,92666,92667,92668,92669,92670,92671,92672,92673,92674,92675,92676,92677,92678,92679,92641,92642,92643,92644,92645,92646,92647,92648,92649,92650,92651,92652,92653,92654,92655,92656,92657,92658,92659,92660,92661,92662,92663,92664,92665,92649,92650,92651,92652,92653,92654,92655,92656,92657,92658,85685,85685,85686,85687,85688,85689,85685,85685,85686,85687,85688,85689,
92789,92789,92790,92791,92792,92793,92794,92795,92796,92797,92798,92799,92800,92801,92802,92803,92804,92805,92806,92807,92796,92797,92798,92799,92800,92801,92802,92803,92804,92805,92806,92807,92789,92789,92790,92791,92792,92793,92794,92795,92796,92797,92798,92799,92800,92801,92802,92803,92804,92805,92806,92807,92808,92809,92810,92811,92812,92813,92814,92815,92816,92817,92818,92819,92820,92821,92822,92823,92824,92825,92826,92827,92828,92829,92789,92790,92791,92792,92793,92794,92795,92796,92797,92798,92799,92800,92801,92802,92803,92804,92805,92806,92807,92808,92809,92810,92811,92812,92813,92814,92815,92816,92817,92818,92819,92820,92821,92822,92823,92824,92825,92826,92827,92828,92829,92830,92831,92832,92833,92834,92835,92836,92837,92838,92839,92840,92841,92842,92843,92844,92845,92846,92847,92848,92849,92850,92851,92852,92853,92854,92855,92856,92857,92858,92859,92860,92861,92862,92863,92864,92865,92907,92908,92909,92910,92911,92912,92913,92914,92915,92916,92917,92918,92919,92920,92921,92922,92789,92790,92791,92792,92793,92794,92795,92796,92797,92798,92799,92800,92801,92802,92803,92804,92805,92806,92807,92808,92809,92810,92811,92812,92813,92814,92815,92816,92817,92818,92819,92820,92821,92822,92823,92824,92825,92826,92827,92828,92829,92830,92831,92832,92833,92834,92835,92836,92837,92838,92839,92840,92841,92842,92843,92789,92790,92791,92792,92793,92794,92795,92796,92797,92798,92799,92800,92801,92802,92803,92804,92805,92806,92807,92808,92809,92810,92811,92812,92813,92814,92815,92816,92817,92818,92819,92820,92821,92822,92823,92824,92825,92826,92827,92789,92790,92791,92792,92793,92794,92795,92796,92797,92798,92799,92800,92801,92802,92803,92804,92805,92806,92807,92808,92809,92810,92811,92812,92813,92797,92798,92799,92800,92801,92802,92803,92804,92805,92806,85833,85833,85834,85835,85836,85837,85833,85833,85834,85835,85836,85837,
92937,92937,92938,92939,92940,92941,92942,92943,92944,92945,92946,92947,92948,92949,92950,92951,92952,92953,92954,92955,92944,92945,92946,92947,92948,92949,92950,92951,92952,92953,92954,92955,92937,92937,92938,92939,92940,92941,92942,92943,92944,92945,92946,92947,92948,92949,92950,92951,92952,92953,92954,92955,92956,92957,92958,92959,92960,92961,92962,92963,92964,92965,92966,92967,92968,92969,92970,92971,92972,92973,92974,92975,92976,92977,92937,92938,92939,92940,92941,92942,92943,92944,92945,92946,92947,92948,92949,92950,92951,92952,92953,92954,92955,92956,92957,92958,92959,92960,92961,92962,92963,92964,92965,92966,92967,92968,92969,92970,92971,92972,92973,92974,92975,92976,92977,92978,92979,92980,92981,92982,92983,92984,92985,92986,92987,92988,92989,92990,92991,92992,92993,92994,92995,92996,92997,92998,92999,93000,93001,93002,93003,93004,93005,93006,93007,93008,93009,93010,93011,93012,93013,93055,93056,93057,93058,93059,93060,93061,93062,93063,93064,93065,93066,93067,93068,93069,93070,92937,92938,92939,92940,92941,92942,92943,92944,92945,92946,92947,92948,92949,92950,92951,92952,92953,92954,92955,92956,92957,92958,92959,92960,92961,92962,92963,92964,92965,92966,92967,92968,92969,92970,92971,92972,92973,92974,92975,92976,92977,92978,92979,92980,92981,92982,92983,92984,92985,92986,92987,92988,92989,92990,92991,92937,92938,92939,92940,92941,92942,92943,92944,92945,92946,92947,92948,92949,92950,92951,92952,92953,92954,92955,92956,92957,92958,92959,92960,92961,92962,92963,92964,92965,92966,92967,92968,92969,92970,92971,92972,92973,92974,92975,92937,92938,92939,92940,92941,92942,92943,92944,92945,92946,92947,92948,92949,92950,92951,92952,92953,92954,92955,92956,92957,92958,92959,92960,92961,92945,92946,92947,92948,92949,92950,92951,92952,92953,92954,85981,85981,85982,85983,85984,85985,85981,85981,85982,85983,85984,85985,
93085,93085,93086,93087,93088,93089,93090,93091,93092,93093,93094,93095,93096,93097,93098,93099,93100,93101,93102,93103,93092,93093,93094,93095,93096,93097,93098,93099,93100,93101,93102,93103,93085,93085,93086,93087,93088,93089,93090,93091,93092,93093,93094,93095,93096,93097,93098,93099,93100,93101,93102,93103,93104,93105,93106,93107,93108,93109,93110,93111,93112,93113,93114,93115,93116,93117,93118,93119,93120,93121,93122,93123,93124,93125,93085,93086,93087,93088,93089,93090,93091,93092,93093,93094,93095,93096,93097,93098,93099,93100,93101,93102,93103,93104,93105,93106,93107,93108,93109,93110,93111,93112,93113,93114,93115,93116,93117,93118,93119,93120,93121,93122,93123,93124,93125,93126,93127,93128,93129,93130,93131,93132,93133,93134,93135,93136,93137,93138,93139,93140,93141,93142,93143,93144,93145,93146,93147,93148,93149,93150,93151,93152,93153,93154,93155,93156,93157,93158,93159,93160,93161,93203,93204,93205,93206,93207,93208,93209,93210,93211,93212,93213,93214,93215,93216,93217,93218,93085,93086,93087,93088,93089,93090,93091,93092,93093,93094,93095,93096,93097,93098,93099,93100,93101,93102,93103,93104,93105,93106,93107,93108,93109,93110,93111,93112,93113,93114,93115,93116,93117,93118,93119,93120,93121,93122,93123,93124,93125,93126,93127,93128,93129,93130,93131,93132,93133,93134,93135,93136,93137,93138,93139,93085,93086,93087,93088,93089,93090,93091,93092,93093,93094,93095,93096,93097,93098,93099,93100,93101,93102,93103,93104,93105,93106,93107,93108,93109,93110,93111,93112,93113,93114,93115,93116,93117,93118,93119,93120,93121,93122,93123,93085,93086,93087,93088,93089,93090,93091,93092,93093,93094,93095,93096,93097,93098,93099,93100,93101,93102,93103,93104,93105,93106,93107,93108,93109,93093,93094,93095,93096,93097,93098,93099,93100,93101,93102,84945,84945,84946,84947,84948,84949,84945,84945,84946,84947,84948,84949,
93233,93233,93234,93235,93236,93237,93238,93239,93240,93241,93242,93243,93244,93245,93246,93247,93248,93249,93250,93251,93240,93241,93242,93243,93244,93245,93246,93247,93248,93249,93250,93251,93233,93233,93234,93235,93236,93237,93238,93239,93240,93241,93242,93243,93244,93245,93246,93247,93248,93249,93250,93251,93252,93253,93254,93255,93256,93257,93258,93259,93260,93261,93262,93263,93264,93265,93266,93267,93268,93269,93270,93271,93272,93273,93233,93234,93235,93236,93237,93238,93239,93240,93241,93242,93243,93244,93245,93246,93247,93248,93249,93250,93251,93252,93253,93254,93255,93256,93257,93258,93259,93260,93261,93262,93263,93264,93265,93266,93267,93268,93269,93270,93271,93272,93273,93274,93275,93276,93277,93278,93279,93280,93281,93282,93283,93284,93285,93286,93287,93288,93289,93290,93291,93292,93293,93294,93295,93296,93297,93298,93299,93300,93301,93302,93303,93304,93305,93306,93307,93308,93309,93351,93352,93353,93354,93355,93356,93357,93358,93359,93360,93361,93362,93363,93364,93365,93366,93233,93234,93235,93236,93237,93238,93239,93240,93241,93242,93243,93244,93245,93246,93247,93248,93249,93250,93251,93252,93253,93254,93255,93256,93257,93258,93259,93260,93261,93262,93263,93264,93265,93266,93267,93268,93269,93270,93271,93272,93273,93274,93275,93276,93277,93278,93279,93280,93281,93282,93283,93284,93285,93286,93287,93233,93234,93235,93236,93237,93238,93239,93240,93241,93242,93243,93244,93245,93246,93247,93248,93249,93250,93251,93252,93253,93254,93255,93256,93257,93258,93259,93260,93261,93262,93263,93264,93265,93266,93267,93268,93269,93270,93271,93233,93234,93235,93236,93237,93238,93239,93240,93241,93242,93243,93244,93245,93246,93247,93248,93249,93250,93251,93252,93253,93254,93255,93256,93257,93241,93242,93243,93244,93245,93246,93247,93248,93249,93250,85093,85093,85094,85095,85096,85097,85093,85093,85094,85095,85096,85097,
93381,93381,93382,93383,93384,93385,93386,93387,93388,93389,93390,93391,93392,93393,93394,93395,93396,93397,93398,93399,93388,93389,93390,93391,93392,93393,93394,93395,93396,93397,93398,93399,93381,93381,93382,93383,93384,93385,93386,93387,93388,93389,93390,93391,93392,93393,93394,93395,93396,93397,93398,93399,93400,93401,93402,93403,93404,93405,93406,93407,93408,93409,93410,93411,93412,93413,93414,93415,93416,93417,93418,93419,93420,93421,93381,93382,93383,93384,93385,93386,93387,93388,93389,93390,93391,93392,93393,93394,93395,93396,93397,93398,93399,93400,93401,93402,93403,93404,93405,93406,93407,93408,93409,93410,93411,93412,93413,93414,93415,93416,93417,93418,93419,93420,93421,93422,93423,93424,93425,93426,93427,93428,93429,93430,93431,93432,93433,93434,93435,93436,93437,93438,93439,93440,93441,93442,93443,93444,93445,93446,93447,93448,93449,93450,93451,93452,93453,93454,93455,93456,93457,93499,93500,93501,93502,93503,93504,93505,93506,93507,93508,93509,93510,93511,93512,93513,93514,93381,93382,93383,93384,93385,93386,93387,93388,93389,93390,93391,93392,93393,93394,93395,93396,93397,93398,93399,93400,93401,93402,93403,93404,93405,93406,93407,93408,93409,93410,93411,93412,93413,93414,93415,93416,93417,93418,93419,93420,93421,93422,93423,93424,93425,93426,93427,93428,93429,93430,93431,93432,93433,93434,93435,93381,93382,93383,93384,93385,93386,93387,93388,93389,93390,93391,93392,93393,93394,93395,93396,93397,93398,93399,93400,93401,93402,93403,93404,93405,93406,93407,93408,93409,93410,93411,93412,93413,93414,93415,93416,93417,93418,93419,93381,93382,93383,93384,93385,93386,93387,93388,93389,93390,93391,93392,93393,93394,93395,93396,93397,93398,93399,93400,93401,93402,93403,93404,93405,93389,93390,93391,93392,93393,93394,93395,93396,93397,93398,85241,85241,85242,85243,85244,85245,85241,85241,85242,85243,85244,85245,
93529,93529,93530,93531,93532,93533,93534,93535,93536,93537,93538,93539,93540,93541,93542,93543,93544,93545,93546,93547,93536,93537,93538,93539,93540,93541,93542,93543,93544,93545,93546,93547,93529,93529,93530,93531,93532,93533,93534,93535,93536,93537,93538,93539,93540,93541,93542,93543,93544,93545,93546,93547,93548,93549,93550,93551,93552,93553,93554,93555,93556,93557,93558,93559,93560,93561,93562,93563,93564,93565,93566,93567,93568,93569,93529,93530,93531,93532,93533,93534,93535,93536,93537,93538,93539,93540,93541,93542,93543,93544,93545,93546,93547,93548,93549,93550,93551,93552,93553,93554,93555,93556,93557,93558,93559,93560,93561,93562,93563,93564,93565,93566,93567,93568,93569,93570,93571,93572,93573,93574,93575,93576,93577,93578,93579,93580,93581,93582,93583,93584,93585,93586,93587,93588,93589,93590,93591,93592,93593,93594,93595,93596,93597,93598,93599,93600,93601,93602,93603,93604,93605,93647,93648,93649,93650,93651,93652,93653,93654,93655,93656,93657,93658,93659,93660,93661,93662,93529,93530,93531,93532,93533,93534,93535,93536,93537,93538,93539,93540,93541,93542,93543,93544,93545,93546,93547,93548,93549,93550,93551,93552,93553,93554,93555,93556,93557,93558,93559,93560,93561,93562,93563,93564,93565,93566,93567,93568,93569,93570,93571,93572,93573,93574,93575,93576,93577,93578,93579,93580,93581,93582,93583,93529,93530,93531,93532,93533,93534,93535,93536,93537,93538,93539,93540,93541,93542,93543,93544,93545,93546,93547,93548,93549,93550,93551,93552,93553,93554,93555,93556,93557,93558,93559,93560,93561,93562,93563,93564,93565,93566,93567,93529,93530,93531,93532,93533,93534,93535,93536,93537,93538,93539,93540,93541,93542,93543,93544,93545,93546,93547,93548,93549,93550,93551,93552,93553,93537,93538,93539,93540,93541,93542,93543,93544,93545,93546,85389,85389,85390,85391,85392,85393,85389,85389,85390,85391,85392,85393,
93677,93677,93678,93679,93680,93681,93682,93683,93684,93685,93686,93687,93688,93689,93690,93691,93692,93693,93694,93695,93684,93685,93686,93687,93688,93689,93690,93691,93692,93693,93694,93695,93677,93677,93678,93679,93680,93681,93682,93683,93684,93685,93686,93687,93688,93689,93690,93691,93692,93693,93694,93695,93696,93697,93698,93699,93700,93701,93702,93703,93704,93705,93706,93707,93708,93709,93710,93711,93712,93713,93714,93715,93716,93717,93677,93678,93679,93680,93681,93682,93683,93684,93685,93686,93687,93688,93689,93690,93691,93692,93693,93694,93695,93696,93697,93698,93699,93700,93701,93702,93703,93704,93705,93706,93707,93708,93709,93710,93711,93712,93713,93714,93715,93716,93717,93718,93719,93720,93721,93722,93723,93724,93725,93726,93727,93728,93729,93730,93731,93732,93733,93734,93735,93736,93737,93738,93739,93740,93741,93742,93743,93744,93745,93746,93747,93748,93749,93750,93751,93752,93753,93795,93796,93797,93798,93799,93800,93801,93802,93803,93804,93805,93806,93807,93808,93809,93810,93677,93678,93679,93680,93681,93682,93683,93684,93685,93686,93687,93688,93689,93690,93691,93692,93693,93694,93695,93696,93697,93698,93699,93700,93701,93702,93703,93704,93705,93706,93707,93708,93709,93710,93711,93712,93713,93714,93715,93716,93717,93718,93719,93720,93721,93722,93723,93724,93725,93726,93727,93728,93729,93730,93731,93677,93678,93679,93680,93681,93682,93683,93684,93685,93686,93687,93688,93689,93690,93691,93692,93693,93694,93695,93696,93697,93698,93699,93700,93701,93702,93703,93704,93705,93706,93707,93708,93709,93710,93711,93712,93713,93714,93715,93677,93678,93679,93680,93681,93682,93683,93684,93685,93686,93687,93688,93689,93690,93691,93692,93693,93694,93695,93696,93697,93698,93699,93700,93701,93685,93686,93687,93688,93689,93690,93691,93692,93693,93694,85537,85537,85538,85539,85540,85541,85537,85537,85538,85539,85540,85541,
93233,93233,93234,93235,93236,93237,93238,93239,93240,93241,93242,93243,93244,93245,93246,93247,93248,93249,93250,93251,93240,93241,93242,93243,93244,93245,93246,93247,93248,93249,93250,93251,93233,93233,93234,93235,93236,93237,93238,93239,93240,93241,93242,93243,93244,93245,93246,93247,93248,93249,93250,93251,93252,93253,93254,93233,93233,93234,93235,93236,93237,93238,93239,93240,93241,93242,93243,93244,93245,93246,93247,93248,93249,93250,93251,93240,93241,93242,93243,93244,93245,93246,93247,93248,93249,93250,93251,93233,93233,93234,93235,93236,93237,93238,93239,93240,93241,93242,93243,93244,93245,93246,93247,93248,93249,93250,93251,93252,93253,93254,93255,93256,93257,93258,93259,93260,93261,93262,93263,93264,93265,93266,93267,93268,93269,93270,93271,93272,93273,93233,93234,93235,93236,93237,93238,93239,93240,93241,93242,93243,93244,93245,93246,93247,93248,93249,93250,93251,93252,93253,93254,93255,93256,93257,93258,93259,93260,93261,93262,93263,93264,93265,93266,93267,93268,93269,93270,93271,93272,93273,93274,93275,93276,93277,93278,93279,93280,93281,93282,93283,93284,93285,93286,93287,93288,93289,93290,93291,93292,93293,93294,93295,93296,93297,93298,93299,93300,93301,93302,93303,93304,93305,93306,93307,93308,93309,93351,93352,93353,93354,93355,93356,93357,93358,93359,93360,93361,93362,93363,93364,93365,93366,93233,93234,93235,93236,93237,93238,93239,93240,93241,93242,93243,93244,93245,93246,93247,93248,93249,93250,93251,93252,93253,93254,93255,93256,93257,93258,93259,93260,93261,93262,93263,93264,93265,93266,93267,93268,93269,93270,93271,93272,93273,93274,93275,93276,93277,93278,93279,93280,93281,93282,93283,93284,93285,93286,93287,93233,93234,93235,93236,93237,93238,93239,93240,93241,93242,93243,93244,93245,93246,93247,93248,93249,93250,93251,85685,85685,85686,85687,85688,85689,85685,85685,85686,85687,85688,85689,
93381,93381,93382,93383,93384,93385,93386,93387,93388,93389,93390,93391,93392,93393,93394,93395,93396,93397,93398,93399,93388,93389,93390,93391,93392,93393,93394,93395,93396,93397,93398,93399,93381,93381,93382,93383,93384,93385,93386,93387,93388,93389,93390,93391,93392,93393,93394,93395,93396,93397,93398,93399,93400,93401,93402,93381,93381,93382,93383,93384,93385,93386,93387,93388,93389,93390,93391,93392,93393,93394,93395,93396,93397,93398,93399,93388,93389,93390,93391,93392,93393,93394,93395,93396,93397,93398,93399,93381,93381,93382,93383,93384,93385,93386,93387,93388,93389,93390,93391,93392,93393,93394,93395,93396,93397,93398,93399,93400,93401,93402,93403,93404,93405,93406,93407,93408,93409,93410,93411,93412,93413,93414,93415,93416,93417,93418,93419,93420,93421,93381,93382,93383,93384,93385,93386,93387,93388,93389,93390,93391,93392,93393,93394,93395,93396,93397,93398,93399,93400,93401,93402,93403,93404,93405,93406,93407,93408,93409,93410,93411,93412,93413,93414,93415,93416,93417,93418,93419,93420,93421,93422,93423,93424,93425,93426,93427,93428,93429,93430,93431,93432,93433,93434,93435,93436,93437,93438,93439,93440,93441,93442,93443,93444,93445,93446,93447,93448,93449,93450,93451,93452,93453,93454,93455,93456,93457,93499,93500,93501,93502,93503,93504,93505,93506,93507,93508,93509,93510,93511,93512,93513,93514,93381,93382,93383,93384,93385,93386,93387,93388,93389,93390,93391,93392,93393,93394,93395,93396,93397,93398,93399,93400,93401,93402,93403,93404,93405,93406,93407,93408,93409,93410,93411,93412,93413,93414,93415,93416,93417,93418,93419,93420,93421,93422,93423,93424,93425,93426,93427,93428,93429,93430,93431,93432,93433,93434,93435,93381,93382,93383,93384,93385,93386,93387,93388,93389,93390,93391,93392,93393,93394,93395,93396,93397,93398,93399,85833,85833,85834,85835,85836,85837,85833,85833,85834,85835,85836,85837,
93529,93529,93530,93531,93532,93533,93534,93535,93536,93537,93538,93539,93540,93541,93542,93543,93544,93545,93546,93547,93536,93537,93538,93539,93540,93541,93542,93543,93544,93545,93546,93547,93529,93529,93530,93531,93532,93533,93534,93535,93536,93537,93538,93539,93540,93541,93542,93543,93544,93545,93546,93547,93548,93549,93550,93529,93529,93530,93531,93532,93533,93534,93535,93536,93537,93538,93539,93540,93541,93542,93543,93544,93545,93546,93547,93536,93537,93538,93539,93540,93541,93542,93543,93544,93545,93546,93547,93529,93529,93530,93531,93532,93533,93534,93535,93536,93537,93538,93539,93540,93541,93542,93543,93544,93545,93546,93547,93548,93549,93550,93551,93552,93553,93554,93555,93556,93557,93558,93559,93560,93561,93562,93563,93564,93565,93566,93567,93568,93569,93529,93530,93531,93532,93533,93534,93535,93536,93537,93538,93539,93540,93541,93542,93543,93544,93545,93546,93547,93548,93549,93550,93551,93552,93553,93554,93555,93556,93557,93558,93559,93560,93561,93562,93563,93564,93565,93566,93567,93568,93569,93570,93571,93572,93573,93574,93575,93576,93577,93578,93579,93580,93581,93582,93583,93584,93585,93586,93587,93588,93589,93590,93591,93592,93593,93594,93595,93596,93597,93598,93599,93600,93601,93602,93603,93604,93605,93647,93648,93649,93650,93651,93652,93653,93654,93655,93656,93657,93658,93659,93660,93661,93662,93529,93530,93531,93532,93533,93534,93535,93536,93537,93538,93539,93540,93541,93542,93543,93544,93545,93546,93547,93548,93549,93550,93551,93552,93553,93554,93555,93556,93557,93558,93559,93560,93561,93562,93563,93564,93565,93566,93567,93568,93569,93570,93571,93572,93573,93574,93575,93576,93577,93578,93579,93580,93581,93582,93583,93529,93530,93531,93532,93533,93534,93535,93536,93537,93538,93539,93540,93541,93542,93543,93544,93545,93546,93547,85981,85981,85982,85983,85984,85985,85981,85981,85982,85983,85984,85985,
93677,93677,93678,93679,93680,93681,93682,93683,93684,93685,93686,93687,93688,93689,93690,93691,93692,93693,93694,93695,93684,93685,93686,93687,93688,93689,93690,93691,93692,93693,93694,93695,93677,93677,93678,93679,93680,93681,93682,93683,93684,93685,93686,93687,93688,93689,93690,93691,93692,93693,93694,93695,93696,93697,93698,93677,93677,93678,93679,93680,93681,93682,93683,93684,93685,93686,93687,93688,93689,93690,93691,93692,93693,93694,93695,93684,93685,93686,93687,93688,93689,93690,93691,93692,93693,93694,93695,93677,93677,93678,93679,93680,93681,93682,93683,93684,93685,93686,93687,93688,93689,93690,93691,93692,93693,93694,93695,93696,93697,93698,93699,93700,93701,93702,93703,93704,93705,93706,93707,93708,93709,93710,93711,93712,93713,93714,93715,93716,93717,93677,93678,93679,93680,93681,93682,93683,93684,93685,93686,93687,93688,93689,93690,93691,93692,93693,93694,93695,93696,93697,93698,93699,93700,93701,93702,93703,93704,93705,93706,93707,93708,93709,93710,93711,93712,93713,93714,93715,93716,93717,93718,93719,93720,93721,93722,93723,93724,93725,93726,93727,93728,93729,93730,93731,93732,93733,93734,93735,93736,93737,93738,93739,93740,93741,93742,93743,93744,93745,93746,93747,93748,93749,93750,93751,93752,93753,93795,93796,93797,93798,93799,93800,93801,93802,93803,93804,93805,93806,93807,93808,93809,93810,93677,93678,93679,93680,93681,93682,93683,93684,93685,93686,93687,93688,93689,93690,93691,93692,93693,93694,93695,93696,93697,93698,93699,93700,93701,93702,93703,93704,93705,93706,93707,93708,93709,93710,93711,93712,93713,93714,93715,93716,93717,93718,93719,93720,93721,93722,93723,93724,93725,93726,93727,93728,93729,93730,93731,93677,93678,93679,93680,93681,93682,93683,93684,93685,93686,93687,93688,93689,93690,93691,93692,93693,93694,93695,84945,84945,84946,84947,84948,84949,84945,84945,84946,84947,84948,84949
</data>
 </layer>
 <layer id="5" name="Tile Layer 6" width="308" height="81">
  <data encoding="csv">
0,0,0,0,0,0,0,0,0,0,0,0,0,0,0,0,0,0,0,0,0,0,0,0,0,0,0,0,0,0,0,0,0,0,0,0,0,0,0,0,0,0,0,0,0,0,0,0,0,0,0,0,0,0,0,0,0,0,0,0,0,0,0,0,0,0,0,0,0,0,0,0,0,0,0,0,0,0,0,0,0,0,0,0,0,0,0,0,0,0,0,0,0,0,0,0,0,0,0,0,0,0,0,0,0,0,0,0,0,0,0,0,0,0,0,0,0,0,0,0,0,0,0,0,0,0,0,0,0,0,0,0,0,0,0,0,0,0,0,0,0,0,0,0,0,0,0,0,0,0,0,0,0,0,0,0,0,0,0,0,0,0,0,0,0,0,0,0,0,0,0,0,0,0,0,0,0,0,0,0,0,0,0,0,0,0,0,0,0,0,0,0,0,0,0,0,0,0,0,0,0,0,0,0,0,0,0,0,0,0,0,0,0,0,0,0,0,0,0,0,0,0,0,0,0,0,0,0,0,0,0,0,0,0,0,0,0,0,0,0,0,0,0,0,0,0,0,0,0,0,0,0,0,0,0,0,0,0,0,0,0,0,0,0,0,0,0,0,0,0,0,0,0,0,0,0,0,0,0,0,0,0,0,0,0,0,0,0,0,0,0,0,0,0,0,0,0,0,0,0,0,0,0,0,0,0,0,0,
0,0,0,0,0,0,0,0,0,0,0,0,0,0,0,0,0,0,0,0,0,0,0,0,0,0,0,0,0,0,0,0,0,0,0,0,0,0,0,0,0,0,0,0,0,0,0,0,0,0,0,0,0,0,0,0,0,0,0,0,0,0,0,0,0,0,0,0,0,0,0,0,0,0,0,0,0,0,0,0,0,0,0,0,0,0,0,0,0,0,0,0,0,0,0,0,0,0,0,0,0,0,0,0,0,0,0,0,0,0,0,0,0,0,0,0,0,0,0,0,0,0,0,0,0,0,0,0,0,0,0,0,0,0,0,0,0,0,0,0,0,0,0,0,0,0,0,0,0,0,0,0,0,0,0,0,0,0,0,0,0,0,0,0,0,0,0,0,0,0,0,0,0,0,0,0,0,0,0,0,0,0,0,0,0,0,0,0,0,0,0,0,0,0,0,0,0,0,0,0,0,0,0,0,0,0,0,0,0,0,0,0,0,0,0,0,0,0,0,0,0,0,0,0,0,0,0,0,0,0,0,0,0,0,0,0,0,0,0,0,0,0,0,0,0,0,0,0,0,0,0,0,0,0,0,0,0,0,0,0,0,0,0,0,0,0,0,0,0,0,0,0,0,0,0,0,0,0,0,0,0,0,0,0,0,0,0,0,0,0,0,0,0,0,0,0,0,0,0,0,0,0,0,0,0,0,0,0,
0,0,0,0,0,0,0,0,0,0,0,0,0,0,0,0,0,0,0,0,0,0,0,0,0,0,0,0,0,0,0,0,0,0,0,0,0,0,0,0,0,0,0,0,0,0,0,0,0,0,0,0,0,0,0,0,0,0,0,0,0,0,0,0,0,0,0,0,0,0,0,0,0,0,0,0,0,0,0,0,0,0,0,0,0,0,0,0,0,0,0,0,0,0,0,0,0,0,0,0,0,0,0,0,0,0,0,0,0,0,0,0,0,0,0,0,0,0,0,0,0,0,0,0,0,0,0,0,0,0,0,0,0,0,0,0,0,0,0,0,0,0,0,0,0,0,0,0,0,0,0,0,0,0,0,0,0,0,0,0,0,0,0,0,0,0,0,0,0,0,0,0,0,0,0,0,0,0,0,0,0,0,0,0,0,0,0,0,0,0,0,0,0,0,0,0,0,0,0,0,0,0,0,0,0,0,0,0,0,0,0,0,0,0,0,0,0,0,0,0,0,0,0,0,0,0,0,0,0,0,0,0,0,0,0,0,0,0,0,0,0,0,0,0,0,0,0,0,0,0,0,0,0,0,0,0,0,0,0,0,0,0,0,0,0,0,0,0,0,0,0,0,0,0,0,0,0,0,0,0,0,0,0,0,0,0,0,0,0,0,0,0,0,0,0,0,0,0,0,0,0,0,0,0,0,0,0,0,
0,0,0,0,0,0,0,0,0,0,0,0,0,0,0,0,0,0,0,0,0,0,0,0,0,0,0,0,0,0,0,0,0,0,0,0,0,0,0,0,0,0,0,0,0,0,0,0,0,0,0,0,0,0,0,0,0,0,0,0,0,0,0,0,0,0,0,0,0,0,0,0,0,0,0,0,0,0,0,0,0,0,0,0,0,0,0,0,0,0,0,0,0,0,0,0,0,0,0,0,0,0,0,0,0,0,0,0,0,0,0,0,0,0,0,0,0,0,0,0,0,0,0,0,0,0,0,0,0,0,0,0,0,0,0,0,0,0,0,0,0,0,0,0,0,0,0,0,0,0,0,0,0,0,0,0,0,0,0,0,0,0,0,0,0,0,0,0,0,0,0,0,0,0,0,0,0,0,0,0,0,0,0,0,0,0,0,0,0,0,0,0,0,0,0,0,0,0,0,0,0,0,0,0,0,0,0,0,0,0,0,0,0,0,0,0,0,0,0,0,0,0,0,0,0,0,0,0,0,0,0,0,0,0,0,0,0,0,0,0,0,0,0,0,0,0,0,0,0,0,0,0,0,0,0,0,0,0,0,0,0,0,0,0,0,0,0,0,0,0,0,0,0,0,0,0,0,0,0,0,0,0,0,0,0,0,0,0,0,0,0,0,0,0,0,0,0,0,0,0,0,0,0,0,0,0,0,0,
0,0,0,0,0,0,0,0,0,0,0,0,0,0,0,0,0,0,0,0,0,0,0,0,0,0,0,0,0,0,0,0,0,0,0,0,0,0,0,0,0,0,0,0,0,0,0,0,0,0,0,0,0,0,0,0,0,0,0,0,0,0,0,0,0,0,0,0,0,0,0,0,0,0,0,0,0,0,0,0,0,0,0,0,0,0,0,0,0,0,0,0,0,0,0,0,0,0,0,0,0,0,0,0,0,0,0,0,0,0,0,0,0,0,0,0,0,0,0,0,0,0,0,0,0,0,0,0,0,0,0,0,0,0,0,0,0,0,0,0,0,0,0,0,0,0,0,0,0,0,0,0,0,0,0,0,0,0,0,0,0,0,0,0,0,0,0,0,0,0,0,0,0,0,0,0,0,0,0,0,0,0,0,0,0,0,0,0,0,0,0,0,0,0,0,0,0,0,0,0,0,0,0,0,0,0,0,0,0,0,0,0,0,0,0,0,0,0,0,0,0,0,0,0,0,0,0,0,0,0,0,0,0,0,0,0,0,0,0,0,0,0,0,0,0,0,0,0,0,0,0,0,0,0,0,0,0,0,0,0,0,0,0,0,0,0,0,0,0,0,0,0,0,0,0,0,0,0,0,0,0,0,0,0,0,0,0,0,0,0,0,0,0,0,0,0,0,0,0,0,0,0,0,0,0,0,0,0,
0,0,0,0,0,0,0,0,0,0,0,0,0,0,0,0,0,0,0,0,0,0,0,0,0,0,0,0,0,0,0,0,0,0,0,0,0,0,0,0,0,0,0,0,0,0,0,0,0,0,0,0,0,0,0,0,0,0,0,0,0,0,0,0,0,0,0,0,0,0,0,0,0,0,0,0,0,0,0,0,0,0,0,0,0,0,0,0,0,0,0,0,0,0,0,0,0,0,0,0,0,0,0,0,0,0,0,0,0,0,0,0,0,0,0,0,0,0,0,0,0,0,0,0,0,0,0,0,0,0,0,0,0,0,0,0,0,0,0,0,0,0,0,0,0,0,0,0,0,0,0,0,0,0,0,0,0,0,0,0,0,0,0,0,0,0,0,0,0,0,0,0,0,0,0,0,0,0,0,0,0,0,0,0,0,0,0,0,0,0,0,0,0,0,0,0,0,0,0,0,0,0,0,0,0,0,0,0,0,0,0,0,0,0,0,0,0,0,0,0,0,0,0,0,0,0,0,0,0,0,0,0,0,0,0,0,0,0,0,0,0,0,0,0,0,0,0,0,0,0,0,0,0,0,0,0,0,0,0,0,0,0,0,0,0,0,0,0,0,0,0,0,0,0,0,0,0,0,0,0,0,0,0,0,0,0,0,0,0,0,0,0,0,0,0,0,0,0,0,0,0,0,0,0,0,0,0,0,
0,0,0,0,0,0,0,0,0,0,0,0,0,0,0,0,0,0,0,0,0,0,0,0,0,0,0,0,0,0,0,0,0,0,0,0,0,0,0,0,0,0,0,0,0,0,0,0,0,0,0,0,0,0,0,0,0,0,0,0,0,0,0,0,0,0,0,0,0,0,0,0,0,0,0,0,0,0,0,0,0,0,0,0,0,0,0,0,0,0,0,0,0,0,0,0,0,0,0,0,0,0,0,0,0,0,0,0,0,0,0,0,0,0,0,0,0,0,0,0,0,0,0,0,0,0,0,0,0,0,0,0,0,0,0,0,0,0,0,0,0,0,0,0,0,0,0,0,0,0,0,0,0,0,0,0,0,0,0,0,0,0,0,0,0,0,0,0,0,0,0,0,0,0,0,0,0,0,0,0,0,0,0,0,0,0,0,0,0,0,0,0,0,0,0,0,0,0,0,0,0,0,0,0,0,0,0,0,0,0,0,0,0,0,0,0,0,0,0,0,0,0,0,0,0,0,0,0,0,0,0,0,0,0,0,0,0,0,0,0,0,0,0,0,0,0,0,0,0,0,0,0,0,0,0,0,0,0,0,0,0,0,0,0,0,0,0,0,0,0,0,0,0,0,0,0,0,0,0,0,0,0,0,0,0,0,0,0,0,0,0,0,0,0,0,0,0,0,0,0,0,0,0,0,0,0,0,0,
0,0,0,0,0,0,0,0,0,0,0,0,0,0,0,0,0,0,0,0,0,0,0,0,0,0,0,0,0,0,0,0,0,0,0,0,0,0,0,0,0,0,0,0,0,0,0,0,0,0,0,0,0,0,0,0,0,0,0,0,0,0,0,0,0,0,0,0,0,0,0,0,0,0,0,0,0,0,0,0,0,0,0,0,0,0,0,0,0,0,0,0,0,0,0,0,0,0,0,0,0,0,0,0,0,0,0,0,0,0,0,0,0,0,0,0,0,0,0,0,0,0,0,0,0,0,0,0,0,0,0,0,0,0,0,0,0,0,0,0,0,0,0,0,0,0,0,0,0,0,0,0,0,0,0,0,0,0,0,0,0,0,0,0,0,0,0,0,0,0,0,0,0,0,0,0,0,0,0,0,0,0,0,0,0,0,0,0,0,0,0,0,0,0,0,0,0,0,0,0,0,0,0,0,0,0,0,0,0,0,0,0,0,0,0,0,0,0,0,0,0,0,0,0,0,0,0,0,0,0,0,0,0,0,0,0,0,0,0,0,0,0,0,0,0,0,0,0,0,0,0,0,0,0,0,0,0,0,0,0,0,0,0,0,0,0,0,0,0,0,0,0,0,0,0,0,0,0,0,0,0,0,0,0,0,0,0,0,0,0,0,0,0,0,0,0,0,0,0,0,0,0,0,0,0,0,0,0,
0,0,0,0,0,0,0,0,0,0,0,0,0,0,0,0,0,0,0,0,0,0,0,0,0,0,0,0,0,0,0,0,0,0,0,0,0,0,0,0,0,0,0,0,0,0,0,0,0,0,0,0,0,0,0,0,0,0,0,0,0,0,0,0,0,0,0,0,0,0,0,0,0,0,0,0,0,0,0,0,0,0,0,0,0,0,0,0,0,0,0,0,0,0,0,0,0,0,0,0,0,0,0,0,0,0,0,0,0,0,0,0,0,0,0,0,0,0,0,0,0,0,0,0,0,0,0,0,0,0,0,0,0,0,0,0,0,0,0,0,0,0,0,0,0,0,0,0,0,0,0,0,0,0,0,0,0,0,0,0,0,0,0,0,0,0,0,0,0,0,0,0,0,0,0,0,0,0,0,0,0,0,0,0,0,0,0,0,0,0,0,0,0,0,0,0,0,0,0,0,0,0,0,0,0,0,0,0,0,0,0,0,0,0,0,0,0,0,0,0,0,0,0,0,0,0,0,0,0,0,0,0,0,0,0,0,0,0,0,0,0,0,0,0,0,0,0,0,0,0,0,0,0,0,0,0,0,0,0,0,0,0,0,0,0,0,0,0,0,0,0,0,0,0,0,0,0,0,0,0,0,0,0,0,0,0,0,0,0,0,0,0,0,0,0,0,0,0,0,0,0,0,0,0,0,0,0,0,
0,0,0,0,0,0,0,0,0,0,0,0,0,0,0,0,0,0,0,0,0,0,0,0,0,0,0,0,0,0,0,0,0,0,0,0,0,0,0,0,0,0,0,0,0,0,0,0,0,0,0,0,0,0,0,0,0,0,0,0,0,0,0,0,0,0,0,0,0,0,0,0,0,0,0,0,0,0,0,0,0,0,0,0,0,0,0,0,0,0,0,0,0,0,0,0,0,0,0,0,0,0,0,0,0,0,0,0,0,0,0,0,0,0,0,0,0,0,0,0,0,0,0,0,0,0,0,0,0,0,0,0,0,0,0,0,0,0,0,0,0,0,0,0,0,0,0,0,0,0,0,0,0,0,0,0,0,0,0,0,0,0,0,0,0,0,0,0,0,0,0,0,0,0,0,0,0,0,0,0,0,0,0,0,0,0,0,0,0,0,0,0,0,0,0,0,0,0,0,0,0,0,0,0,0,0,0,0,0,0,0,0,0,0,0,0,0,0,0,0,0,0,0,0,0,0,0,0,0,0,0,0,0,0,0,0,0,0,0,0,0,0,0,0,0,0,0,0,0,0,0,0,0,0,0,0,0,0,0,0,0,0,0,0,0,0,0,0,0,0,0,0,0,0,0,0,0,0,0,0,0,0,0,0,0,0,0,0,0,0,0,0,0,0,0,0,0,0,0,0,0,0,0,0,0,0,0,0,
0,0,0,0,0,0,0,0,0,0,0,0,0,0,0,0,0,0,0,0,0,0,0,0,0,0,0,0,0,0,0,0,0,0,0,0,0,0,0,0,0,0,0,0,0,0,0,0,0,0,0,0,0,0,0,0,0,0,0,0,0,0,0,0,0,0,0,0,0,0,0,0,0,0,0,0,0,0,0,0,0,0,0,0,0,0,0,0,0,0,0,0,0,0,0,0,0,0,0,0,0,0,0,0,0,0,0,0,0,0,0,0,0,0,0,0,0,0,0,0,0,0,0,0,0,0,0,0,0,0,0,0,0,0,0,0,0,0,0,0,0,0,0,0,0,0,0,0,0,0,0,0,0,0,0,0,0,0,0,0,0,0,0,0,0,0,0,0,0,0,0,0,0,0,0,0,0,0,0,0,0,0,0,0,0,0,0,0,0,0,0,0,0,0,0,0,0,0,0,0,0,0,0,0,0,0,0,0,0,0,0,0,0,0,0,0,0,0,0,0,0,0,0,0,0,0,0,0,0,0,0,0,0,0,0,0,0,0,0,0,0,0,0,0,0,0,0,0,0,0,0,0,0,0,0,0,0,0,0,0,0,0,0,0,0,0,0,0,0,0,0,0,0,0,0,0,0,0,0,0,0,0,0,0,0,0,0,0,0,0,0,0,0,0,0,0,0,0,0,0,0,0,0,0,0,0,0,0,
0,0,0,0,0,0,0,0,0,0,0,0,0,0,0,0,0,0,0,0,0,0,0,0,0,0,0,0,0,0,0,0,0,0,0,0,0,0,0,0,0,0,0,0,0,0,0,0,0,0,0,0,0,0,0,0,0,0,0,0,0,0,0,0,0,0,0,0,0,0,0,0,0,0,0,0,0,0,0,0,0,0,0,0,0,0,0,0,0,0,0,0,0,0,0,0,0,0,0,0,0,0,0,0,0,0,0,0,0,0,0,0,0,0,0,0,0,0,0,0,0,0,0,0,0,0,0,0,0,0,0,0,0,0,0,0,0,0,0,0,0,0,0,0,0,0,0,0,0,0,0,0,0,0,0,0,0,0,0,0,0,0,0,0,0,0,0,0,0,0,0,0,0,0,0,0,0,0,0,0,0,0,0,0,0,0,0,0,0,0,0,0,0,0,0,0,0,0,0,0,0,0,0,0,0,0,0,0,0,0,0,0,0,0,0,0,0,0,0,0,0,0,0,0,0,0,0,0,0,0,0,0,0,0,0,0,0,0,0,0,0,0,0,0,0,0,0,0,0,0,0,0,0,0,0,0,0,0,0,0,0,0,0,0,0,0,0,0,0,0,0,0,0,0,0,0,0,0,0,0,0,0,0,0,0,0,0,0,0,0,0,0,0,0,0,0,0,0,0,0,0,0,0,0,0,0,0,0,
0,0,0,0,0,0,0,0,0,0,0,0,0,0,0,0,0,0,0,0,0,0,0,0,0,0,0,0,0,0,0,0,0,0,0,0,0,0,0,0,0,0,0,0,0,0,0,0,0,0,0,0,0,0,0,0,0,0,0,0,0,0,0,0,0,0,0,0,0,0,0,0,0,0,0,0,0,0,0,0,0,0,0,0,0,0,0,0,0,0,0,0,0,0,0,0,0,0,0,0,0,0,0,0,0,0,0,0,0,0,0,0,0,0,0,0,0,0,0,0,0,0,0,0,0,0,0,0,0,0,0,0,0,0,0,0,0,0,0,0,0,0,0,0,0,0,0,0,0,0,0,0,0,0,0,0,0,0,0,0,0,0,0,0,0,0,0,0,0,0,0,0,0,0,0,0,0,0,0,0,0,0,0,0,0,0,0,0,0,0,0,0,0,0,0,0,0,0,0,0,0,0,0,0,0,0,0,0,0,0,0,0,0,0,0,0,0,0,0,0,0,0,0,0,0,0,0,0,0,0,0,0,0,0,0,0,0,0,0,0,0,0,0,0,0,0,0,0,0,0,0,0,0,0,0,0,0,0,0,0,0,0,0,0,0,0,0,0,0,0,0,0,0,0,0,0,0,0,0,0,0,0,0,0,0,0,0,0,0,0,0,0,0,0,0,0,0,0,0,0,0,0,0,0,0,0,0,0,
0,0,0,0,0,0,0,0,0,0,0,0,0,0,0,0,0,0,0,0,0,0,0,0,0,0,0,0,0,0,0,0,0,0,0,0,0,0,0,0,0,0,0,0,0,0,0,0,0,0,0,0,0,0,0,0,0,0,0,0,0,0,0,0,0,0,0,0,0,0,0,0,0,0,0,0,0,0,0,0,0,0,0,0,0,0,0,0,0,0,0,0,0,0,0,0,0,0,0,0,0,0,0,0,0,0,0,0,0,0,0,0,0,0,0,0,0,0,0,0,0,0,0,0,0,0,0,0,0,0,0,0,0,0,0,0,0,0,0,0,0,0,0,0,0,0,0,0,0,0,0,0,0,0,0,0,0,0,0,0,0,0,0,0,0,0,0,0,0,0,0,0,0,0,0,0,0,0,0,0,0,0,0,0,0,0,0,0,0,0,0,0,0,0,0,0,0,0,0,0,0,0,0,0,0,0,0,0,0,0,0,0,0,0,0,0,0,0,0,0,0,0,0,0,0,0,0,0,0,0,0,0,0,0,0,0,0,0,0,0,0,0,0,0,0,0,0,0,0,0,0,0,0,0,0,0,0,0,0,0,0,0,0,0,0,0,0,0,0,0,0,0,0,0,0,0,0,0,0,0,0,0,0,0,0,0,0,0,0,0,0,0,0,0,0,0,0,0,0,0,0,0,0,0,0,0,0,0,
0,0,0,0,0,0,0,0,0,0,0,0,0,0,0,0,0,0,0,0,0,0,0,0,0,0,0,0,0,0,0,0,0,0,0,0,0,0,0,0,0,0,0,0,0,0,0,0,0,0,0,0,0,0,0,0,0,0,0,0,0,0,0,0,0,0,0,0,0,0,0,0,0,0,0,0,0,0,0,0,0,0,0,0,0,0,0,0,0,0,0,0,0,0,0,0,0,0,0,0,0,0,0,0,0,0,0,0,0,0,0,0,0,0,0,0,0,0,0,0,0,0,0,0,0,0,0,0,0,0,0,0,0,0,0,0,0,0,0,0,0,0,0,0,0,0,0,0,0,0,0,0,0,0,0,0,0,0,0,0,0,0,0,0,0,0,0,0,0,0,0,0,0,0,0,0,0,0,0,0,0,0,0,0,0,0,0,0,0,0,0,0,0,0,0,0,0,0,0,0,0,0,0,0,0,0,0,0,0,0,0,0,0,0,0,0,0,0,0,0,0,0,0,0,0,0,0,0,0,0,0,0,0,0,0,0,0,0,0,0,0,0,0,0,0,0,0,0,0,0,0,0,0,0,0,0,0,0,0,0,0,0,0,0,0,0,0,0,0,0,0,0,0,0,0,0,0,0,0,0,0,0,0,0,0,0,0,0,0,0,0,0,0,0,0,0,0,0,0,0,0,0,0,0,0,0,0,0,
0,0,0,0,0,0,0,0,0,0,0,0,0,0,0,0,0,0,0,0,0,0,0,0,0,0,0,0,0,0,0,0,0,0,0,0,0,0,0,0,0,0,0,0,0,0,0,0,0,0,0,0,0,0,0,0,0,0,0,0,0,0,0,0,0,0,0,0,0,0,0,0,0,0,0,0,0,0,0,0,0,0,0,0,0,0,0,0,0,0,0,0,0,0,0,0,0,0,0,0,0,0,0,0,0,0,0,0,0,0,0,0,0,0,0,0,0,0,0,0,0,0,0,0,0,0,0,0,0,0,0,0,0,0,0,0,0,0,0,0,0,0,0,0,0,0,0,0,0,0,0,0,0,0,0,0,0,0,0,0,0,0,0,0,0,0,0,0,0,0,0,0,0,0,0,0,0,0,0,0,0,0,0,0,0,0,0,0,0,0,0,0,0,0,0,0,0,0,0,0,0,0,0,0,0,0,0,0,0,0,0,0,0,0,0,0,0,0,0,0,0,0,0,0,0,0,0,0,0,0,0,0,0,0,0,0,0,0,0,0,0,0,0,0,0,0,0,0,0,0,0,0,0,0,0,0,0,0,0,0,0,0,0,0,0,0,0,0,0,0,0,0,0,0,0,0,0,0,0,0,0,0,0,0,0,0,0,0,0,0,0,0,0,0,0,0,0,0,0,0,0,0,0,0,0,0,0,0,
0,0,0,0,0,0,0,0,0,0,0,0,0,0,0,0,0,0,0,0,0,0,0,0,0,0,0,0,0,0,0,0,0,0,0,0,0,0,0,0,0,0,0,0,0,0,0,0,0,0,0,0,0,0,0,0,0,0,0,0,0,0,0,0,0,0,0,0,0,0,0,0,0,0,0,0,0,0,0,0,0,0,0,0,0,0,0,0,0,0,0,0,0,0,0,0,0,0,0,0,0,0,0,0,0,0,0,0,0,0,0,0,0,0,0,0,0,0,0,0,0,0,0,0,0,0,0,0,0,0,0,0,0,0,0,0,0,0,0,0,0,0,0,0,0,0,0,0,0,0,0,0,0,0,0,0,0,0,0,0,0,0,0,0,0,0,0,0,0,0,0,0,0,0,0,0,0,0,0,0,0,0,0,0,0,0,0,0,0,0,0,0,0,0,0,0,0,0,0,0,0,0,0,0,0,0,0,0,0,0,0,0,0,0,0,0,0,0,0,0,0,0,0,0,0,0,0,0,0,0,0,0,0,0,0,0,0,0,0,0,0,0,0,0,0,0,0,0,0,0,0,0,0,0,0,0,0,0,0,0,0,0,0,0,0,0,0,0,0,0,0,0,0,0,0,0,0,0,0,0,0,0,0,0,0,0,0,0,0,0,0,0,0,0,0,0,0,0,0,0,0,0,0,0,0,0,0,0,
0,0,0,0,0,0,0,0,0,0,0,0,0,0,0,0,0,0,0,0,0,0,0,0,0,0,0,0,0,0,0,0,0,0,0,0,0,0,0,0,0,0,0,0,0,0,0,0,0,0,0,0,0,0,0,0,0,0,0,0,0,0,0,0,0,0,0,0,0,0,0,0,0,0,0,0,0,0,0,0,0,0,0,0,0,0,0,0,0,0,0,0,0,0,0,0,0,0,0,0,0,0,0,0,0,0,0,0,0,0,0,0,0,0,0,0,0,0,0,0,0,0,0,0,0,0,0,0,0,0,0,0,0,0,0,0,0,0,0,0,0,0,0,0,0,0,0,0,0,0,0,0,0,0,0,0,0,0,0,0,0,0,0,0,0,0,0,0,0,0,0,0,0,0,0,0,0,0,0,0,0,0,0,0,0,0,0,0,0,0,0,0,0,0,0,0,0,0,0,0,0,0,0,0,0,0,0,0,0,0,0,0,0,0,0,0,0,0,0,0,0,0,0,0,0,0,0,0,0,0,0,0,0,0,0,0,0,0,0,0,0,0,0,0,0,0,0,0,0,0,0,0,0,0,0,0,0,0,0,0,0,0,0,0,0,0,0,0,0,0,0,0,0,0,0,0,0,0,0,0,0,0,0,0,0,0,0,0,0,0,0,0,0,0,0,0,0,0,0,0,0,0,0,0,0,0,0,0,
0,0,0,0,0,0,0,0,0,0,0,0,0,0,0,0,0,0,0,0,0,0,0,0,0,0,0,0,0,0,0,0,0,0,0,0,0,0,0,0,0,0,0,0,0,0,0,0,0,0,0,0,0,0,0,0,0,0,0,0,0,0,0,0,0,0,0,0,0,0,0,0,0,0,0,0,0,0,0,0,0,0,0,0,0,0,0,0,0,0,0,0,0,0,0,0,0,0,0,0,0,0,0,0,0,0,0,0,0,0,0,0,0,0,0,0,0,0,0,0,0,0,0,0,0,0,0,0,0,0,0,0,0,0,0,0,0,0,0,0,0,0,0,0,0,0,0,0,0,0,0,0,0,0,0,0,0,0,0,0,0,0,0,0,0,0,0,0,0,0,0,0,0,0,0,0,0,0,0,0,0,0,0,0,0,0,0,0,0,0,0,0,0,0,0,0,0,0,0,0,0,0,0,0,0,0,0,0,0,0,0,0,0,0,0,0,0,0,0,0,0,0,0,0,0,0,0,0,0,0,0,0,0,0,0,0,0,0,0,0,0,0,0,0,0,0,0,0,0,0,0,0,0,0,0,0,0,0,0,0,0,0,0,0,0,0,0,0,0,0,0,0,0,0,0,0,0,0,0,0,0,0,0,0,0,0,0,0,0,0,0,0,0,0,0,0,0,0,0,0,0,0,0,0,0,0,0,0,
0,0,0,0,0,0,0,0,0,0,0,0,0,0,0,0,0,0,0,0,0,0,0,0,0,0,0,0,0,0,0,0,0,0,0,0,0,0,0,0,0,0,0,0,0,0,0,0,0,0,0,0,0,0,0,0,0,0,0,0,0,0,0,0,0,0,0,0,0,0,0,0,0,0,0,0,0,0,0,0,0,0,0,0,0,0,0,0,0,0,0,0,0,0,0,0,0,0,0,0,0,0,0,0,0,0,0,0,0,0,0,0,0,0,0,0,0,0,0,0,0,0,0,0,0,0,0,0,0,0,0,0,0,0,0,0,0,0,0,0,0,0,0,0,0,0,0,0,0,0,0,0,0,0,0,0,0,0,0,0,0,0,0,0,0,0,0,0,0,0,0,0,0,0,0,0,0,0,0,0,0,0,0,0,0,0,0,0,0,0,0,0,0,0,0,0,0,0,0,0,0,0,0,0,0,0,0,0,0,0,0,0,0,0,0,0,0,0,0,0,0,0,0,0,0,0,0,0,0,0,0,0,0,0,0,0,0,0,0,0,0,0,0,0,0,0,0,0,0,0,0,0,0,0,0,0,0,0,0,0,0,0,0,0,0,0,0,0,0,0,0,0,0,0,0,0,0,0,0,0,0,0,0,0,0,0,0,0,0,0,0,0,0,0,0,0,0,0,0,0,0,0,0,0,0,0,0,0,
0,0,0,0,0,0,0,0,0,0,0,0,0,0,0,0,0,0,0,0,0,0,0,0,0,0,0,0,0,0,0,0,0,0,0,0,0,0,0,0,0,0,0,0,0,0,0,0,0,0,0,0,0,0,0,0,0,0,0,0,0,0,0,0,0,0,0,0,0,0,0,0,0,0,0,0,0,0,0,0,0,0,0,0,0,0,0,0,0,0,0,0,0,0,0,0,0,0,0,0,0,0,0,0,0,0,0,0,0,0,0,0,0,0,0,0,0,0,0,0,0,0,0,0,0,0,0,0,0,0,0,0,0,0,0,0,0,0,0,0,0,0,0,0,0,0,0,0,0,0,0,0,0,0,0,0,0,0,0,0,0,0,0,0,0,0,0,0,0,0,0,0,0,0,0,0,0,0,0,0,0,0,0,0,0,0,0,0,0,0,0,0,0,0,0,0,0,0,0,0,0,0,0,0,0,0,0,0,0,0,0,0,0,0,0,0,0,0,0,0,0,0,0,0,0,0,0,0,0,0,0,0,0,0,0,0,0,0,0,0,0,0,0,0,0,0,0,0,0,0,0,0,0,0,0,0,0,0,0,0,0,0,0,0,0,0,0,0,0,0,0,0,0,0,0,0,0,0,0,0,0,0,0,0,0,0,0,0,0,0,0,0,0,0,0,0,0,0,0,0,0,0,0,0,0,0,0,0,
0,0,0,0,0,0,0,0,0,0,0,0,0,0,0,0,0,0,0,0,0,0,0,0,0,0,0,0,0,0,0,0,0,0,0,0,0,0,0,0,0,0,0,0,0,0,0,0,0,0,0,0,0,0,0,0,0,0,0,0,0,0,0,0,0,0,0,0,0,0,0,0,0,0,0,0,0,0,0,0,0,0,0,0,0,0,0,0,0,0,0,0,0,0,0,0,0,0,0,0,0,0,0,0,0,0,0,0,0,0,0,0,0,0,0,0,0,0,0,0,0,0,0,0,0,0,0,0,0,0,0,0,0,0,0,0,0,0,0,0,0,0,0,0,0,0,0,0,0,0,0,0,0,0,0,0,0,0,0,0,0,0,0,0,0,0,0,0,0,0,0,0,0,0,0,0,0,0,0,0,0,0,0,0,0,0,0,0,0,0,0,0,0,0,0,0,0,0,0,0,0,0,0,0,0,0,0,0,0,0,0,0,0,0,0,0,0,0,0,0,0,0,0,0,0,0,0,0,0,0,0,0,0,0,0,0,0,0,0,0,0,0,0,0,0,0,0,0,0,0,0,0,0,0,0,0,0,0,0,0,0,0,0,0,0,0,0,0,0,0,0,0,0,0,0,0,0,0,0,0,0,0,0,0,0,0,0,0,0,0,0,0,0,0,0,0,0,0,0,0,0,0,0,0,0,0,0,0,
0,0,0,0,0,0,0,0,0,0,0,0,0,0,0,0,0,0,0,0,0,0,0,0,0,0,0,0,0,0,0,0,0,0,0,0,0,0,0,0,0,0,0,0,0,0,0,0,0,0,0,0,0,0,0,0,0,0,0,0,0,0,0,0,0,0,0,0,0,0,0,0,0,0,0,0,0,0,0,0,0,0,0,0,0,0,0,0,0,0,0,0,0,0,0,0,0,0,0,0,0,0,0,0,0,0,0,0,0,0,0,0,0,0,0,0,0,0,0,0,0,0,0,0,0,0,0,0,0,0,0,0,0,0,0,0,0,0,0,0,0,0,0,0,0,0,0,0,0,0,0,0,0,0,0,0,0,0,0,0,0,0,0,0,0,0,0,0,0,0,0,0,0,0,0,0,0,0,0,0,0,0,0,0,0,0,0,0,0,0,0,0,0,0,0,0,0,0,0,0,0,0,0,0,0,0,0,0,0,0,0,0,0,0,0,0,0,0,0,0,0,0,0,0,0,0,0,0,0,0,0,0,0,0,0,0,0,0,0,0,0,0,0,0,0,0,0,0,0,0,0,0,0,0,0,0,0,0,0,0,0,0,0,0,0,0,0,0,0,0,0,0,0,0,0,0,0,0,0,0,0,0,0,0,0,0,0,0,0,0,0,0,0,0,0,0,0,0,0,0,0,0,0,0,0,0,0,0,
0,0,0,0,0,0,0,0,0,0,0,0,0,0,0,0,0,0,0,0,0,0,0,0,0,0,0,0,0,0,0,0,0,0,0,0,0,0,0,0,0,0,0,0,0,0,0,0,0,0,0,0,0,0,0,0,0,0,0,0,0,0,0,0,0,0,0,0,0,0,0,0,0,0,0,0,0,0,0,0,0,0,0,0,0,0,0,0,0,0,0,0,0,0,0,0,0,0,0,0,0,0,0,0,0,0,0,0,0,0,0,0,0,0,0,0,0,0,0,0,0,0,0,0,0,0,0,0,0,0,0,0,0,0,0,0,0,0,0,0,0,0,0,0,0,0,0,0,0,0,0,0,0,0,0,0,0,0,0,0,0,0,0,0,0,0,0,0,0,0,0,0,0,0,0,0,0,0,0,0,0,0,0,0,0,0,0,0,0,0,0,0,0,0,0,0,0,0,0,0,0,0,0,0,0,0,0,0,0,0,0,0,0,0,0,0,0,0,0,0,0,0,0,0,0,0,0,0,0,0,0,0,0,0,0,0,0,0,0,0,0,0,0,0,0,0,0,0,0,0,0,0,0,0,0,0,0,0,0,0,0,0,0,0,0,0,0,0,0,0,0,0,0,0,0,0,0,0,0,0,0,0,0,0,0,0,0,0,0,0,0,0,0,0,0,0,0,0,0,0,0,0,0,0,0,0,0,0,
0,0,0,0,0,0,0,0,0,0,0,0,0,0,0,0,0,0,0,0,0,0,0,0,0,0,0,0,0,0,0,0,0,0,0,0,0,0,0,0,0,0,0,0,0,0,0,0,0,0,0,0,0,0,0,0,0,0,0,0,0,0,0,0,0,0,0,0,0,0,0,0,0,0,0,0,0,0,0,0,0,0,0,0,0,0,0,0,0,0,0,0,0,0,0,0,0,0,0,0,0,0,0,0,0,0,0,0,0,0,0,0,0,0,0,0,0,0,0,0,0,0,0,0,0,0,0,0,0,0,0,0,0,0,0,0,0,0,0,0,0,0,0,0,0,0,0,0,0,0,0,0,0,0,0,0,0,0,0,0,0,0,0,0,0,0,0,0,0,0,0,0,0,0,0,0,0,0,0,0,0,0,0,0,0,0,0,0,0,0,0,0,0,0,0,0,0,0,0,0,0,0,0,0,0,0,0,0,0,0,0,0,0,0,0,0,0,0,0,0,0,0,0,0,0,0,0,0,0,0,0,0,0,0,0,0,0,0,0,0,0,0,0,0,0,0,0,0,0,0,0,0,0,0,0,0,0,0,0,0,0,0,0,0,0,0,0,0,0,0,0,0,0,0,0,0,0,0,0,0,0,0,0,0,0,0,0,0,0,0,0,0,0,0,0,0,0,0,0,0,0,0,0,0,0,0,0,0,
0,0,0,0,0,0,0,0,0,0,0,0,0,0,0,0,0,0,0,0,0,0,0,0,0,0,0,0,0,0,0,0,0,0,0,0,0,0,0,0,0,0,0,0,0,0,0,0,0,0,0,0,0,0,0,0,0,0,0,0,0,0,0,0,0,0,0,0,0,0,0,0,0,0,0,0,0,0,0,0,0,0,0,0,0,0,0,0,0,0,0,0,0,0,0,0,0,0,0,0,0,0,0,0,0,0,0,0,0,0,0,0,0,0,0,0,0,0,0,0,0,0,0,0,0,0,0,0,0,0,0,0,0,0,0,0,0,0,0,0,0,0,0,0,0,0,0,0,0,0,0,0,0,0,0,0,0,0,0,0,0,0,0,0,0,0,0,0,0,0,0,0,0,0,0,0,0,0,0,0,0,0,0,0,0,0,0,0,0,0,0,0,0,0,0,0,0,0,0,0,0,0,0,0,0,0,0,0,0,0,0,0,0,0,0,0,0,0,0,0,0,0,0,0,0,0,0,0,0,0,0,0,0,0,0,0,0,0,0,0,0,0,0,0,0,0,0,0,0,0,0,0,0,0,0,0,0,0,0,0,0,0,0,0,0,0,0,0,0,0,0,0,0,0,0,0,0,0,0,0,0,0,0,0,0,0,0,0,0,0,0,0,0,0,0,0,0,0,0,0,0,0,0,0,0,0,0,0,
0,0,0,0,0,0,0,0,0,0,0,0,0,0,0,0,0,0,0,0,0,0,0,0,0,0,0,0,0,0,0,0,0,0,0,0,0,0,0,0,0,0,0,0,0,0,0,0,0,0,0,0,0,0,0,0,0,0,0,0,0,0,0,0,0,0,0,0,0,0,0,0,0,0,0,0,0,0,0,0,0,0,0,0,0,0,0,0,0,0,0,0,0,0,0,0,0,0,0,0,0,0,0,0,0,0,0,0,0,0,0,0,0,0,0,0,0,0,0,0,0,0,0,0,0,0,0,0,0,0,0,0,0,0,0,0,0,0,0,0,0,0,0,0,0,0,0,0,0,0,0,0,0,0,0,0,0,0,0,0,0,0,0,0,0,0,0,0,0,0,0,0,0,0,0,0,0,0,0,0,0,0,0,0,0,0,0,0,0,0,0,0,0,0,0,0,0,0,0,0,0,0,0,0,0,0,0,0,0,0,0,0,0,0,0,0,0,0,0,0,0,0,0,0,0,0,0,0,0,0,0,0,0,0,0,0,0,0,0,0,0,0,0,0,0,0,0,0,0,0,0,0,0,0,0,0,0,0,0,0,0,0,0,0,0,0,0,0,0,0,0,0,0,0,0,0,0,0,0,0,0,0,0,0,0,0,0,0,0,0,0,0,0,0,0,0,0,0,0,0,0,0,0,0,0,0,0,0,
0,0,0,0,0,0,0,0,0,0,0,0,0,0,0,0,0,0,0,0,0,0,0,0,0,0,0,0,0,0,0,0,0,0,0,0,0,0,0,0,0,0,0,0,0,0,0,0,0,0,0,0,0,0,0,0,0,0,0,0,0,0,0,0,0,0,0,0,0,0,0,0,0,0,0,0,0,0,0,0,0,0,0,0,0,0,0,0,0,0,0,0,0,0,0,0,0,0,0,0,0,0,0,0,0,0,0,0,0,0,0,0,0,0,0,0,0,0,0,0,0,0,0,0,0,0,0,0,0,0,0,0,0,0,0,0,0,0,0,0,0,0,0,0,0,0,0,0,0,0,0,0,0,0,0,0,0,0,0,0,0,0,0,0,0,0,0,0,0,0,0,0,0,0,0,0,0,0,0,0,0,0,0,0,0,0,0,0,0,0,0,0,0,0,0,0,0,0,0,0,0,0,0,0,0,0,0,0,0,0,0,0,0,0,0,0,0,0,0,0,0,0,0,0,0,0,0,0,0,0,0,0,0,0,0,0,0,0,0,0,0,0,0,0,0,0,0,0,0,0,0,0,0,0,0,0,0,0,0,0,0,0,0,0,0,0,0,0,0,0,0,0,0,0,0,0,0,0,0,0,0,0,0,0,0,0,0,0,0,0,0,0,0,0,0,0,0,0,0,0,0,0,0,0,0,0,0,0,
0,0,0,0,0,0,0,0,0,0,0,0,0,0,0,0,0,0,0,0,0,0,0,0,0,0,0,0,0,0,0,0,0,0,0,0,0,0,0,0,0,0,0,0,0,0,0,0,0,0,0,0,0,0,0,0,0,0,0,0,0,0,0,0,0,0,0,0,0,0,0,0,0,0,0,0,0,0,0,0,0,0,0,0,0,0,0,0,0,0,0,0,0,0,0,0,0,0,0,0,0,0,0,0,0,0,0,0,0,0,0,0,0,0,0,0,0,0,0,0,0,0,0,0,0,0,0,0,0,0,0,0,0,0,0,0,0,0,0,0,0,0,0,0,0,0,0,0,0,0,0,0,0,0,0,0,0,0,0,0,0,0,0,0,0,0,0,0,0,0,0,0,0,0,0,0,0,0,0,0,0,0,0,0,0,0,0,0,0,0,0,0,0,0,0,0,0,0,0,0,0,0,0,0,0,0,0,0,0,0,0,0,0,0,0,0,0,0,0,0,0,0,0,0,0,0,0,0,0,0,0,0,0,0,0,0,0,0,0,0,0,0,0,0,0,0,0,0,0,0,0,0,0,0,0,0,0,0,0,0,0,0,0,0,0,0,0,0,0,0,0,0,0,0,0,0,0,0,0,0,0,0,0,0,0,0,0,0,0,0,0,0,0,0,0,0,0,0,0,0,0,0,0,0,0,0,0,0,
0,0,0,0,0,0,0,0,0,0,0,0,0,0,0,0,0,0,0,0,0,0,0,0,0,0,0,0,0,0,0,0,0,0,0,0,0,0,0,0,0,0,0,0,0,0,0,0,0,0,0,0,0,0,0,0,0,0,0,0,0,0,0,0,0,0,0,0,0,0,0,0,0,0,0,0,0,0,0,0,0,0,0,0,0,0,0,0,0,0,0,0,0,0,0,0,0,0,0,0,0,0,0,0,0,0,0,0,0,0,0,0,0,0,0,0,0,0,0,0,0,0,0,0,0,0,0,0,0,0,0,0,0,0,0,0,0,0,0,0,0,0,0,0,0,0,0,0,0,0,0,0,0,0,0,0,0,0,0,0,0,0,0,0,0,0,0,0,0,0,0,0,0,0,0,0,0,0,0,0,0,0,0,0,0,0,0,0,0,0,0,0,0,0,0,0,0,0,0,0,0,0,0,0,0,0,0,0,0,0,0,0,0,0,0,0,0,0,0,0,0,0,0,0,0,0,0,0,0,0,0,0,0,0,0,0,0,0,0,0,0,0,0,0,0,0,0,0,0,0,0,0,0,0,0,0,0,0,0,0,0,0,0,0,0,0,0,0,0,0,0,0,0,0,0,0,0,0,0,0,0,0,0,0,0,0,0,0,0,0,0,0,0,0,0,0,0,0,0,0,0,0,0,0,0,0,0,0,
0,0,0,0,0,0,0,0,0,0,0,0,0,0,0,0,0,0,0,0,0,0,0,0,0,0,0,0,0,0,0,0,0,0,0,0,0,0,0,0,0,0,0,0,0,0,0,0,0,0,0,0,0,0,0,0,0,0,0,0,0,0,0,0,0,0,0,0,0,0,0,0,0,0,0,0,0,0,0,0,0,0,0,0,0,0,0,0,0,0,0,0,0,0,0,0,0,0,0,0,0,0,0,0,0,0,0,0,0,0,0,0,0,0,0,0,0,0,0,0,0,0,0,0,0,0,0,0,0,0,0,0,0,0,0,0,0,0,0,0,0,0,0,0,0,0,0,0,0,0,0,0,0,0,0,0,0,0,0,0,0,0,0,0,0,0,0,0,0,0,0,0,0,0,0,0,0,0,0,0,0,0,0,0,0,0,0,0,0,0,0,0,0,0,0,0,0,0,0,0,0,0,0,0,0,0,0,0,0,0,0,0,0,0,0,0,0,0,0,0,0,0,0,0,0,0,0,0,0,0,0,0,0,0,0,0,0,0,0,0,0,0,0,0,0,0,0,0,0,0,0,0,0,0,0,0,0,0,0,0,0,0,0,0,0,0,0,0,0,0,0,0,0,0,0,0,0,0,0,0,0,0,0,0,0,0,0,0,0,0,0,0,0,0,0,0,0,0,0,0,0,0,0,0,0,0,0,0,
0,0,0,0,0,0,0,0,0,0,0,0,0,0,0,0,0,0,0,0,0,0,0,0,0,0,0,0,0,0,0,0,0,0,0,0,0,0,0,0,0,0,0,0,0,0,0,0,0,0,0,0,0,0,0,0,0,0,0,0,0,0,0,0,0,0,0,0,0,0,0,0,0,0,0,0,0,0,0,0,0,0,0,0,0,0,0,0,0,0,0,0,0,0,0,0,0,0,0,0,0,0,0,0,0,0,0,0,0,0,0,0,0,0,0,0,0,0,0,0,0,0,0,0,0,0,0,0,0,0,0,0,0,0,0,0,0,0,0,0,0,0,0,0,0,0,0,0,0,0,0,0,0,0,0,0,0,0,0,0,0,0,0,0,0,0,0,0,0,0,0,0,0,0,0,0,0,0,0,0,0,0,0,0,0,0,0,0,0,0,0,0,0,0,0,0,0,0,0,0,0,0,0,0,0,0,0,0,0,0,0,0,0,0,0,0,0,0,0,0,0,0,0,0,0,0,0,0,0,0,0,0,0,0,0,0,0,0,0,0,0,0,0,0,0,0,0,0,0,0,0,0,0,0,0,0,0,0,0,0,0,0,0,0,0,0,0,0,0,0,0,0,0,0,0,0,0,0,0,0,0,0,0,0,0,0,0,0,0,0,0,0,0,0,0,0,0,0,0,0,0,0,0,0,0,0,0,0,
0,0,0,0,0,0,0,0,0,0,0,0,0,0,0,0,0,0,0,0,0,0,0,0,0,0,0,0,0,0,0,0,0,0,0,0,0,0,0,0,0,0,0,0,0,0,0,0,0,0,0,0,0,0,0,0,0,0,0,0,0,0,0,0,0,0,0,0,0,0,0,0,0,0,0,0,0,0,0,0,0,0,0,0,0,0,0,0,0,0,0,0,0,0,0,0,0,0,0,0,0,0,0,0,0,0,0,0,0,0,0,0,0,0,0,0,0,0,0,0,0,0,0,0,0,0,0,0,0,0,0,0,0,0,0,0,0,0,0,0,0,0,0,0,0,0,0,0,0,0,0,0,0,0,0,0,0,0,0,0,0,0,0,0,0,0,0,0,0,0,0,0,0,0,0,0,0,0,0,0,0,0,0,0,0,0,0,0,0,0,0,0,0,0,0,0,0,0,0,0,0,0,0,0,0,0,0,0,0,0,0,0,0,0,0,0,0,0,0,0,0,0,0,0,0,0,0,0,0,0,0,0,0,0,0,0,0,0,0,0,0,0,0,0,0,0,0,0,0,0,0,0,0,0,0,0,0,0,0,0,0,0,0,0,0,0,0,0,0,0,0,0,0,0,0,0,0,0,0,0,0,0,0,0,0,0,0,0,0,0,0,0,0,0,0,0,0,0,0,0,0,0,0,0,0,0,0,0,
0,0,0,0,0,0,0,0,0,0,0,0,0,0,0,0,0,0,0,0,0,0,0,0,0,0,0,0,0,0,0,0,0,0,0,0,0,0,0,0,0,0,0,0,0,0,0,0,0,0,0,0,0,0,0,0,0,0,0,0,0,0,0,0,0,0,0,0,0,0,0,0,0,0,0,0,0,0,0,0,0,0,0,0,0,0,0,0,0,0,0,0,0,0,0,0,0,0,0,0,0,0,0,0,0,0,0,0,0,0,0,0,0,0,0,0,0,0,0,0,0,0,0,0,0,0,0,0,0,0,0,0,0,0,0,0,0,0,0,0,0,0,0,0,0,0,0,0,0,0,0,0,0,0,0,0,0,0,0,0,0,0,0,0,0,0,0,0,0,0,0,0,0,0,0,0,0,0,0,0,0,0,0,0,0,0,0,0,0,0,0,0,0,0,0,0,0,0,0,0,0,0,0,0,0,0,0,0,0,0,0,0,0,0,0,0,0,0,0,0,0,0,0,0,0,0,0,0,0,0,0,0,0,0,0,0,0,0,0,0,0,0,0,0,0,0,0,0,0,0,0,0,0,0,0,0,0,0,0,0,0,0,0,0,0,0,0,0,0,0,0,0,0,0,0,0,0,0,0,0,0,0,0,0,0,0,0,0,0,0,0,0,0,0,0,0,0,0,0,0,0,0,0,0,0,0,0,0,
0,0,0,0,0,0,0,0,0,0,0,0,0,0,0,0,0,0,0,0,0,0,0,0,0,0,0,0,0,0,0,0,0,0,0,0,0,0,0,0,0,0,0,0,0,0,0,0,0,0,0,0,0,0,0,0,0,0,0,0,0,0,0,0,0,0,0,0,0,0,0,0,0,0,0,0,0,0,0,0,0,0,0,0,0,0,0,0,0,0,0,0,0,0,0,0,0,0,0,0,0,0,0,0,0,0,0,0,0,0,0,0,0,0,0,0,0,0,0,0,0,0,0,0,0,0,0,0,0,0,0,0,0,0,0,0,0,0,0,0,0,0,0,0,0,0,0,0,0,0,0,0,0,0,0,0,0,0,0,0,0,0,0,0,0,0,0,0,0,0,0,0,0,0,0,0,0,0,0,0,0,0,0,0,0,0,0,0,0,0,0,0,0,0,0,0,0,0,0,0,0,0,0,0,0,0,0,0,0,0,0,0,0,0,0,0,0,0,0,0,0,0,0,0,0,0,0,0,0,0,0,0,0,0,0,0,0,0,0,0,0,0,0,0,0,0,0,0,0,0,0,0,0,0,0,0,0,0,0,0,0,0,0,0,0,0,0,0,0,0,0,0,0,0,0,0,0,0,0,0,0,0,0,0,0,0,0,0,0,0,0,0,0,0,0,0,0,0,0,0,0,0,0,0,0,0,0,0,
0,0,0,0,0,0,0,0,0,0,0,0,0,0,0,0,0,0,0,0,0,0,0,0,0,0,0,0,0,0,0,0,0,0,0,0,0,0,0,0,0,0,0,0,0,0,0,0,0,0,0,0,0,0,0,0,0,0,0,0,0,0,0,0,0,0,0,0,0,0,0,0,0,0,0,0,0,0,0,0,0,0,0,0,0,0,0,0,0,0,0,0,0,0,0,0,0,0,0,0,0,0,0,0,0,0,0,0,0,0,0,0,0,0,0,0,0,0,0,0,0,0,0,0,0,0,0,0,0,0,0,0,0,0,0,0,0,0,0,0,0,0,0,0,0,0,0,0,0,0,0,0,0,0,0,0,0,0,0,0,0,0,0,0,0,0,0,0,0,0,0,0,0,0,0,0,0,0,0,0,0,0,0,0,0,0,0,0,0,0,0,0,0,0,0,0,0,0,0,0,0,0,0,0,0,0,0,0,0,0,0,0,0,0,0,0,0,0,0,0,0,0,0,0,0,0,0,0,0,0,0,0,0,0,0,0,0,0,0,0,0,0,0,0,0,0,0,0,0,0,0,0,0,0,0,0,0,0,0,0,0,0,0,0,0,0,0,0,0,0,0,0,0,0,0,0,0,0,0,0,0,0,0,0,0,0,0,0,0,0,0,0,0,0,0,0,0,0,0,0,0,0,0,0,0,0,0,0,
0,0,0,0,0,0,0,0,0,0,0,0,0,0,0,0,0,0,0,0,0,0,0,0,0,0,0,0,0,0,0,0,0,0,0,0,0,0,0,0,0,0,0,0,0,0,0,0,0,0,0,0,0,0,0,0,0,0,0,0,0,0,0,0,0,0,0,0,0,0,0,0,0,0,0,0,0,0,0,0,0,0,0,0,0,0,0,0,0,0,0,0,0,0,0,0,0,0,0,0,0,0,0,0,0,0,0,0,0,0,0,0,0,0,0,0,0,0,0,0,0,0,0,0,0,0,0,0,0,0,0,0,0,0,0,0,0,0,0,0,0,0,0,0,0,0,0,0,0,0,0,0,0,0,0,0,0,0,0,0,0,0,0,0,0,0,0,0,0,0,0,0,0,0,0,0,0,0,0,0,0,0,0,0,0,0,0,0,0,0,0,0,0,0,0,0,0,0,0,0,0,0,0,0,0,0,0,0,0,0,0,0,0,0,0,0,0,0,0,0,0,0,0,0,0,0,0,0,0,0,0,0,0,0,0,0,0,0,0,0,0,0,0,0,0,0,0,0,0,0,0,0,0,0,0,0,0,0,0,0,0,0,0,0,0,0,0,0,0,0,0,0,0,0,0,0,0,0,0,0,0,0,0,0,0,0,0,0,0,0,0,0,0,0,0,0,0,0,0,0,0,0,0,0,0,0,0,0,
0,0,0,0,0,0,0,0,0,0,0,0,0,0,0,0,0,0,0,0,0,0,0,0,0,0,0,0,0,0,0,0,0,0,0,0,0,0,0,0,0,0,0,0,0,0,0,0,0,0,0,0,0,0,0,0,0,0,0,0,0,0,0,0,0,0,0,0,0,0,0,0,0,0,0,0,0,0,0,0,0,0,0,0,0,0,0,0,0,0,0,0,0,0,0,0,0,0,0,0,0,0,0,0,0,0,0,0,0,0,0,0,0,0,0,0,0,0,0,0,0,0,0,0,0,0,0,0,0,0,0,0,0,0,0,0,0,0,0,0,0,0,0,0,0,0,0,0,0,0,0,0,0,0,0,0,0,0,0,0,0,0,0,0,0,0,0,0,0,0,0,0,0,0,0,0,0,0,0,0,0,0,0,0,0,0,0,0,0,0,0,0,0,0,0,0,0,0,0,0,0,0,0,0,0,0,0,0,0,0,0,0,0,0,0,0,0,0,0,0,0,0,0,0,0,0,0,0,0,0,0,0,0,0,0,0,0,0,0,0,0,0,0,0,0,0,0,0,0,0,0,0,0,0,0,0,0,0,0,0,0,0,0,0,0,0,0,0,0,0,0,0,0,0,0,0,0,0,0,0,0,0,0,0,0,0,0,0,0,0,0,0,0,0,0,0,0,0,0,0,0,0,0,0,0,0,0,0,
0,0,0,0,0,0,0,0,0,0,0,0,0,0,0,0,0,0,0,0,0,0,0,0,0,0,0,0,0,0,0,0,0,0,0,0,0,0,0,0,0,0,0,0,0,0,0,0,0,0,0,0,0,0,0,0,0,0,0,0,0,0,0,0,0,0,0,0,0,0,0,0,0,0,0,0,0,0,0,0,0,0,0,0,0,0,0,0,0,0,0,0,0,0,0,0,0,0,0,0,0,0,0,0,0,0,0,0,0,0,0,0,0,0,0,0,0,0,0,0,0,0,0,0,0,0,0,0,0,0,0,0,0,0,0,0,0,0,0,0,0,0,0,0,0,0,0,0,0,0,0,0,0,0,0,0,0,0,0,0,0,0,0,0,0,0,0,0,0,0,0,0,0,0,0,0,0,0,0,0,0,0,0,0,0,0,0,0,0,0,0,0,0,0,0,0,0,0,0,0,0,0,0,0,0,0,0,0,0,0,0,0,0,0,0,0,0,0,0,0,0,0,0,0,0,0,0,0,0,0,0,0,0,0,0,0,0,0,0,0,0,0,0,0,0,0,0,0,0,0,0,0,0,0,0,0,0,0,0,0,0,0,0,0,0,0,0,0,0,0,0,0,0,0,0,0,0,0,0,0,0,0,0,0,0,0,0,0,0,0,0,0,0,0,0,0,0,0,0,0,0,0,0,0,0,0,0,0,
0,0,0,0,0,0,0,0,0,0,0,0,0,0,0,0,0,0,0,0,0,0,0,0,0,0,0,0,0,0,0,0,0,0,0,0,0,0,0,0,0,0,0,0,0,0,0,0,0,0,0,0,0,0,0,0,0,0,0,0,0,0,0,0,0,0,0,0,0,0,0,0,0,0,0,0,0,0,0,0,0,0,0,0,0,0,0,0,0,0,0,0,0,0,0,0,0,0,0,0,0,0,0,0,0,0,0,0,0,0,0,0,0,0,0,0,0,0,0,0,0,0,0,0,0,0,0,0,0,0,0,0,0,0,0,0,0,0,0,0,0,0,0,0,0,0,0,0,0,0,0,0,0,0,0,0,0,0,0,0,0,0,0,0,0,0,0,0,0,0,0,0,0,0,0,0,0,0,0,0,0,0,0,0,0,0,0,0,0,0,0,0,0,0,0,0,0,0,0,0,0,0,0,0,0,0,0,0,0,0,0,0,0,0,0,0,0,0,0,0,0,0,0,0,0,0,0,0,0,0,0,0,0,0,0,0,0,0,0,0,0,0,0,0,0,0,0,0,0,0,0,0,0,0,0,0,0,0,0,0,0,0,0,0,0,0,0,0,0,0,0,0,0,0,0,0,0,0,0,0,0,0,0,0,0,0,0,0,0,0,0,0,0,0,0,0,0,0,0,0,0,0,0,0,0,0,0,0,
0,0,0,0,0,0,0,0,0,0,0,0,0,0,0,0,0,0,0,0,0,0,0,0,0,0,0,0,0,0,0,0,0,0,0,0,0,0,0,0,0,0,0,0,0,0,0,0,0,0,0,0,0,0,0,0,0,0,0,0,0,0,0,0,0,0,0,0,0,0,0,0,0,0,0,0,0,0,0,0,0,0,0,0,0,0,0,0,0,0,0,0,0,0,0,0,0,0,0,0,0,0,0,0,0,0,0,0,0,0,0,0,0,0,0,0,0,0,0,0,0,0,0,0,0,0,0,0,0,0,0,0,0,0,0,0,0,0,0,0,0,0,0,0,0,0,0,0,0,0,0,0,0,0,0,0,0,0,0,0,0,0,0,0,0,0,0,0,0,0,0,0,0,0,0,0,0,0,0,0,0,0,0,0,0,0,0,0,0,0,0,0,0,0,0,0,0,0,0,0,0,0,0,0,0,0,0,0,0,0,0,0,0,0,0,0,0,0,0,0,0,0,0,0,0,0,0,0,0,0,0,0,0,0,0,0,0,0,0,0,0,0,0,0,0,0,0,0,0,0,0,0,0,0,0,0,0,0,0,0,0,0,0,0,0,0,0,0,0,0,0,0,0,0,0,0,0,0,0,0,0,0,0,0,0,0,0,0,0,0,0,0,0,0,0,0,0,0,0,0,0,0,0,0,0,0,0,0,
0,0,0,0,0,0,0,0,0,0,0,0,0,0,0,0,0,0,0,0,0,0,0,0,0,0,0,0,0,0,0,0,0,0,0,0,0,0,0,0,0,0,0,0,0,0,0,0,0,0,0,0,0,0,0,0,0,0,0,0,0,0,0,0,0,0,0,0,0,0,0,0,0,0,0,0,0,0,0,0,0,0,0,0,0,0,0,0,0,0,0,0,0,0,0,0,0,0,0,0,0,0,0,0,0,0,0,0,0,0,0,0,0,0,0,0,0,0,0,0,0,0,0,0,0,0,0,0,0,0,0,0,0,0,0,0,0,0,0,0,0,0,0,0,0,0,0,0,0,0,0,0,0,0,0,0,0,0,0,0,0,0,0,0,0,0,0,0,0,0,0,0,0,0,0,0,0,0,0,0,0,0,0,0,0,0,0,0,0,0,0,0,0,0,0,0,0,0,0,0,0,0,0,0,0,0,0,0,0,0,0,0,0,0,0,0,0,0,0,0,0,0,0,0,0,0,0,0,0,0,0,0,0,0,0,0,0,0,0,0,0,0,0,0,0,0,0,0,0,0,0,0,0,0,0,0,0,0,0,0,0,0,0,0,0,0,0,0,0,0,0,0,0,0,0,0,0,0,0,0,0,0,0,0,0,0,0,0,0,0,0,0,0,0,0,0,0,0,0,0,0,0,0,0,0,0,0,0,
0,0,0,0,0,0,0,0,0,0,0,0,0,0,0,0,0,0,0,0,0,0,0,0,0,0,0,0,0,0,0,0,0,0,0,0,0,0,0,0,0,0,0,0,0,0,0,0,0,0,0,0,0,0,0,0,0,0,0,0,0,0,0,0,0,0,0,0,0,0,0,0,0,0,0,0,0,0,0,0,0,0,0,0,0,0,0,0,0,0,0,0,0,0,0,0,0,0,0,0,0,0,0,0,0,0,0,0,0,0,0,0,0,0,0,0,0,0,0,0,0,0,0,0,0,0,0,0,0,0,0,0,0,0,0,0,0,0,0,0,0,0,0,0,0,0,0,0,0,0,0,0,0,0,0,0,0,0,0,0,0,0,0,0,0,0,0,0,0,0,0,0,0,0,0,0,0,0,0,0,0,0,0,0,0,0,0,0,0,0,0,0,0,0,0,0,0,0,0,0,0,0,0,0,0,0,0,0,0,0,0,0,0,0,0,0,0,0,0,0,0,0,0,0,0,0,0,0,0,0,0,0,0,0,0,0,0,0,0,0,0,0,0,0,0,0,0,0,0,0,0,0,0,0,0,0,0,0,0,0,0,0,0,0,0,0,0,0,0,0,0,0,0,0,0,0,0,0,0,0,0,0,0,0,0,0,0,0,0,0,0,0,0,0,0,0,0,0,0,0,0,0,0,0,0,0,0,0,
0,0,0,0,0,0,0,0,0,0,0,0,0,0,0,0,0,0,0,0,0,0,0,0,0,0,0,0,0,0,0,0,0,0,0,0,0,0,0,0,0,0,0,0,0,0,0,0,0,0,0,0,0,0,0,0,0,0,0,0,0,0,0,0,0,0,0,0,0,0,0,0,0,0,0,0,0,0,0,0,0,0,0,0,0,0,0,0,0,0,0,0,0,0,0,0,0,0,0,0,0,0,0,0,0,0,0,0,0,0,0,0,0,0,0,0,0,0,0,0,0,0,0,0,0,0,0,0,0,0,0,0,0,0,0,0,0,0,0,0,0,0,0,0,0,0,0,0,0,0,0,0,0,0,0,0,0,0,0,0,0,0,0,0,0,0,0,0,0,0,0,0,0,0,0,0,0,0,0,0,0,0,0,0,0,0,0,0,0,0,0,0,0,0,0,0,0,0,0,0,0,0,0,0,0,0,0,0,0,0,0,0,0,0,0,0,0,0,0,0,0,0,0,0,0,0,0,0,0,0,0,0,0,0,0,0,0,0,0,0,0,0,0,0,0,0,0,0,0,0,0,0,0,0,0,0,0,0,0,0,0,0,0,0,0,0,0,0,0,0,0,0,0,0,0,0,0,0,0,0,0,0,0,0,0,0,0,0,0,0,0,0,0,0,0,0,0,0,0,0,0,0,0,0,0,0,0,0,
0,0,0,0,0,0,0,0,0,0,0,0,0,0,0,0,0,0,0,0,0,0,0,0,0,0,0,0,0,0,0,0,0,0,0,0,0,0,0,0,0,0,0,0,0,0,0,0,0,0,0,0,0,0,0,0,0,0,0,0,0,0,0,0,0,0,0,0,0,0,0,0,0,0,0,0,0,0,0,0,0,0,0,0,0,0,0,0,0,0,0,0,0,0,0,0,0,0,0,0,0,0,0,0,0,0,0,0,0,0,0,0,0,0,0,0,0,0,0,0,0,0,0,0,0,0,0,0,0,0,0,0,0,0,0,0,0,0,0,0,0,0,0,0,0,0,0,0,0,0,0,0,0,0,0,0,0,0,0,0,0,0,0,0,0,0,0,0,0,0,0,0,0,0,0,0,0,0,0,0,0,0,0,0,0,0,0,0,0,0,0,0,0,0,0,0,0,0,0,0,0,0,0,0,0,0,0,0,0,0,0,0,0,0,0,0,0,0,0,0,0,0,0,0,0,0,0,0,0,0,0,0,0,0,0,0,0,0,0,0,0,0,0,0,0,0,0,0,0,0,0,0,0,0,0,0,0,0,0,0,0,0,0,0,0,0,0,0,0,0,0,0,0,0,0,0,0,0,0,0,0,0,0,0,0,0,0,0,0,0,0,0,0,0,0,0,0,0,0,0,0,0,0,0,0,0,0,0,
0,0,0,0,0,0,0,0,0,0,0,0,0,0,0,0,0,0,0,0,0,0,0,0,0,0,0,0,0,0,0,0,0,0,0,0,0,0,0,0,0,0,0,0,0,0,0,0,0,0,0,0,0,0,0,0,0,0,0,0,0,0,0,0,0,0,0,0,0,0,0,0,0,0,0,0,0,0,0,0,0,0,0,0,0,0,0,0,0,0,0,0,0,0,0,0,0,0,0,0,0,0,0,0,0,0,0,0,0,0,0,0,0,0,0,0,0,0,0,0,0,0,0,0,0,0,0,0,0,0,0,0,0,0,0,0,0,0,0,0,0,0,0,0,0,0,0,0,0,0,0,0,0,0,0,0,0,0,0,0,0,0,0,0,0,0,0,0,0,0,0,0,0,0,0,0,0,0,0,0,0,0,0,0,0,0,0,0,0,0,0,0,0,0,0,0,0,0,0,0,0,0,0,0,0,0,0,0,0,0,0,0,0,0,0,0,0,0,0,0,0,0,0,0,0,0,0,0,0,0,0,0,0,0,0,0,0,0,0,0,0,0,0,0,0,0,0,0,0,0,0,0,0,0,0,0,0,0,0,0,0,0,0,0,0,0,0,0,0,0,0,0,0,0,0,0,0,0,0,0,0,0,0,0,0,0,0,0,0,0,0,0,0,0,0,0,0,0,0,0,0,0,0,0,0,0,0,0,
0,0,0,0,0,0,0,0,0,0,0,0,0,0,0,0,0,0,0,0,0,0,0,0,0,0,0,0,0,0,0,0,0,0,0,0,0,0,0,0,0,0,0,0,0,0,0,0,0,0,0,0,0,0,0,0,0,0,0,0,0,0,0,0,0,0,0,0,0,0,0,0,0,0,0,0,0,0,0,0,0,0,0,0,0,0,0,0,0,0,0,0,0,0,0,0,0,0,0,0,0,0,0,0,0,0,0,0,0,0,0,0,0,0,0,0,0,0,0,0,0,0,0,0,0,0,0,0,0,0,0,0,0,0,0,0,0,0,0,0,0,0,0,0,0,0,0,0,0,0,0,0,0,0,0,0,0,0,0,0,0,0,0,0,0,0,0,0,0,0,0,0,0,0,0,0,0,0,0,0,0,0,0,0,0,0,0,0,0,0,0,0,0,0,0,0,0,0,0,0,0,0,0,0,0,0,0,0,0,0,0,0,0,0,0,0,0,0,0,0,0,0,0,0,0,0,0,0,0,0,0,0,0,0,0,0,0,0,0,0,0,0,0,0,0,0,0,0,0,0,0,0,0,0,0,0,0,0,0,0,0,0,0,0,0,0,0,0,0,0,0,0,0,0,0,0,0,0,0,0,0,0,0,0,0,0,0,0,0,0,0,0,0,0,0,0,0,0,0,0,0,0,0,0,0,0,0,0,
0,0,0,0,0,0,0,0,0,0,0,0,0,0,0,0,0,0,0,0,0,0,0,0,0,0,0,0,0,0,0,0,0,0,0,0,0,0,0,0,0,0,0,0,0,0,0,0,0,0,0,0,0,0,0,0,0,0,0,0,0,0,0,0,0,0,0,0,0,0,0,0,0,0,0,0,0,0,0,0,0,0,0,0,0,0,0,0,0,0,0,0,0,0,0,0,0,0,0,0,0,0,0,0,0,0,0,0,0,0,0,0,0,0,0,0,0,0,0,0,0,0,0,0,0,0,0,0,0,0,0,0,0,0,0,0,0,0,0,0,0,0,0,0,0,0,0,0,0,0,0,0,0,0,0,0,0,0,0,0,0,0,0,0,0,0,0,0,0,0,0,0,0,0,0,0,0,0,0,0,0,0,0,0,0,0,0,0,0,0,0,0,0,0,0,0,0,0,0,0,0,0,0,0,0,0,0,0,0,0,0,0,0,0,0,0,0,0,0,0,0,0,0,0,0,0,0,0,0,0,0,0,0,0,0,0,0,0,0,0,0,0,0,0,0,0,0,0,0,0,0,0,0,0,0,0,0,0,0,0,0,0,0,0,0,0,0,0,0,0,0,0,0,0,0,0,0,0,0,0,0,0,0,0,0,0,0,0,0,0,0,0,0,0,0,0,0,0,0,0,0,0,0,0,0,0,0,0,
0,0,0,0,0,0,0,0,0,0,0,0,0,0,0,0,0,0,0,0,0,0,0,0,0,0,0,0,0,0,0,0,0,0,0,0,0,0,0,0,0,0,0,0,0,0,0,0,0,0,0,0,0,0,0,0,0,0,0,0,0,0,0,0,0,0,0,0,0,0,0,0,0,0,0,0,0,0,0,0,0,0,0,0,0,0,0,0,0,0,0,0,0,0,0,0,0,0,0,0,0,0,0,0,0,0,0,0,0,0,0,0,0,0,0,0,0,0,0,0,0,0,0,0,0,0,0,0,0,0,0,0,0,0,0,0,0,0,0,0,0,0,0,0,0,0,0,0,0,0,0,0,0,0,0,0,0,0,0,0,0,0,0,0,0,0,0,0,0,0,0,0,0,0,0,0,0,0,0,0,0,0,0,0,0,0,0,0,0,0,0,0,0,0,0,0,0,0,0,0,0,0,0,0,0,0,0,0,0,0,0,0,0,0,0,0,0,0,0,0,0,0,0,0,0,0,0,0,0,0,0,0,0,0,0,0,0,0,0,0,0,0,0,0,0,0,0,0,0,0,0,0,0,0,0,0,0,0,0,0,0,0,0,0,0,0,0,0,0,0,0,0,0,0,0,0,0,0,0,0,0,0,0,0,0,0,0,0,0,0,0,0,0,0,0,0,0,0,0,0,0,0,0,0,0,0,0,0,
0,0,0,0,0,0,0,0,0,0,0,0,0,0,0,0,0,0,0,0,0,0,0,0,0,0,0,0,0,0,0,0,0,0,0,0,0,0,0,0,0,0,0,0,0,0,0,0,0,0,0,0,0,0,0,0,0,0,0,0,0,0,0,0,0,0,0,0,0,0,0,0,0,0,0,0,0,0,0,0,0,0,0,0,0,0,0,0,0,0,0,0,0,0,0,0,0,0,0,0,0,0,0,0,0,0,0,0,0,0,0,0,0,0,0,0,0,0,0,0,0,0,0,0,0,0,0,0,0,0,0,0,0,0,0,0,0,0,0,0,0,0,0,0,0,0,0,0,0,0,0,0,0,0,0,0,0,0,0,0,0,0,0,0,0,0,0,0,0,0,0,0,0,0,0,0,0,0,0,0,0,0,0,0,0,0,0,0,0,0,0,0,0,0,0,0,0,0,0,0,0,0,0,0,0,0,0,0,0,0,0,0,0,0,0,0,0,0,0,0,0,0,0,0,0,0,0,0,0,0,0,0,0,0,0,0,0,0,0,0,0,0,0,0,0,0,0,0,0,0,0,0,0,0,0,0,0,0,0,0,0,0,0,0,0,0,0,0,0,0,0,0,0,0,0,0,0,0,0,0,0,0,0,0,0,0,0,0,0,0,0,0,0,0,0,0,0,0,0,0,0,0,0,0,0,0,0,0,
0,0,0,0,0,0,0,0,0,0,0,0,0,0,0,0,0,0,0,0,0,0,0,0,0,0,0,0,0,0,0,0,0,0,0,0,0,0,0,0,0,0,0,0,0,0,0,0,0,0,0,0,0,0,0,0,0,0,0,0,0,0,0,0,0,0,0,0,0,0,0,0,0,0,0,0,0,0,0,0,0,0,0,0,0,0,0,0,0,0,0,0,0,0,0,0,0,0,0,0,0,0,0,0,0,0,0,0,0,0,0,0,0,0,0,0,0,0,0,0,0,0,0,0,0,0,0,0,0,0,0,0,0,0,0,0,0,0,0,0,0,0,0,0,0,0,0,0,0,0,0,0,0,0,0,0,0,0,0,0,0,0,0,0,0,0,0,0,0,0,0,0,0,0,0,0,0,0,0,0,0,0,0,0,0,0,0,0,0,0,0,0,0,0,0,0,0,0,0,0,0,0,0,0,0,0,0,0,0,0,0,0,0,0,0,0,0,0,0,0,0,0,0,0,0,0,0,0,0,0,0,0,0,0,0,0,0,0,0,0,0,0,0,0,0,0,0,0,0,0,0,0,0,0,0,0,0,0,0,0,0,0,0,0,0,0,0,0,0,0,0,0,0,0,0,0,0,0,0,0,0,0,0,0,0,0,0,0,0,0,0,0,0,0,0,0,0,0,0,0,0,0,0,0,0,0,0,0,
0,0,0,0,0,0,0,0,0,0,0,0,0,0,0,0,0,0,0,0,0,0,0,0,0,0,0,0,0,0,0,0,0,0,0,0,0,0,0,0,0,0,0,0,0,0,0,0,0,0,0,0,0,0,0,0,0,0,0,0,0,0,0,0,0,0,0,0,0,0,0,0,0,0,0,0,0,0,0,0,0,0,0,0,0,0,0,0,0,0,0,0,0,0,0,0,0,0,0,0,0,0,0,0,0,0,0,0,0,0,0,0,0,0,0,0,0,0,0,0,0,0,0,0,0,0,0,0,0,0,0,0,0,0,0,0,0,0,0,0,0,0,0,0,0,0,0,0,0,0,0,0,0,0,0,0,0,0,0,0,0,0,0,0,0,0,0,0,0,0,0,0,0,0,0,0,0,0,0,0,0,0,0,0,0,0,0,0,0,0,0,0,0,0,0,0,0,0,0,0,0,0,0,0,0,0,0,0,0,0,0,0,0,0,0,0,0,0,0,0,0,0,0,0,0,0,0,0,0,0,0,0,0,0,0,0,0,0,0,0,0,0,0,0,0,0,0,0,0,0,0,0,0,0,0,0,0,0,0,0,0,0,0,0,0,0,0,0,0,0,0,0,0,0,0,0,0,0,0,0,0,0,0,0,0,0,0,0,0,0,0,0,0,0,0,0,0,0,0,0,0,0,0,0,0,0,0,0,
0,0,0,0,0,0,0,0,0,0,0,0,0,0,0,0,0,0,0,0,0,0,0,0,0,0,0,0,0,0,0,0,0,0,0,0,0,0,0,0,0,0,0,0,0,0,0,0,0,0,0,0,0,0,0,0,0,0,0,0,0,0,0,0,0,0,0,0,0,0,0,0,0,0,0,0,0,0,0,0,0,0,0,0,0,0,0,0,0,0,0,0,0,0,0,0,0,0,0,0,0,0,0,0,0,0,0,0,0,0,0,0,0,0,0,0,0,0,0,0,0,0,0,0,0,0,0,0,0,0,0,0,0,0,0,0,0,0,0,0,0,0,0,0,0,0,0,0,0,0,0,0,0,0,0,0,0,0,0,0,0,0,0,0,0,0,0,0,0,0,0,0,0,0,0,0,0,0,0,0,0,0,0,0,0,0,0,0,0,0,0,0,0,0,0,0,0,0,0,0,0,0,0,0,0,0,0,0,0,0,0,0,0,0,0,0,0,0,0,0,0,0,0,0,0,0,0,0,0,0,0,0,0,0,0,0,0,0,0,0,0,0,0,0,0,0,0,0,0,0,0,0,0,0,0,0,0,0,0,0,0,0,0,0,0,0,0,0,0,0,0,0,0,0,0,0,0,0,0,0,0,0,0,0,0,0,0,0,0,0,0,0,0,0,0,0,0,0,0,0,0,0,0,0,0,0,0,0,
0,0,0,0,0,0,0,0,0,0,0,0,0,0,0,0,0,0,0,0,0,0,0,0,0,0,0,0,0,0,0,0,0,0,0,0,0,0,0,0,0,0,0,0,0,0,0,0,0,0,0,0,0,0,0,0,0,0,0,0,0,0,0,0,0,0,0,0,0,0,0,0,0,0,0,0,0,0,0,0,0,0,0,0,0,0,0,0,0,0,0,0,0,0,0,0,0,0,0,0,0,0,0,0,0,0,0,0,0,0,0,0,0,0,0,0,0,0,0,0,0,0,0,0,0,0,0,0,0,0,0,0,0,0,0,0,0,0,0,0,0,0,0,0,0,0,0,0,0,0,0,0,0,0,0,0,0,0,0,0,0,0,0,0,0,0,0,0,0,0,0,0,0,0,0,0,0,0,0,0,0,0,0,0,0,0,0,0,0,0,0,0,0,0,0,0,0,0,0,0,0,0,0,0,0,0,0,0,0,0,0,0,0,0,0,0,0,0,0,0,0,0,0,0,0,0,0,0,0,0,0,0,0,0,0,0,0,0,0,0,0,0,0,0,0,0,0,0,0,0,0,0,0,0,0,0,0,0,0,0,0,0,0,0,0,0,0,0,0,0,0,0,0,0,0,0,0,0,0,0,0,0,0,0,0,0,0,0,0,0,0,0,0,0,0,0,0,0,0,0,0,0,0,0,0,0,0,0,
0,0,0,0,0,0,0,0,0,0,0,0,0,0,0,0,0,0,0,0,0,0,0,0,0,0,0,0,0,0,0,0,0,0,0,0,0,0,0,0,0,0,0,0,0,0,0,0,0,0,0,0,0,0,0,0,0,0,0,0,0,0,0,0,0,0,0,0,0,0,0,0,0,0,0,0,0,0,0,0,0,0,0,0,0,0,0,0,0,0,0,0,0,0,0,0,0,0,0,0,0,0,0,0,0,0,0,0,0,0,0,0,0,0,0,0,0,0,0,0,0,0,0,0,0,0,0,0,0,0,0,0,0,0,0,0,0,0,0,0,0,0,0,0,0,0,0,0,0,0,0,0,0,0,0,0,0,0,0,0,0,0,0,0,0,0,0,0,0,0,0,0,0,0,0,0,0,0,0,0,0,0,0,0,0,0,0,0,0,0,0,0,0,0,0,0,0,0,0,0,0,0,0,0,0,0,0,0,0,0,0,0,0,0,0,0,0,0,0,0,0,0,0,0,0,0,0,0,0,0,0,0,0,0,0,0,0,0,0,0,0,0,0,0,0,0,0,0,0,0,0,0,0,0,0,0,0,0,0,0,0,0,0,0,0,0,0,0,0,0,0,0,0,0,0,0,0,0,0,0,0,0,0,0,0,0,0,0,0,0,0,0,0,0,0,0,0,0,0,0,0,0,0,0,0,0,0,0,
0,0,0,0,0,0,0,0,0,0,0,0,0,0,0,0,0,0,0,0,0,0,0,0,0,0,0,0,0,0,0,0,0,0,0,0,0,0,0,0,0,0,0,0,0,0,0,0,0,0,0,0,0,0,0,0,0,0,0,0,0,0,0,0,0,0,0,0,0,0,0,0,0,0,0,0,0,0,0,0,0,0,0,0,0,0,0,0,0,0,0,0,0,0,0,0,0,0,0,0,0,0,0,0,0,0,0,0,0,0,0,0,0,0,0,0,0,0,0,0,0,0,0,0,0,0,0,0,0,0,0,0,0,0,0,0,0,0,0,0,0,0,0,0,0,0,0,0,0,0,0,0,0,0,0,0,0,0,0,0,0,0,0,0,0,0,0,0,0,0,0,0,0,0,0,0,0,0,0,0,0,0,0,0,0,0,0,0,0,0,0,0,0,0,0,0,0,0,0,0,0,0,0,0,0,0,0,0,0,0,0,0,0,0,0,0,0,0,0,0,0,0,0,0,0,0,0,0,0,0,0,0,0,0,0,0,0,0,0,0,0,0,0,0,0,0,0,0,0,0,0,0,0,0,0,0,0,0,0,0,0,0,0,0,0,0,0,0,0,0,0,0,0,0,0,0,0,0,0,0,0,0,0,0,0,0,0,0,0,0,0,0,0,0,0,0,0,0,0,0,0,0,0,0,0,0,0,0,
0,0,0,0,0,0,0,0,0,0,0,0,0,0,0,0,0,0,0,0,0,0,0,0,0,0,0,0,0,0,0,0,0,0,0,0,0,0,0,0,0,0,0,0,0,0,0,0,0,0,0,0,0,0,0,0,0,0,0,0,0,0,0,0,0,0,0,0,0,0,0,0,0,0,0,0,0,0,0,0,0,0,0,0,0,0,0,0,0,0,0,0,0,0,0,0,0,0,0,0,0,0,0,0,0,0,0,0,0,0,0,0,0,0,0,0,0,0,0,0,0,0,0,0,0,0,0,0,0,0,0,0,0,0,0,0,0,0,0,0,0,0,0,0,0,0,0,0,0,0,0,0,0,0,0,0,0,0,0,0,0,0,0,0,0,0,0,0,0,0,0,0,0,0,0,0,0,0,0,0,0,0,0,0,0,0,0,0,0,0,0,0,0,0,0,0,0,0,0,0,0,0,0,0,0,0,0,0,0,0,0,0,0,0,0,0,0,0,0,0,0,0,0,0,0,0,0,0,0,0,0,0,0,0,0,0,0,0,0,0,0,0,0,0,0,0,0,0,0,0,0,0,0,0,0,0,0,0,0,0,0,0,0,0,0,0,0,0,0,0,0,0,0,0,0,0,0,0,0,0,0,0,0,0,0,0,0,0,0,0,0,0,0,0,0,0,0,0,0,0,0,0,0,0,0,0,0,0,
0,0,0,0,0,0,0,0,0,0,0,0,0,0,0,0,0,0,0,0,0,0,0,0,0,0,0,0,0,0,0,0,0,0,0,0,0,0,0,0,0,0,0,0,0,0,0,0,0,0,0,0,0,0,0,0,0,0,0,0,0,0,0,0,0,0,0,0,0,0,0,0,0,0,0,0,0,0,0,0,0,0,0,0,0,0,0,0,0,0,0,0,0,0,0,0,0,0,0,0,0,0,0,0,0,0,0,0,0,0,0,0,0,0,0,0,0,0,0,0,0,0,0,0,0,0,0,0,0,0,0,0,0,0,0,0,0,0,0,0,0,0,0,0,0,0,0,0,0,0,0,0,0,0,0,0,0,0,0,0,0,0,0,0,0,0,0,0,0,0,0,0,0,0,0,0,0,0,0,0,0,0,0,0,0,0,0,0,0,0,0,0,0,0,0,0,0,0,0,0,0,0,0,0,0,0,0,0,0,0,0,0,0,0,0,0,0,0,0,0,0,0,0,0,0,0,0,0,0,0,0,0,0,0,0,0,0,0,0,0,0,0,0,0,0,0,0,0,0,0,0,0,0,0,0,0,0,0,0,0,0,0,0,0,0,0,0,0,0,0,0,0,0,0,0,0,0,0,0,0,0,0,0,0,0,0,0,0,0,0,0,0,0,0,0,0,0,0,0,0,0,0,0,0,0,0,0,0,
0,0,0,0,0,0,0,0,0,0,0,0,0,0,0,0,0,0,0,0,0,0,0,0,0,0,0,0,0,0,0,0,0,0,0,0,0,0,0,0,0,0,0,0,0,0,0,0,0,0,0,0,0,0,0,0,0,0,0,0,0,0,0,0,0,0,0,0,0,0,0,0,0,0,0,0,0,0,0,0,0,0,0,0,0,0,0,0,0,0,0,0,0,0,0,0,0,0,0,0,0,0,0,0,0,0,0,0,0,0,0,0,0,0,0,0,0,0,0,0,0,0,0,0,0,0,0,0,0,0,0,0,0,0,0,0,0,0,0,0,0,0,0,0,0,0,0,0,0,0,0,0,0,0,0,0,0,0,0,0,0,0,0,0,0,0,0,0,0,0,0,0,0,0,0,0,0,0,0,0,0,0,0,0,0,0,0,0,0,0,0,0,0,0,0,0,0,0,0,0,0,0,0,0,0,0,0,0,0,0,0,0,0,0,0,0,0,0,0,0,0,0,0,0,0,0,0,0,0,0,0,0,0,0,0,0,0,0,0,0,0,0,0,0,0,0,0,0,0,0,0,0,0,0,0,0,0,0,0,0,0,0,0,0,0,0,0,0,0,0,0,0,0,0,0,0,0,0,0,0,0,0,0,0,0,0,0,0,0,0,0,0,0,0,0,0,0,0,0,0,0,0,0,0,0,0,0,0,
0,0,0,0,0,0,0,0,0,0,0,0,0,0,0,0,0,0,0,0,0,0,0,0,0,0,0,0,0,0,0,0,0,0,0,0,0,0,0,0,0,0,0,0,0,0,0,0,0,0,0,0,0,0,0,0,0,0,0,0,0,0,0,0,0,0,0,0,0,0,0,0,0,0,0,0,0,0,0,0,0,0,0,0,0,0,0,0,0,0,0,0,0,0,0,0,0,0,0,0,0,0,0,0,0,0,0,0,0,0,0,0,0,0,0,0,0,0,0,0,0,0,0,0,0,0,0,0,0,0,0,0,0,0,0,0,0,0,0,0,0,0,0,0,0,0,0,0,0,0,0,0,0,0,0,0,0,0,0,0,0,0,0,0,0,0,0,0,0,0,0,0,0,0,0,0,0,0,0,0,0,0,0,0,0,0,0,0,0,0,0,0,0,0,0,0,0,0,0,0,0,0,0,0,0,0,0,0,0,0,0,0,0,0,0,0,0,0,0,0,0,0,0,0,0,0,0,0,0,0,0,0,0,0,0,0,0,0,0,0,0,0,0,0,0,0,0,0,0,0,0,0,0,0,0,0,0,0,0,0,0,0,0,0,0,0,0,0,0,0,0,0,0,0,0,0,0,0,0,0,0,0,0,0,0,0,0,0,0,0,0,0,0,0,0,0,0,0,0,0,0,0,0,0,0,0,0,0,
0,0,0,0,0,0,0,0,0,0,0,0,0,0,0,0,0,0,28171,28172,0,0,0,0,0,0,0,0,0,0,28171,28172,0,0,0,0,0,0,0,0,0,0,0,0,0,0,0,0,0,0,28171,28172,28173,28174,28175,28176,28177,28178,0,0,0,0,0,0,0,0,0,0,0,0,0,0,0,0,0,0,0,0,0,0,0,0,0,0,0,0,0,0,0,0,0,28171,28172,28173,28174,28175,28176,28177,28178,0,0,0,0,0,0,0,0,0,0,0,0,0,0,0,0,0,0,0,0,0,0,0,0,0,0,0,0,0,0,0,0,0,0,0,0,0,0,0,0,0,0,0,0,0,0,0,0,0,0,0,0,0,0,0,0,0,0,0,0,0,0,0,0,0,0,0,0,0,0,0,0,0,0,0,0,0,0,0,0,0,0,0,0,0,28171,28172,28173,28174,28175,28176,28177,28178,0,0,0,0,0,0,0,0,0,0,0,0,0,0,0,0,0,0,0,0,0,0,0,0,0,0,0,0,0,0,0,0,0,0,0,0,0,0,0,0,0,0,0,0,0,0,0,28171,28172,28173,28174,28175,28176,28177,28178,0,0,0,0,0,0,0,0,0,0,0,0,0,0,0,0,0,0,0,0,0,0,0,0,0,0,0,0,0,0,0,28171,28172,28173,28174,28175,28176,28177,28178,0,0,0,0,0,0,0,0,0,28171,28172,28173,28174,28175,28174,28175,28172,28173,28174,28175,28174,28175,
28171,28171,28172,28173,28174,28175,28176,28177,28178,0,0,0,28171,28171,28172,28173,28174,28175,28427,28428,28178,0,0,0,0,0,0,0,0,0,28427,28428,28171,28171,28172,28173,28174,28175,28176,28177,28178,0,0,0,0,0,0,0,0,0,28427,28428,28429,28430,28431,28432,28433,28434,0,0,0,0,0,0,0,0,0,0,0,0,0,0,0,0,28171,28172,28173,28174,28175,28176,28177,28178,0,0,0,0,0,0,0,0,0,28427,28428,28429,28430,28431,28432,28433,28434,0,0,0,0,0,0,0,0,0,0,0,0,0,0,0,28171,28172,28173,28174,28175,28176,28177,28178,0,0,0,0,0,0,0,0,0,0,0,0,0,0,0,0,0,0,0,0,0,0,0,0,0,0,0,0,0,0,0,0,0,0,0,0,0,0,28171,28172,28173,28174,28175,28176,28177,28171,28172,28173,28174,28175,28176,28177,28178,0,0,0,0,0,0,0,0,0,28427,28428,28429,28430,28431,28432,28433,28434,0,0,0,0,0,0,0,0,0,0,0,0,0,0,0,0,0,0,0,0,0,0,0,0,0,0,0,0,0,0,28171,28172,28173,28174,28175,28176,28177,28178,0,0,0,0,0,0,0,0,0,28427,28428,28429,28430,28431,28432,28433,28434,0,0,0,0,0,0,0,0,0,0,0,0,0,0,28171,28172,28173,28174,28175,28176,28177,28178,0,0,0,0,0,0,0,0,0,28427,28428,28429,28430,28431,28432,28433,28434,0,0,0,0,0,0,0,0,0,28427,28428,28429,28430,28431,28430,28431,28428,28429,28430,28431,28430,28431,
28427,28427,28428,28429,28430,28431,28432,28433,28434,0,0,0,28427,28427,28428,28429,28430,28431,28683,28684,28434,0,0,0,0,0,0,0,0,0,28683,28684,28427,28427,28428,28429,28430,28431,28432,28433,28434,0,0,0,0,0,0,0,0,0,28683,28684,28685,28686,28687,28688,28689,28690,0,0,0,0,0,0,0,0,0,0,0,0,0,0,28171,28172,28427,28428,28429,28430,28431,28432,28433,28434,0,0,0,0,0,0,0,28171,28172,28683,28684,28685,28686,28687,28688,28689,28690,0,0,0,0,0,0,0,0,0,0,0,0,0,0,28171,28172,28173,28174,28175,28176,28177,28178,28434,0,0,0,0,0,0,0,0,28171,28172,28173,28174,28175,28176,28177,28178,0,0,0,0,0,0,0,0,0,0,0,0,0,0,0,0,0,0,0,0,0,0,28427,28428,28429,28430,28431,28432,28433,28427,28428,28429,28430,28431,28432,28433,28434,0,0,0,0,0,0,0,0,0,28683,28684,28685,28686,28687,28688,28689,28690,0,0,0,0,0,0,0,0,0,0,0,0,0,0,28171,28172,28173,28174,28175,28176,28177,28178,0,0,0,0,0,0,0,0,28427,28428,28429,28430,28431,28432,28433,28434,28178,0,0,0,0,0,0,0,0,28683,28684,28685,28686,28687,28688,28689,28690,0,0,0,0,0,0,0,0,0,0,0,0,0,0,28427,28428,28429,28430,28431,28432,28433,28434,0,0,0,0,0,0,0,0,0,28683,28684,28685,28686,28687,28688,28689,28690,0,0,0,0,0,0,0,0,0,28683,28684,28685,28686,28687,28686,28687,28684,28685,28686,28687,28686,28687,
28683,28683,28684,28685,28686,28687,28688,28689,28690,0,0,0,28683,28683,28684,28685,28686,28687,28939,28940,28690,0,0,0,0,0,0,0,0,0,28939,28940,28683,28683,28684,28685,28686,28687,28688,28689,28690,0,0,0,0,0,0,0,0,0,28939,28940,28941,28942,28943,28944,28945,28946,0,0,0,0,0,0,0,0,0,0,0,0,0,0,28427,28428,28683,28684,28685,28686,28687,28688,28689,28690,0,0,0,0,0,0,0,28427,28428,28939,28940,28941,28942,28943,28944,28945,28946,0,0,0,0,0,0,0,0,0,0,0,0,0,0,28427,28428,28429,28430,28431,28432,28433,28434,28690,0,0,0,0,0,0,0,0,28427,28428,28429,28430,28431,28432,28433,28434,0,0,0,0,0,28171,28172,28173,28174,28175,28176,28177,28178,0,0,0,0,0,0,0,0,0,28683,28684,28685,28686,28687,28688,28689,28683,28684,28685,28686,28687,28688,28689,28690,0,0,0,0,0,0,0,0,0,28939,28940,28941,28942,28943,28944,28945,28946,0,0,0,0,0,0,0,0,0,0,0,0,0,0,28427,28428,28429,28430,28431,28432,28433,28434,0,0,0,0,0,0,0,0,28683,28684,28685,28686,28687,28688,28689,28690,28434,0,0,0,0,0,0,0,0,28939,28940,28941,28942,28943,28944,28945,28946,0,0,0,0,0,0,0,0,0,0,0,0,0,0,28683,28684,28685,28686,28687,28688,28689,28690,0,0,0,0,0,0,0,0,0,28939,28940,28941,28942,28943,28944,28945,28946,0,0,0,0,0,0,0,0,0,28939,28940,28941,28942,28943,28942,28943,28940,28941,28942,28943,28942,28943,
28939,28939,28940,28941,28942,28943,28944,28945,28946,0,0,0,28939,28939,28940,28941,28942,28943,29195,29196,28946,0,0,0,0,0,0,0,0,0,29195,29196,28939,28939,28940,28941,28942,28943,28944,28945,28946,0,0,0,0,0,0,0,0,0,29195,29196,29197,29198,29199,29200,29201,29202,0,0,0,0,0,0,0,0,0,0,0,0,0,0,28683,28684,28939,28940,28941,28942,28943,28944,28945,28946,0,0,0,0,0,0,0,28683,28684,29195,29196,29197,29198,29199,29200,29201,29202,0,0,0,0,0,0,0,0,0,0,0,0,0,0,28683,28684,28685,28686,28687,28688,28689,28690,28946,0,0,0,0,0,0,0,0,28683,28684,28685,28686,28687,28688,28689,28690,0,0,0,0,0,28427,28428,28429,28430,28431,28432,28433,28434,0,0,0,0,0,0,0,0,0,28939,28940,28941,28942,28943,28944,28945,28939,28940,28941,28942,28943,28944,28945,28946,0,0,0,0,0,0,0,0,0,29195,29196,29197,29198,29199,29200,29201,29202,0,0,0,0,0,0,0,0,0,0,0,0,0,0,28683,28684,28685,28686,28687,28688,28689,28690,0,0,0,0,0,0,0,0,28939,28940,28941,28942,28943,28944,28945,28946,28690,0,0,0,0,0,0,0,0,29195,29196,29197,29198,29199,29200,29201,29202,0,0,0,0,0,0,0,0,0,0,0,0,0,0,28939,28940,28941,28942,28943,28944,28945,28946,0,0,0,0,0,0,0,0,0,29195,29196,29197,29198,29199,29200,29201,29202,0,0,0,0,0,0,0,0,0,29195,29196,29197,29198,29199,29198,29199,29196,29197,29198,29199,29198,29199,
29195,29195,29196,29197,29198,29199,29200,29201,29202,0,0,0,29195,29195,29196,29197,29198,29199,29451,29452,29202,0,0,0,0,0,0,0,0,0,29451,29452,29195,29195,29196,29197,29198,29199,29200,29201,29202,0,0,0,0,0,0,0,0,0,29451,29452,29453,29454,29455,29456,29457,29458,0,0,0,0,0,0,0,0,0,0,0,0,0,0,28939,28940,29195,29196,29197,29198,29199,29200,29201,29202,0,0,0,0,0,0,0,28939,28940,29451,29452,29453,29454,29455,29456,29457,29458,0,0,0,0,0,0,0,0,0,0,0,0,0,0,28939,28940,28941,28942,28943,28944,28945,28946,29202,0,0,0,0,0,0,0,0,28939,28940,28941,28942,28943,28944,28945,28946,0,0,0,0,0,28683,28684,28685,28686,28687,28688,28689,28690,0,0,0,0,0,0,0,0,0,29195,29196,29197,29198,29199,29200,29201,29195,29196,29197,29198,29199,29200,29201,29202,0,0,0,0,0,0,0,0,0,29451,29452,29453,29454,29455,29456,29457,29458,0,0,0,0,0,0,0,0,0,0,0,0,0,0,28939,28940,28941,28942,28943,28944,28945,28946,0,0,0,0,0,0,0,0,29195,29196,29197,29198,29199,29200,29201,29202,28946,0,0,0,0,0,0,0,0,29451,29452,29453,29454,29455,29456,29457,29458,0,0,0,0,0,0,0,0,0,0,0,0,0,0,29195,29196,29197,29198,29199,29200,29201,29202,0,0,0,0,0,0,0,0,0,29451,29452,29453,29454,29455,29456,29457,29458,0,0,0,0,0,0,0,0,0,29451,29452,29453,29454,29455,29454,29455,29452,29453,29454,29455,29454,29455,
29451,29451,29452,29453,29454,29455,29456,29457,29458,0,0,0,29451,29451,29452,29453,29454,29455,29456,29457,29458,0,0,0,0,0,0,0,0,0,0,0,29451,29451,29452,29453,29454,29455,29456,29457,29458,0,0,0,0,0,0,0,0,0,0,0,0,0,0,0,0,0,0,0,0,0,0,0,0,0,0,0,0,0,0,0,29195,29196,29451,29452,29453,29454,29455,29456,29457,29458,0,0,0,0,0,0,0,29195,29196,29197,29198,29199,29200,29201,29202,0,0,0,0,0,0,0,0,0,0,0,0,0,0,0,0,29195,29196,29197,29198,29199,29200,29201,29202,29458,0,0,0,0,0,0,0,0,29195,29196,29197,29198,29199,29200,29201,29202,0,0,0,0,0,28939,28940,28941,28942,28943,28944,28945,28946,0,0,0,0,0,0,0,0,0,29451,29452,29453,29454,29455,29456,29457,29451,29452,29453,29454,29455,29456,29457,29458,0,0,0,0,0,0,0,0,0,0,0,0,0,0,0,0,0,0,0,0,0,0,0,0,0,0,0,0,0,0,0,29195,29196,29197,29198,29199,29200,29201,29202,0,0,0,0,0,0,0,0,29451,29452,29453,29454,29455,29456,29457,29458,29202,0,0,0,0,0,0,0,0,0,0,0,0,0,0,0,0,0,0,0,0,0,0,0,0,0,0,0,0,0,0,29451,29452,29453,29454,29455,29456,29457,29458,0,0,0,0,0,0,0,0,0,29451,29452,29453,29454,29455,29456,29457,29458,0,0,0,0,0,0,0,0,0,0,0,0,0,0,0,0,0,0,0,0,0,0,
0,0,0,0,0,0,0,0,0,0,0,0,0,0,0,0,0,0,0,0,0,0,0,0,0,0,0,0,0,0,0,0,0,0,0,0,0,0,0,0,0,0,0,0,0,0,0,0,0,0,0,0,0,0,0,0,0,0,0,0,0,0,0,0,0,0,0,0,0,0,0,0,29451,29452,29453,29454,29455,29456,29457,29458,0,0,0,0,0,0,0,0,0,29451,29452,29453,29454,29455,29456,29457,29458,0,0,0,0,0,0,0,0,0,0,0,0,0,0,0,0,29451,29452,29453,29454,29455,29456,29457,29458,0,0,0,0,0,0,0,0,0,29451,29452,29453,29454,29455,29456,29457,29458,0,0,0,0,0,29195,29196,29197,29198,29199,29200,29201,29202,0,0,0,0,0,0,0,0,0,0,0,0,0,0,0,0,0,0,0,0,0,0,0,0,0,0,0,0,0,0,0,0,0,0,0,0,0,0,0,0,0,0,0,0,0,0,0,0,0,0,0,0,0,0,0,29451,29452,29453,29454,29455,29456,29457,29458,0,0,0,0,0,0,0,0,0,29451,29452,29453,29454,29455,29456,29457,29458,0,0,0,0,0,0,0,0,0,0,0,0,0,0,0,0,0,0,0,0,0,0,0,0,0,0,0,0,0,0,29451,29452,29453,29454,29455,29456,29457,29458,0,0,0,0,0,0,0,0,0,29451,29452,29453,29454,29455,29456,29457,29458,0,0,0,0,0,0,0,0,0,0,0,0,0,0,0,0,0,0,0,0,0,0,
0,0,0,0,0,0,0,0,0,0,0,0,0,0,0,0,0,0,0,0,0,0,0,0,0,0,0,0,0,0,0,0,0,0,0,0,0,0,0,0,0,0,0,0,0,0,0,0,0,0,0,0,0,0,0,0,0,0,0,0,0,0,0,0,0,0,0,0,0,0,0,0,0,0,0,0,0,0,0,0,0,0,0,0,0,0,0,0,0,0,0,0,0,0,0,0,0,0,0,0,0,0,0,0,0,0,0,0,0,0,0,0,0,0,0,0,0,0,0,0,0,0,0,0,0,0,0,0,0,0,0,0,0,0,0,0,0,0,0,0,0,0,0,29451,29452,29453,29454,29455,29456,29457,29458,0,0,0,0,0,0,0,0,0,0,0,0,0,0,0,0,0,0,0,0,0,0,0,0,0,0,0,0,0,0,0,0,0,0,0,0,0,0,0,0,0,0,0,0,0,0,0,0,0,0,0,0,0,0,0,0,0,0,0,0,0,0,0,0,0,0,0,0,0,0,0,0,0,0,0,0,0,0,0,0,0,0,0,0,0,0,0,0,0,0,0,0,0,0,0,0,0,0,0,0,0,0,0,0,0,0,0,0,0,0,0,0,0,0,0,0,0,0,0,0,0,0,0,0,0,0,0,0,0,0,0,0,0,0,0,0,0,0,0,0,0,0,0,0,0,0,0,0,0,0,0,0,0,0,0,0,0,
28172,28172,28173,28174,28175,28176,28177,28178,0,0,0,0,28172,28172,28173,28174,28175,28176,28177,28178,0,0,0,0,0,0,0,0,0,0,0,0,28172,28172,28173,28174,28175,28176,28177,28178,0,0,0,0,0,0,0,0,0,0,0,0,0,0,0,0,0,0,0,0,0,0,0,0,0,0,0,0,0,0,0,0,0,28171,28172,28173,28174,28175,28176,28177,28178,0,0,0,0,0,0,0,0,0,0,0,0,0,0,0,0,0,0,0,0,0,0,0,0,0,0,0,0,0,0,0,0,0,0,0,0,0,0,0,0,0,0,0,0,0,0,0,0,0,0,0,0,0,0,0,0,0,0,0,0,0,0,0,0,0,0,0,0,0,0,0,0,0,0,0,0,0,0,0,0,0,0,0,0,0,28171,28172,28173,28174,28175,28176,28177,28178,28177,28178,0,0,0,0,0,0,0,0,0,0,0,0,0,0,0,0,0,0,0,0,0,0,0,0,0,0,0,0,0,0,0,0,0,0,0,0,0,0,0,0,0,0,0,0,0,28171,28172,28173,28174,28175,28176,28177,28178,0,0,0,0,0,0,0,0,0,0,0,0,0,0,0,0,0,0,0,0,0,0,0,0,0,0,0,0,0,0,0,0,28172,28173,28174,28175,28176,28177,28178,0,0,0,0,0,0,0,0,0,0,28172,28173,28174,28175,28176,28177,28178,0,0,0,0,0,0,0,0,0,0,0,0,0,0,0,0,0,0,0,0,0,0,0,
28428,28428,28429,28430,28431,28432,28433,28434,0,0,0,0,28428,28428,28429,28430,28431,28432,28433,28434,0,0,0,0,0,0,0,0,0,0,0,0,28428,28428,28429,28430,28431,28432,28433,28434,0,0,0,0,0,0,0,0,0,0,0,0,0,0,0,0,0,0,0,0,0,0,0,0,0,0,0,0,0,0,0,0,0,28427,28428,28429,28430,28431,28432,28433,28434,0,0,0,0,0,0,0,0,0,0,0,0,0,0,0,0,0,0,0,0,0,0,0,0,0,0,0,0,0,0,0,0,0,0,0,0,0,0,0,0,0,0,0,0,0,0,0,0,0,0,28171,28172,28173,28174,28175,28176,28177,28178,0,0,0,0,0,0,0,0,0,0,0,0,0,0,0,0,0,0,0,0,0,0,0,0,0,0,0,28427,28428,28429,28430,28431,28432,28433,28434,28433,28434,0,0,0,0,0,0,0,0,0,0,0,0,0,0,0,0,0,0,0,0,0,0,0,0,0,0,0,0,0,0,0,0,0,0,0,0,0,0,0,0,0,0,0,0,0,28427,28428,28429,28430,28431,28432,28433,28434,0,0,0,0,0,0,0,0,0,0,0,0,0,0,0,0,0,0,0,0,0,0,0,0,0,0,0,0,0,0,0,0,28428,28429,28430,28431,28432,28433,28434,0,0,0,0,0,0,0,0,0,0,28428,28429,28430,28431,28432,28433,28434,0,0,0,0,0,0,0,0,0,0,0,0,0,0,0,0,0,0,0,0,0,0,0,
28684,28684,28685,28686,28687,28688,28689,28690,0,0,0,0,28684,28684,28685,28686,28687,28688,28689,28690,0,0,0,0,0,0,0,0,0,0,0,0,28684,28684,28685,28686,28687,28688,28689,28690,0,0,0,0,0,0,0,0,0,0,0,0,0,0,28171,28172,28173,28174,28175,28176,28177,28178,0,0,0,0,0,0,0,0,0,0,0,28683,28684,28685,28686,28687,28688,28689,28690,0,0,0,0,0,0,0,0,0,0,0,0,0,0,28171,28172,28173,28174,28175,28176,28177,28178,0,0,0,0,0,0,0,0,0,0,0,0,0,0,0,0,0,0,0,0,0,0,0,0,0,0,0,0,28427,28428,28429,28430,28431,28432,28433,28434,0,0,0,0,0,0,0,0,0,0,0,0,0,0,0,0,0,0,0,0,0,0,0,0,0,0,0,28683,28684,28685,28686,28687,28688,28689,28690,28689,28690,0,0,0,0,0,0,0,0,0,0,0,0,28171,28172,28173,28174,28175,28176,28177,28178,0,0,0,0,0,0,0,0,0,0,0,0,0,0,0,0,0,0,0,0,0,0,0,0,0,28683,28684,28685,28686,28687,28688,28689,28690,0,0,0,0,0,0,0,0,0,0,0,0,0,0,28171,28172,28173,28174,28175,28176,28177,28178,0,0,0,0,0,0,0,0,0,0,28684,28685,28686,28687,28688,28689,28690,0,0,0,0,0,0,0,0,0,0,28684,28685,28686,28687,28171,28172,28173,28174,0,0,0,0,0,0,0,0,0,0,0,0,0,28171,0,28171,0,0,0,28171,0,28171,
28940,28940,28941,28942,28943,28944,28945,28946,0,0,0,0,28940,28940,28941,28942,28943,28944,28945,28946,0,0,0,0,0,0,0,0,0,0,0,0,28940,28940,28941,28942,28943,28944,28945,28946,0,0,0,0,0,0,0,0,0,0,0,0,0,0,28427,28428,28429,28430,28431,28432,28433,28434,0,0,0,0,0,0,0,0,0,0,0,28939,28940,28941,28942,28943,28944,28945,28946,0,0,0,0,0,0,0,0,0,0,0,0,0,0,28427,28428,28429,28430,28431,28432,28433,28434,0,0,0,0,0,0,0,0,0,0,0,0,0,0,0,0,0,0,0,0,0,0,0,0,0,0,0,0,28683,28684,28685,28686,28687,28688,28689,28690,0,0,0,0,0,0,0,0,0,0,0,0,0,0,0,0,0,0,0,0,0,0,0,0,0,0,0,28939,28940,28941,28942,28943,28944,28945,28946,28945,28946,0,0,0,0,0,0,0,0,0,0,0,0,28427,28428,28429,28430,28431,28432,28433,28434,0,0,0,0,0,0,0,0,0,0,0,0,0,0,0,0,0,0,0,0,0,0,0,0,0,28939,28940,28941,28942,28943,28944,28945,28946,0,0,0,0,0,0,0,0,0,0,0,0,0,0,28427,28428,28429,28430,28431,28432,28433,28434,0,0,0,0,0,0,0,0,0,0,28940,28941,28942,28943,28944,28945,28946,0,0,0,0,0,0,0,0,0,0,28940,28941,28942,28943,28427,28428,28429,28430,0,0,0,0,0,0,0,0,0,0,0,0,0,28427,0,28427,0,0,0,28427,0,28427,
29196,29196,29197,29198,29199,29200,29201,29202,0,0,0,0,29196,29196,29197,29198,29199,29200,29201,29202,0,0,0,0,0,0,0,0,0,0,0,0,29196,29196,29197,29198,29199,29200,29201,29202,0,0,0,0,0,0,0,0,0,0,0,0,0,0,28683,28684,28685,28686,28687,28688,28689,28690,0,0,0,0,0,0,0,0,0,0,0,29195,29196,29197,29198,29199,29200,29201,29202,0,0,0,0,0,0,0,0,0,0,0,0,0,0,28683,28684,28685,28686,28687,28688,28689,28690,0,0,0,0,0,0,0,0,0,0,0,0,0,0,0,0,0,0,0,0,0,0,0,0,0,0,0,0,28939,28940,28941,28942,28943,28944,28945,28946,0,0,0,0,0,0,0,0,0,0,0,0,0,0,0,0,0,0,0,0,0,0,0,0,0,0,0,29195,29196,29197,29198,29199,29200,29201,29202,29201,29202,0,0,0,0,0,0,0,0,0,0,0,0,28683,28684,28685,28686,28687,28688,28689,28690,0,0,0,0,0,0,0,0,0,0,0,0,0,0,0,0,0,0,0,0,0,0,0,0,0,29195,29196,29197,29198,29199,29200,29201,29202,0,0,0,0,0,0,0,0,0,0,0,0,0,0,28683,28684,28685,28686,28687,28688,28689,28690,0,0,0,0,0,0,0,0,0,0,29196,29197,29198,29199,29200,29201,29202,0,0,0,0,0,0,0,0,0,0,29196,29197,29198,29199,28683,28684,28685,28686,0,0,0,0,0,0,0,0,0,0,0,0,0,28683,0,28683,0,0,0,28683,0,28683,
29452,29452,29453,29454,29455,29456,29457,29458,0,0,0,0,29452,29452,29453,29454,29455,29456,29457,29458,0,0,0,0,0,0,0,0,0,0,0,0,29452,29452,29453,29454,29455,29456,29457,29458,0,0,0,0,0,0,0,0,0,0,0,0,0,0,28939,28940,28941,28942,28943,28944,28945,28946,0,0,0,0,0,0,0,0,0,0,0,29451,29452,29453,29454,29455,29456,29457,29458,0,0,0,0,0,0,0,0,0,0,0,0,0,0,28939,28940,28941,28942,28943,28944,28945,28946,0,0,0,0,0,0,0,0,0,0,0,0,0,0,0,0,0,0,0,0,0,0,0,0,0,0,0,0,29195,29196,29197,29198,29199,29200,29201,29202,0,0,42931,42932,0,42931,42932,0,0,0,0,0,0,0,0,0,0,0,0,0,0,0,0,0,0,0,0,29451,29452,29453,29454,29455,29456,29457,29458,29457,29458,0,0,0,0,0,0,0,0,0,0,0,0,28939,28940,28941,28942,28943,28944,28945,28946,0,0,0,0,0,0,0,0,0,0,0,0,0,0,0,0,0,0,0,0,0,0,0,0,0,29451,29452,29453,29454,29455,29456,29457,29458,0,0,0,0,0,0,0,0,0,0,0,0,0,0,28939,28940,28941,28942,28943,28944,28945,28946,0,0,0,0,0,0,0,0,0,0,29452,29453,29454,29455,29456,29457,29458,0,0,0,0,0,0,0,0,0,0,29452,29453,29454,29455,28939,28940,28941,28942,0,0,0,0,0,0,0,0,0,0,0,0,0,28939,0,28939,0,0,0,28939,0,28939,
0,0,0,0,0,0,0,0,0,0,0,0,0,0,0,0,0,0,0,0,0,0,0,0,0,0,0,0,0,0,0,0,0,0,0,0,0,0,0,0,0,0,0,0,0,0,0,0,0,0,0,0,0,0,29195,29196,29197,29198,29199,29200,29201,29202,0,0,0,0,0,0,0,0,0,0,0,0,0,0,0,0,0,0,0,0,0,0,0,0,0,0,0,0,0,0,0,0,0,29195,29196,29197,29198,29199,29200,29201,29202,0,0,0,0,0,0,0,0,0,0,0,0,0,0,0,0,0,0,0,0,0,0,0,0,0,0,0,0,29451,29452,29453,29454,29455,29456,29457,29458,0,0,43187,43188,0,43187,43188,0,0,0,0,0,0,0,0,0,0,0,0,0,0,0,0,0,0,0,0,0,0,0,0,0,0,0,0,0,0,0,0,0,0,0,0,0,0,0,0,0,0,29195,29196,29197,29198,29199,29200,29201,29202,0,0,0,0,0,0,0,0,0,0,0,0,0,0,0,0,0,0,0,0,0,0,0,0,0,0,0,0,0,0,0,0,0,0,0,0,0,0,0,0,0,0,0,0,0,0,0,29195,29196,29197,29198,29199,29200,29201,29202,0,0,0,0,0,0,0,0,0,0,0,0,0,0,0,0,0,0,0,0,0,0,0,0,0,0,0,0,0,0,0,29195,29196,29197,29198,0,0,0,0,0,0,0,0,0,0,0,0,0,29195,0,29195,0,0,0,29195,0,29195,
0,0,0,0,0,0,0,0,0,0,0,0,0,0,0,0,0,0,0,0,0,0,0,0,0,0,0,0,0,0,0,0,0,0,0,0,0,0,0,0,0,0,0,0,0,0,0,0,0,0,0,0,0,0,29451,29452,29453,29454,29455,29456,29457,29458,0,0,0,0,0,0,0,0,0,0,0,0,0,0,0,0,0,0,0,0,0,0,0,0,0,0,0,0,0,0,0,0,0,29451,29452,29453,29454,29455,29456,29457,29458,0,0,0,0,0,0,0,0,0,0,0,0,0,0,0,0,0,0,0,0,0,0,0,0,0,0,0,0,0,0,0,0,0,0,0,0,0,0,43443,43444,0,43443,43444,0,0,0,0,0,0,0,0,0,0,0,0,0,0,0,0,0,0,0,0,0,0,0,0,0,0,0,0,0,0,0,0,0,0,0,0,0,0,0,0,0,0,29451,29452,29453,29454,29455,29456,29457,29458,0,0,0,0,0,0,0,0,0,0,0,0,0,0,0,0,0,0,0,0,0,0,0,0,0,0,0,0,0,0,0,0,0,0,0,0,0,0,0,0,0,0,0,0,0,0,0,29451,29452,29453,29454,29455,29456,29457,29458,0,0,0,0,0,0,0,0,0,0,0,0,0,0,0,0,0,0,0,0,0,0,0,0,0,0,0,0,0,0,0,29451,29452,29453,29454,0,0,0,0,0,0,0,0,0,0,0,0,0,29451,0,29451,0,0,0,29451,0,29451,
29196,29196,29197,29198,29199,29200,29201,29202,0,0,0,0,29196,29196,29197,29198,29199,29200,29201,29202,0,0,0,0,0,0,0,0,0,0,0,0,29196,29196,29197,29198,29199,29200,29201,29202,0,0,0,0,0,0,0,0,0,0,0,0,0,0,28683,29196,29196,29197,29198,29199,29200,29201,29202,0,0,0,0,29196,29196,29197,29198,29199,29200,29201,29202,29197,29198,29199,29200,29201,29202,0,0,0,0,0,0,29196,29196,29197,29198,29199,29200,29201,29202,28683,28684,28685,28686,28687,28688,28689,28690,0,0,0,0,0,0,28683,28684,28685,28686,28687,28688,28689,28690,0,0,0,0,0,0,0,0,0,0,0,29195,29196,29197,29198,29199,29200,29201,29202,28944,28945,28946,0,0,0,0,0,0,0,0,0,0,0,28683,28684,28685,28686,28687,28688,28689,28690,0,0,0,0,0,0,0,0,29195,29196,29197,29198,29199,29200,29201,29202,29201,29202,0,0,0,0,0,0,0,0,0,0,28939,28940,28941,28942,28943,28944,28945,28946,28689,28690,0,0,0,0,0,0,0,0,0,0,0,0,0,0,0,0,0,0,0,0,0,0,0,0,0,29195,29196,29197,29198,29199,29200,29201,29202,29201,29202,0,0,0,0,0,0,0,0,0,0,0,0,28683,28684,28685,28686,28687,28688,28689,28690,0,0,0,0,0,0,0,0,0,0,0,0,0,0,0,0,0,0,0,0,0,0,0,0,0,29195,29196,29197,29198,29199,29200,29201,29202,0,0,0,0,0,0,0,0,0,0,0,0,0,0,28683,28684,28685,28686,0,0,28683,28684,28685,28686,
29452,29452,29453,29454,29455,29456,29457,29458,0,0,0,0,29452,29452,29453,29454,29455,29456,29457,29458,0,0,0,0,0,0,0,0,0,0,0,0,29452,29452,29453,29454,29455,29456,29457,29458,0,0,0,0,0,0,0,0,0,0,0,0,0,0,28939,29452,29452,29453,29454,29455,29456,29457,29458,0,0,0,0,29452,29452,29453,29454,29455,29456,29457,29458,29453,29454,29455,29456,29457,29458,0,0,0,0,0,0,29452,29452,29453,29454,29455,29456,29457,29458,28939,28940,28941,28942,28943,28944,28945,28946,0,0,0,0,0,0,28939,28940,28941,28942,28943,28944,28945,28946,0,0,0,0,0,0,0,0,0,0,0,29451,29452,29453,29454,29455,29456,29457,29458,29200,29201,29202,0,0,42931,42932,0,42931,42932,0,0,0,0,28939,28940,28941,28942,28943,28944,28945,28946,0,0,0,0,0,0,0,0,29451,29452,29453,29454,29455,29456,29457,29458,29457,29458,0,0,0,0,0,0,0,0,0,0,29195,29196,29197,29198,29199,29200,29201,29202,28945,28946,42931,42932,0,42931,42932,0,0,0,0,0,0,0,0,0,0,0,0,0,0,0,0,0,0,0,0,29451,29452,29453,29454,29455,29456,29457,29458,29457,29458,0,0,0,0,0,0,0,0,0,0,0,0,28939,28940,28941,28942,28943,28944,28945,28946,0,0,0,0,0,0,0,0,0,0,0,0,0,0,0,0,0,0,0,0,0,0,0,0,0,29451,29452,29453,29454,29455,29456,29457,29458,0,0,0,0,0,0,0,0,0,0,0,0,0,0,28939,28940,28941,28942,0,0,28939,28940,28941,28942,
0,0,0,0,0,0,0,0,0,0,0,0,0,0,0,0,0,0,0,0,0,0,0,0,0,0,0,0,0,0,0,0,0,0,0,0,0,0,0,0,0,0,0,0,0,0,0,0,0,0,0,0,0,0,29195,29196,29197,29198,29199,29200,29201,29202,0,0,0,0,0,0,0,0,0,0,0,0,0,0,0,0,0,0,0,0,0,0,0,0,0,0,0,0,0,0,0,0,0,29195,29196,29197,29198,29199,29200,29201,29202,0,0,0,0,0,0,29195,29196,29197,29198,29199,29200,29201,29202,0,0,0,0,0,0,0,0,0,0,0,0,0,0,29451,29452,29453,29454,29455,29456,29457,29458,0,0,43187,43188,0,43187,43188,0,0,0,0,29195,29196,29197,29198,29199,29200,29201,29202,0,0,0,0,0,0,0,0,0,0,0,0,0,0,0,0,0,0,0,0,0,0,0,0,0,0,0,0,29451,29452,29453,29454,29455,29456,29457,29458,29201,29202,43187,43188,0,43187,43188,0,0,0,0,0,0,0,0,0,0,0,0,0,0,0,0,0,0,0,0,0,0,0,0,0,0,0,0,0,0,0,0,0,0,0,0,0,0,0,0,0,0,29195,29196,29197,29198,29199,29200,29201,29202,0,0,0,0,0,0,0,0,0,0,0,0,0,0,0,0,0,0,0,0,0,0,0,0,0,0,0,0,0,0,0,0,0,0,0,0,0,0,0,0,0,0,0,0,0,0,0,29195,29196,29197,29198,0,0,29195,29196,29197,29198,
0,0,0,0,0,0,0,0,0,0,0,0,0,0,0,0,0,0,0,0,0,0,0,0,0,0,0,0,0,0,0,0,0,0,0,0,0,0,0,0,0,0,0,0,0,0,0,0,0,0,0,0,0,0,29451,29452,29453,29454,29455,29456,29457,29458,0,0,0,0,0,0,0,0,0,0,0,0,0,0,0,0,0,0,0,0,0,0,0,0,0,0,0,0,0,0,0,0,0,29451,29452,29453,29454,29455,29456,29457,29458,0,0,0,0,0,0,29451,29452,29453,29454,29455,29456,29457,29458,0,0,0,0,0,0,0,0,0,0,0,0,0,0,0,0,0,0,0,0,0,0,0,0,43443,43444,0,43443,43444,0,0,0,0,29451,29452,29453,29454,29455,29456,29457,29458,0,0,0,0,0,0,0,0,0,0,0,0,0,0,0,0,0,0,0,0,0,0,0,0,0,0,0,0,0,0,29451,29452,29453,29454,29455,29456,29457,29458,43443,43444,0,43443,43444,0,0,0,0,0,0,0,0,0,0,0,0,0,0,0,0,0,0,0,0,0,0,0,0,0,0,0,0,0,0,0,0,0,0,0,0,0,0,0,0,0,0,29451,29452,29453,29454,29455,29456,29457,29458,0,0,0,0,0,0,0,0,0,0,0,0,0,0,0,0,0,0,0,0,0,0,0,0,0,0,0,0,0,0,0,0,0,0,0,0,0,0,0,0,0,0,0,0,0,0,0,29451,29452,29453,29454,0,0,29451,29452,29453,29454
</data>
 </layer>
 <layer id="6" name="Tile Layer 5" width="308" height="81">
  <data encoding="csv">
0,0,0,0,0,0,0,0,0,0,0,0,0,0,0,0,0,0,0,0,0,0,0,0,0,0,0,0,0,0,0,0,0,0,0,0,0,0,0,0,0,0,0,0,0,0,0,0,0,0,0,0,0,0,0,0,0,0,0,0,0,0,0,0,0,0,0,0,0,0,0,0,0,0,0,0,0,0,0,0,0,0,0,0,0,0,0,0,0,0,0,0,0,0,0,0,0,0,0,0,0,0,0,0,0,0,0,0,0,0,0,0,0,0,0,0,0,0,0,0,0,0,0,0,0,0,0,0,0,0,0,0,0,0,0,0,0,0,0,0,0,0,0,0,0,0,0,0,0,0,0,0,0,0,0,0,0,0,0,0,0,0,0,0,0,0,0,0,0,0,0,0,0,0,0,0,0,0,0,0,0,0,0,0,0,0,0,0,0,0,0,0,0,0,0,0,0,0,0,0,0,0,0,0,0,0,0,0,0,0,0,0,0,0,0,0,0,0,0,0,0,0,0,0,0,0,0,0,0,0,0,0,0,0,0,0,0,0,0,0,0,0,0,0,0,0,0,0,0,0,0,0,0,0,0,0,0,0,0,0,0,0,0,0,0,0,0,0,0,0,0,0,0,0,0,0,0,0,0,0,0,0,0,0,0,0,0,0,0,0,0,0,0,0,0,0,0,0,0,0,0,0,0,0,0,0,0,0,
0,0,0,0,0,0,0,0,0,0,0,0,0,0,0,0,0,0,0,0,0,0,0,0,0,0,0,0,0,0,0,0,0,0,0,0,0,0,0,0,0,0,0,0,0,0,0,0,0,0,0,0,0,0,0,0,0,0,0,0,0,0,0,0,0,0,0,0,0,0,0,0,0,0,0,0,0,0,0,0,0,0,0,0,0,0,0,0,0,0,0,0,0,0,0,0,0,0,0,0,0,0,0,0,0,0,0,0,0,0,0,0,0,0,0,0,0,0,0,0,0,0,0,0,0,0,0,0,0,0,0,0,0,0,0,0,0,0,0,0,0,0,0,0,0,0,0,0,0,0,0,0,0,0,0,0,0,0,0,0,0,0,0,0,0,0,0,0,0,0,0,0,0,0,0,0,0,0,0,0,0,0,0,0,0,0,0,0,0,0,0,0,0,0,0,0,0,0,0,0,0,0,0,0,0,0,0,0,0,0,0,0,0,0,0,0,0,0,0,0,0,0,0,0,0,0,0,0,0,0,0,0,0,0,0,0,0,0,0,0,0,0,0,0,0,0,0,0,0,0,0,0,0,0,0,0,0,0,0,0,0,0,0,0,0,0,0,0,0,0,0,0,0,0,0,0,0,0,0,0,0,0,0,0,0,0,0,0,0,0,0,0,0,0,0,0,0,0,0,0,0,0,0,0,0,0,0,0,
0,0,0,0,0,0,0,0,0,0,0,0,0,0,0,0,0,0,0,0,0,0,0,0,0,0,0,0,0,0,0,0,0,0,0,0,0,0,0,0,0,0,0,0,0,0,0,0,0,0,0,0,0,0,0,0,0,0,0,0,0,0,0,0,0,0,0,0,0,0,0,0,0,0,0,0,0,0,0,0,0,0,0,0,0,0,0,0,0,0,0,0,0,0,0,0,0,0,0,0,0,0,0,0,0,0,0,0,0,0,0,0,0,0,0,0,0,0,0,0,0,0,0,0,0,0,0,0,0,0,0,0,0,0,0,0,0,0,0,0,0,0,0,0,0,0,0,0,0,0,0,0,0,0,0,0,0,0,0,0,0,0,0,0,0,0,0,0,0,0,0,0,0,0,0,0,0,0,0,0,0,0,0,0,0,0,0,0,0,0,0,0,0,0,0,0,0,0,0,0,0,0,0,0,0,0,0,0,0,0,0,0,0,0,0,0,0,0,0,0,0,0,0,0,0,0,0,0,0,0,0,0,0,0,0,0,0,0,0,0,0,0,0,0,0,0,0,0,0,0,0,0,0,0,0,0,0,0,0,0,0,0,0,0,0,0,0,0,0,0,0,0,0,0,0,0,0,0,0,0,0,0,0,0,0,0,0,0,0,0,0,0,0,0,0,0,0,0,0,0,0,0,0,0,0,0,0,0,
0,0,0,0,0,0,0,0,0,0,0,0,0,0,0,0,0,0,0,0,0,0,0,0,0,0,0,0,0,0,0,0,0,0,0,0,0,0,0,0,0,0,0,0,0,0,0,0,0,0,0,0,0,0,0,0,0,0,0,0,0,0,0,0,0,0,0,0,0,0,0,0,0,0,0,0,0,0,0,0,0,0,0,0,0,0,0,0,0,0,0,0,0,0,0,0,0,0,0,0,0,0,0,0,0,0,0,0,0,0,0,0,0,0,0,0,0,0,0,0,0,0,0,0,0,0,0,0,0,0,0,0,0,0,0,0,0,0,0,0,0,0,0,0,0,0,0,0,0,0,0,0,0,0,0,0,0,0,0,0,0,0,0,0,0,0,0,0,0,0,0,0,0,0,0,0,0,0,0,0,0,0,0,0,0,0,0,0,0,0,0,0,0,0,0,0,0,0,0,0,0,0,0,0,0,0,0,0,0,0,0,0,0,0,0,0,0,0,0,0,0,0,0,0,0,0,0,0,0,0,0,0,0,0,0,0,0,0,0,0,0,0,0,0,0,0,0,0,0,0,0,0,0,0,0,0,0,0,0,0,0,0,0,0,0,0,0,0,0,0,0,0,0,0,0,0,0,0,0,0,0,0,0,0,0,0,0,0,0,0,0,0,0,0,0,0,0,0,0,0,0,0,0,0,0,0,0,0,
0,0,0,0,0,0,0,0,0,0,0,0,0,0,0,0,0,0,0,0,0,0,0,0,0,0,0,0,0,0,0,0,0,0,0,0,0,0,0,0,0,0,0,0,0,0,0,0,0,0,0,0,0,0,0,0,0,0,0,0,0,0,0,0,0,0,0,0,0,0,0,0,0,0,0,0,0,0,0,0,0,0,0,0,0,0,0,0,0,0,0,0,0,0,0,0,0,0,0,0,0,0,0,0,0,0,0,0,0,0,0,0,0,0,0,0,0,0,0,0,0,0,0,0,0,0,0,0,0,0,0,0,0,0,0,0,0,0,0,0,0,0,0,0,0,0,0,0,0,0,0,0,0,0,0,0,0,0,0,0,0,0,0,0,0,0,0,0,0,0,0,0,0,0,0,0,0,0,0,0,0,0,0,0,0,0,0,0,0,0,0,0,0,0,0,0,0,0,0,0,0,0,0,0,0,0,0,0,0,0,0,0,0,0,0,0,0,0,0,0,0,0,0,0,0,0,0,0,0,0,0,0,0,0,0,0,0,0,0,0,0,0,0,0,0,0,0,0,0,0,0,0,0,0,0,0,0,0,0,0,0,0,0,0,0,0,0,0,0,0,0,0,0,0,0,0,0,0,0,0,0,0,0,0,0,0,0,0,0,0,0,0,0,0,0,0,0,0,0,0,0,0,0,0,0,0,0,0,
0,0,0,0,0,0,0,0,0,0,0,0,0,0,0,0,0,0,0,0,0,0,0,0,0,0,0,0,0,0,0,0,0,0,0,0,0,0,0,0,0,0,0,0,0,0,0,0,0,0,0,0,0,0,0,0,0,0,0,0,0,0,0,0,0,0,0,0,0,0,0,0,0,0,0,0,0,0,0,0,0,0,0,0,0,0,0,0,0,0,0,0,0,0,0,0,0,0,0,0,0,0,0,0,0,0,0,0,0,0,0,0,0,0,0,0,0,0,0,0,0,0,0,0,0,0,0,0,0,0,0,0,0,0,0,0,0,0,0,0,0,0,0,0,0,0,0,0,0,0,0,0,0,0,0,0,0,0,0,0,0,0,0,0,0,0,0,0,0,0,0,0,0,0,0,0,0,0,0,0,0,0,0,0,0,0,0,0,0,0,0,0,0,0,0,0,0,0,0,0,0,0,0,0,0,0,0,0,0,0,0,0,0,0,0,0,0,0,0,0,0,0,0,0,0,0,0,0,0,0,0,0,0,0,0,0,0,0,0,0,0,0,0,0,0,0,0,0,0,0,0,0,0,0,0,0,0,0,0,0,0,0,0,0,0,0,0,0,0,0,0,0,0,0,0,0,0,0,0,0,0,0,0,0,0,0,0,0,0,0,0,0,0,0,0,0,0,0,0,0,0,0,0,0,0,0,0,0,
0,0,0,0,0,0,0,0,0,0,0,0,0,0,0,0,0,0,0,0,0,0,0,0,0,0,0,0,0,0,0,0,0,0,0,0,0,0,0,0,0,0,0,0,0,0,0,0,0,0,0,0,0,0,0,0,0,0,0,0,0,0,0,0,0,0,0,0,0,0,0,0,0,0,0,0,0,0,0,0,0,0,0,0,0,0,0,0,0,0,0,0,0,0,0,0,0,0,0,0,0,0,0,0,0,0,0,0,0,0,0,0,0,0,0,0,0,0,0,0,0,0,0,0,0,0,0,0,0,0,0,0,0,0,0,0,0,0,0,0,0,0,0,0,0,0,0,0,0,0,0,0,0,0,0,0,0,0,0,0,0,0,0,0,0,0,0,0,0,0,0,0,0,0,0,0,0,0,0,0,0,0,0,0,0,0,0,0,0,0,0,0,0,0,0,0,0,0,0,0,0,0,0,0,0,0,0,0,0,0,0,0,0,0,0,0,0,0,0,0,0,0,0,0,0,0,0,0,0,0,0,0,0,0,0,0,0,0,0,0,0,0,0,0,0,0,0,0,0,0,0,0,0,0,0,0,0,0,0,0,0,0,0,0,0,0,0,0,0,0,0,0,0,0,0,0,0,0,0,0,0,0,0,0,0,0,0,0,0,0,0,0,0,0,0,0,0,0,0,0,0,0,0,0,0,0,0,0,
0,0,0,0,0,0,0,0,0,0,0,0,0,0,0,0,0,0,0,0,0,0,0,0,0,0,0,0,0,0,0,0,0,0,0,0,0,0,0,0,0,0,0,0,0,0,0,0,0,0,0,0,0,0,0,0,0,0,0,0,0,0,0,0,0,0,0,0,0,0,0,0,0,0,0,0,0,0,0,0,0,0,0,0,0,0,0,0,0,0,0,0,0,0,0,0,0,0,0,0,0,0,0,0,0,0,0,0,0,0,0,0,0,0,0,0,0,0,0,0,0,0,0,0,0,0,0,0,0,0,0,0,0,0,0,0,0,0,0,0,0,0,0,0,0,0,0,0,0,0,0,0,0,0,0,0,0,0,0,0,0,0,0,0,0,0,0,0,0,0,0,0,0,0,0,0,0,0,0,0,0,0,0,0,0,0,0,0,0,0,0,0,0,0,0,0,0,0,0,0,0,0,0,0,0,0,0,0,0,0,0,0,0,0,0,0,0,0,0,0,0,0,0,0,0,0,0,0,0,0,0,0,0,0,0,0,0,0,0,0,0,0,0,0,0,0,0,0,0,0,0,0,0,0,0,0,0,0,0,0,0,0,0,0,0,0,0,0,0,0,0,0,0,0,0,0,0,0,0,0,0,0,0,0,0,0,0,0,0,0,0,0,0,0,0,0,0,0,0,0,0,0,0,0,0,0,0,0,
0,0,0,0,0,0,0,0,0,0,0,0,0,0,0,0,0,0,0,0,0,0,0,0,0,0,0,0,0,0,0,0,0,0,0,0,0,0,0,0,0,0,0,0,0,0,0,0,0,0,0,0,0,0,0,0,0,0,0,0,0,0,0,0,0,0,0,0,0,0,0,0,0,0,0,0,0,0,0,0,0,0,0,0,0,0,0,0,0,0,0,0,0,0,0,0,0,0,0,0,0,0,0,0,0,0,0,0,0,0,0,0,0,0,0,0,0,0,0,0,0,0,0,0,0,0,0,0,0,0,0,0,0,0,0,0,0,0,0,0,0,0,0,0,0,0,0,0,0,0,0,0,0,0,0,0,0,0,0,0,0,0,0,0,0,0,0,0,0,0,0,0,0,0,0,0,0,0,0,0,0,0,0,0,0,0,0,0,0,0,0,0,0,0,0,0,0,0,0,0,0,0,0,0,0,0,0,0,0,0,0,0,0,0,0,0,0,0,0,0,0,0,0,0,0,0,0,0,0,0,0,0,0,0,0,0,0,0,0,0,0,0,0,0,0,0,0,0,0,0,0,0,0,0,0,0,0,0,0,0,0,0,0,0,0,0,0,0,0,0,0,0,0,0,0,0,0,0,0,0,0,0,0,0,0,0,0,0,0,0,0,0,0,0,0,0,0,0,0,0,0,0,0,0,0,0,0,0,
0,0,0,0,0,0,0,0,0,0,0,0,0,0,0,0,0,0,0,0,0,0,0,0,0,0,0,0,0,0,0,0,0,0,0,0,0,0,0,0,0,0,0,0,0,0,0,0,0,0,0,0,0,0,0,0,0,0,0,0,0,0,0,0,0,0,0,0,0,0,0,0,0,0,0,0,0,0,0,0,0,0,0,0,0,0,0,0,0,0,0,0,0,0,0,0,0,0,0,0,0,0,0,0,0,0,0,0,0,0,0,0,0,0,0,0,0,0,0,0,0,0,0,0,0,0,0,0,0,0,0,0,0,0,0,0,0,0,0,0,0,0,0,0,0,0,0,0,0,0,0,0,0,0,0,0,0,0,0,0,0,0,0,0,0,0,0,0,0,0,0,0,0,0,0,0,0,0,0,0,0,0,0,0,0,0,0,0,0,0,0,0,0,0,0,0,0,0,0,0,0,0,0,0,0,0,0,0,0,0,0,0,0,0,0,0,0,0,0,0,0,0,0,0,0,0,0,0,0,0,0,0,0,0,0,0,0,0,0,0,0,0,0,0,0,0,0,0,0,0,0,0,0,0,0,0,0,0,0,0,0,0,0,0,0,0,0,0,0,0,0,0,0,0,0,0,0,0,0,0,0,0,0,0,0,0,0,0,0,0,0,0,0,0,0,0,0,0,0,0,0,0,0,0,0,0,0,0,
0,0,0,0,0,0,0,0,0,0,0,0,0,0,0,0,0,0,0,0,0,0,0,0,0,0,0,0,0,0,0,0,0,0,0,0,0,0,0,0,0,0,0,0,0,0,0,0,0,0,0,0,0,0,0,0,0,0,0,0,0,0,0,0,0,0,0,0,0,0,0,0,0,0,0,0,0,0,0,0,0,0,0,0,0,0,0,0,0,0,0,0,0,0,0,0,0,0,0,0,0,0,0,0,0,0,0,0,0,0,0,0,0,0,0,0,0,0,0,0,0,0,0,0,0,0,0,0,0,0,0,0,0,0,0,0,0,0,0,0,0,0,0,0,0,0,0,0,0,0,0,0,0,0,0,0,0,0,0,0,0,0,0,0,0,0,0,0,0,0,0,0,0,0,0,0,0,0,0,0,0,0,0,0,0,0,0,0,0,0,0,0,0,0,0,0,0,0,0,0,0,0,0,0,0,0,0,0,0,0,0,0,0,0,0,0,0,0,0,0,0,0,0,0,0,0,0,0,0,0,0,0,0,0,0,0,0,0,0,0,0,0,0,0,0,0,0,0,0,0,0,0,0,0,0,0,0,0,0,0,0,0,0,0,0,0,0,0,0,0,0,0,0,0,0,0,0,0,0,0,0,0,0,0,0,0,0,0,0,0,0,0,0,0,0,0,0,0,0,0,0,0,0,0,0,0,0,0,
0,0,0,0,0,0,0,0,0,0,0,0,0,0,0,0,0,0,0,0,0,0,0,0,0,0,0,0,0,0,0,0,0,0,0,0,0,0,0,0,0,0,0,0,0,0,0,0,0,0,0,0,0,0,0,0,0,0,0,0,0,0,0,0,0,0,0,0,0,0,0,0,0,0,0,0,0,0,0,0,0,0,0,0,0,0,0,0,0,0,0,0,0,0,0,0,0,0,0,0,0,0,0,0,0,0,0,0,0,0,0,0,0,0,0,0,0,0,0,0,0,0,0,0,0,0,0,0,0,0,0,0,0,0,0,0,0,0,0,0,0,0,0,0,0,0,0,0,0,0,0,0,0,0,0,0,0,0,0,0,0,0,0,0,0,0,0,0,0,0,0,0,0,0,0,0,0,0,0,0,0,0,0,0,0,0,0,0,0,0,0,0,0,0,0,0,0,0,0,0,0,0,0,0,0,0,0,0,0,0,0,0,0,0,0,0,0,0,0,0,0,0,0,0,0,0,0,0,0,0,0,0,0,0,0,0,0,0,0,0,0,0,0,0,0,0,0,0,0,0,0,0,0,0,0,0,0,0,0,0,0,0,0,0,0,0,0,0,0,0,0,0,0,0,0,0,0,0,0,0,0,0,0,0,0,0,0,0,0,0,0,0,0,0,0,0,0,0,0,0,0,0,0,0,0,0,0,0,
0,0,0,0,0,0,0,0,0,0,0,0,0,0,0,0,0,0,0,0,0,0,0,0,0,0,0,0,0,0,0,0,0,0,0,0,0,0,0,0,0,0,0,0,0,0,0,0,0,0,0,0,0,0,0,0,0,0,0,0,0,0,0,0,0,0,0,0,0,0,0,0,0,0,0,0,0,0,0,0,0,0,0,0,0,0,0,0,0,0,0,0,0,0,0,0,0,0,0,0,0,0,0,0,0,0,0,0,0,0,0,0,0,0,0,0,0,0,0,0,0,0,0,0,0,0,0,0,0,0,0,0,0,0,0,0,0,0,0,0,0,0,0,0,0,0,0,0,0,0,0,0,0,0,0,0,0,0,0,0,0,0,0,0,0,0,0,0,0,0,0,0,0,0,0,0,0,0,0,0,0,0,0,0,0,0,0,0,0,0,0,0,0,0,0,0,0,0,0,0,0,0,0,0,0,0,0,0,0,0,0,0,0,0,0,0,0,0,0,0,0,0,0,0,0,0,0,0,0,0,0,0,0,0,0,0,0,0,0,0,0,0,0,0,0,0,0,0,0,0,0,0,0,0,0,0,0,0,0,0,0,0,0,0,0,0,0,0,0,0,0,0,0,0,0,0,0,0,0,0,0,0,0,0,0,0,0,0,0,0,0,0,0,0,0,0,0,0,0,0,0,0,0,0,0,0,0,0,
0,0,0,0,0,0,0,0,0,0,0,0,0,0,0,0,0,0,0,0,0,0,0,0,0,0,0,0,0,0,0,0,0,0,0,0,0,0,0,0,0,0,0,0,0,0,0,0,0,0,0,0,0,0,0,0,0,0,0,0,0,0,0,0,0,0,0,0,0,0,0,0,0,0,0,0,0,0,0,0,0,0,0,0,0,0,0,0,0,0,0,0,0,0,0,0,0,0,0,0,0,0,0,0,0,0,0,0,0,0,0,0,0,0,0,0,0,0,0,0,0,0,0,0,0,0,0,0,0,0,0,0,0,0,0,0,0,0,0,0,0,0,0,0,0,0,0,0,0,0,0,0,0,0,0,0,0,0,0,0,0,0,0,0,0,0,0,0,0,0,0,0,0,0,0,0,0,0,0,0,0,0,0,0,0,0,0,0,0,0,0,0,0,0,0,0,0,0,0,0,0,0,0,0,0,0,0,0,0,0,0,0,0,0,0,0,0,0,0,0,0,0,0,0,0,0,0,0,0,0,0,0,0,0,0,0,0,0,0,0,0,0,0,0,0,0,0,0,0,0,0,0,0,0,0,0,0,0,0,0,0,0,0,0,0,0,0,0,0,0,0,0,0,0,0,0,0,0,0,0,0,0,0,0,0,0,0,0,0,0,0,0,0,0,0,0,0,0,0,0,0,0,0,0,0,0,0,0,
0,0,0,0,0,0,0,0,0,0,0,0,0,0,0,0,0,0,0,0,0,0,0,0,0,0,0,0,0,0,0,0,0,0,0,0,0,0,0,0,0,0,0,0,0,0,0,0,0,0,0,0,0,0,0,0,0,0,0,0,0,0,0,0,0,0,0,0,0,0,0,0,0,0,0,0,0,0,0,0,0,0,0,0,0,0,0,0,0,0,0,0,0,0,0,0,0,0,0,0,0,0,0,0,0,0,0,0,0,0,0,0,0,0,0,0,0,0,0,0,0,0,0,0,0,0,0,0,0,0,0,0,0,0,0,0,0,0,0,0,0,0,0,0,0,0,0,0,0,0,0,0,0,0,0,0,0,0,0,0,0,0,0,0,0,0,0,0,0,0,0,0,0,0,0,0,0,0,0,0,0,0,0,0,0,0,0,0,0,0,0,0,0,0,0,0,0,0,0,0,0,0,0,0,0,0,0,0,0,0,0,0,0,0,0,0,0,0,0,0,0,0,0,0,0,0,0,0,0,0,0,0,0,0,0,0,0,0,0,0,0,0,0,0,0,0,0,0,0,0,0,0,0,0,0,0,0,0,0,0,0,0,0,0,0,0,0,0,0,0,0,0,0,0,0,0,0,0,0,0,0,0,0,0,0,0,0,0,0,0,0,0,0,0,0,0,0,0,0,0,0,0,0,0,0,0,0,0,
0,0,0,0,0,0,0,0,0,0,0,0,0,0,0,0,0,0,0,0,0,0,0,0,0,0,0,0,0,0,0,0,0,0,0,0,0,0,0,0,0,0,0,0,0,0,0,0,0,0,0,0,0,0,0,0,0,0,0,0,0,0,0,0,0,0,0,0,0,0,0,0,0,0,0,0,0,0,0,0,0,0,0,0,0,0,0,0,0,0,0,0,0,0,0,0,0,0,0,0,0,0,0,0,0,0,0,0,0,0,0,0,0,0,0,0,0,0,0,0,0,0,0,0,0,0,0,0,0,0,0,0,0,0,0,0,0,0,0,0,0,0,0,0,0,0,0,0,0,0,0,0,0,0,0,0,0,0,0,0,0,0,0,0,0,0,0,0,0,0,0,0,0,0,0,0,0,0,0,0,0,0,0,0,0,0,0,0,0,0,0,0,0,0,0,0,0,0,0,0,0,0,0,0,0,0,0,0,0,0,0,0,0,0,0,0,0,0,0,0,0,0,0,0,0,0,0,0,0,0,0,0,0,0,0,0,0,0,0,0,0,0,0,0,0,0,0,0,0,0,0,0,0,0,0,0,0,0,0,0,0,0,0,0,0,0,0,0,0,0,0,0,0,0,0,0,0,0,0,0,0,0,0,0,0,0,0,0,0,0,0,0,0,0,0,0,0,0,0,0,0,0,0,0,0,0,0,0,
0,0,0,0,0,0,0,0,0,0,0,0,0,0,0,0,0,0,0,0,0,0,0,0,0,0,0,0,0,0,0,0,0,0,0,0,0,0,0,0,0,0,0,0,0,0,0,0,0,0,0,0,0,0,0,0,0,0,0,0,0,0,0,0,0,0,0,0,0,0,0,0,0,0,0,0,0,0,0,0,0,0,0,0,0,0,0,0,0,0,0,0,0,0,0,0,0,0,0,0,0,0,0,0,0,0,0,0,0,0,0,0,0,0,0,0,0,0,0,0,0,0,0,0,0,0,0,0,0,0,0,0,0,0,0,0,0,0,0,0,0,0,0,0,0,0,0,0,0,0,0,0,0,0,0,0,0,0,0,0,0,0,0,0,0,0,0,0,0,0,0,0,0,0,0,0,0,0,0,0,0,0,0,0,0,0,0,0,0,0,0,0,0,0,0,0,0,0,0,0,0,0,0,0,0,0,0,0,0,0,0,0,0,0,0,0,0,0,0,0,0,0,0,0,0,0,0,0,0,0,0,0,0,0,0,0,0,0,0,0,0,0,0,0,0,0,0,0,0,0,0,0,0,0,0,0,0,0,0,0,0,0,0,0,0,0,0,0,0,0,0,0,0,0,0,0,0,0,0,0,0,0,0,0,0,0,0,0,0,0,0,0,0,0,0,0,0,0,0,0,0,0,0,0,0,0,0,0,
0,0,0,0,0,0,0,0,0,0,0,0,0,0,0,0,0,0,0,0,0,0,0,0,0,0,0,0,0,0,0,0,0,0,0,0,0,0,0,0,0,0,0,0,0,0,0,0,0,0,0,0,0,0,0,0,0,0,0,0,0,0,0,0,0,0,0,0,0,0,0,0,0,0,0,0,0,0,0,0,0,0,0,0,0,0,0,0,0,0,0,0,0,0,0,0,0,0,0,0,0,0,0,0,0,0,0,0,0,0,0,0,0,0,0,0,0,0,0,0,0,0,0,0,0,0,0,0,0,0,0,0,0,0,0,0,0,0,0,0,0,0,0,0,0,0,0,0,0,0,0,0,0,0,0,0,0,0,0,0,0,0,0,0,0,0,0,0,0,0,0,0,0,0,0,0,0,0,0,0,0,0,0,0,0,0,0,0,0,0,0,0,0,0,0,0,0,0,0,0,0,0,0,0,0,0,0,0,0,0,0,0,0,0,0,0,0,0,0,0,0,0,0,0,0,0,0,0,0,0,0,0,0,0,0,0,0,0,0,0,0,0,0,0,0,0,0,0,0,0,0,0,0,0,0,0,0,0,0,0,0,0,0,0,0,0,0,0,0,0,0,0,0,0,0,0,0,0,0,0,0,0,0,0,0,0,0,0,0,0,0,0,0,0,0,0,0,0,0,0,0,0,0,0,0,0,0,0,
0,0,0,0,0,0,0,0,0,0,0,0,0,0,0,0,0,0,0,0,0,0,0,0,0,0,0,0,0,0,0,0,0,0,0,0,0,0,0,0,0,0,0,0,0,0,0,0,0,0,0,0,0,0,0,0,0,0,0,0,0,0,0,0,0,0,0,0,0,0,0,0,0,0,0,0,0,0,0,0,0,0,0,0,0,0,0,0,0,0,0,0,0,0,0,0,0,0,0,0,0,0,0,0,0,0,0,0,0,0,0,0,0,0,0,0,0,0,0,0,0,0,0,0,0,0,0,0,0,0,0,0,0,0,0,0,0,0,0,0,0,0,0,0,0,0,0,0,0,0,0,0,0,0,0,0,0,0,0,0,0,0,0,0,0,0,0,0,0,0,0,0,0,0,0,0,0,0,0,0,0,0,0,0,0,0,0,0,0,0,0,0,0,0,0,0,0,0,0,0,0,0,0,0,0,0,0,0,0,0,0,0,0,0,0,0,0,0,0,0,0,0,0,0,0,0,0,0,0,0,0,0,0,0,0,0,0,0,0,0,0,0,0,0,0,0,0,0,0,0,0,0,0,0,0,0,0,0,0,0,0,0,0,0,0,0,0,0,0,0,0,0,0,0,0,0,0,0,0,0,0,0,0,0,0,0,0,0,0,0,0,0,0,0,0,0,0,0,0,0,0,0,0,0,0,0,0,0,
0,0,0,0,0,0,0,0,0,0,0,0,0,0,0,0,0,0,0,0,0,0,0,0,0,0,0,0,0,0,0,0,0,0,0,0,0,0,0,0,0,0,0,0,0,0,0,0,0,0,0,0,0,0,0,0,0,0,0,0,0,0,0,0,0,0,0,0,0,0,0,0,0,0,0,0,0,0,0,0,0,0,0,0,0,0,0,0,0,0,0,0,0,0,0,0,0,0,0,0,0,0,0,0,0,0,0,0,0,0,0,0,0,0,0,0,0,0,0,0,0,0,0,0,0,0,0,0,0,0,0,0,0,0,0,0,0,0,0,0,0,0,0,0,0,0,0,0,0,0,0,0,0,0,0,0,0,0,0,0,0,0,0,0,0,0,0,0,0,0,0,0,0,0,0,0,0,0,0,0,0,0,0,0,0,0,0,0,0,0,0,0,0,0,0,0,0,0,0,0,0,0,0,0,0,0,0,0,0,0,0,0,0,0,0,0,0,0,0,0,0,0,0,0,0,0,0,0,0,0,0,0,0,0,0,0,0,0,0,0,0,0,0,0,0,0,0,0,0,0,0,0,0,0,0,0,0,0,0,0,0,0,0,0,0,0,0,0,0,0,0,0,0,0,0,0,0,0,0,0,0,0,0,0,0,0,0,0,0,0,0,0,0,0,0,0,0,0,0,0,0,0,0,0,0,0,0,0,
0,0,0,0,0,0,0,0,0,0,0,0,0,0,0,0,0,0,0,0,0,0,0,0,0,0,0,0,0,0,0,0,0,0,0,0,0,0,0,0,0,0,0,0,0,0,0,0,0,0,0,0,0,0,0,0,0,0,0,0,0,0,0,0,0,0,0,0,0,0,0,0,0,0,0,0,0,0,0,0,0,0,0,0,0,0,0,0,0,0,0,0,0,0,0,0,0,0,0,0,0,0,0,0,0,0,0,0,0,0,0,0,0,0,0,0,0,0,0,0,0,0,0,0,0,0,0,0,0,0,0,0,0,0,0,0,0,0,0,0,0,0,0,0,0,0,0,0,0,0,0,0,0,0,0,0,0,0,0,0,0,0,0,0,0,0,0,0,0,0,0,0,0,0,0,0,0,0,0,0,0,0,0,0,0,0,0,0,0,0,0,0,0,0,0,0,0,0,0,0,0,0,0,0,0,0,0,0,0,0,0,0,0,0,0,0,0,0,0,0,0,0,0,0,0,0,0,0,0,0,0,0,0,0,0,0,0,0,0,0,0,0,0,0,0,0,0,0,0,0,0,0,0,0,0,0,0,0,0,0,0,0,0,0,0,0,0,0,0,0,0,0,0,0,0,0,0,0,0,0,0,0,0,0,0,0,0,0,0,0,0,0,0,0,0,0,0,0,0,0,0,0,0,0,0,0,0,0,
0,0,0,0,0,0,0,0,0,0,0,0,0,0,0,0,0,0,0,0,0,0,0,0,0,0,0,0,0,0,0,0,0,0,0,0,0,0,0,0,0,0,0,0,0,0,0,0,0,0,0,0,0,0,0,0,0,0,0,0,0,0,0,0,0,0,0,0,0,0,0,0,0,0,0,0,0,0,0,0,0,0,0,0,0,0,0,0,0,0,0,0,0,0,0,0,0,0,0,0,0,0,0,0,0,0,0,0,0,0,0,0,0,0,0,0,0,0,0,0,0,0,0,0,0,0,0,0,0,0,0,0,0,0,0,0,0,0,0,0,0,0,0,0,0,0,0,0,0,0,0,0,0,0,0,0,0,0,0,0,0,0,0,0,0,0,0,0,0,0,0,0,0,0,0,0,0,0,0,0,0,0,0,0,0,0,0,0,0,0,0,0,0,0,0,0,0,0,0,0,0,0,0,0,0,0,0,0,0,0,0,0,0,0,0,0,0,0,0,0,0,0,0,0,0,0,0,0,0,0,0,0,0,0,0,0,0,0,0,0,0,0,0,0,0,0,0,0,0,0,0,0,0,0,0,0,0,0,0,0,0,0,0,0,0,0,0,0,0,0,0,0,0,0,0,0,0,0,0,0,0,0,0,0,0,0,0,0,0,0,0,0,0,0,0,0,0,0,0,0,0,0,0,0,0,0,0,0,
0,0,0,0,0,0,0,0,0,0,0,0,0,0,0,0,0,0,0,0,0,0,0,0,0,0,0,0,0,0,0,0,0,0,0,0,0,0,0,0,0,0,0,0,0,0,0,0,0,0,0,0,0,0,0,0,0,0,0,0,0,0,0,0,0,0,0,0,0,0,0,0,0,0,0,0,0,0,0,0,0,0,0,0,0,0,0,0,0,0,0,0,0,0,0,0,0,0,0,0,0,0,0,0,0,0,0,0,0,0,0,0,0,0,0,0,0,0,0,0,0,0,0,0,0,0,0,0,0,0,0,0,0,0,0,0,0,0,0,0,0,0,0,0,0,0,0,0,0,0,0,0,0,0,0,0,0,0,0,0,0,0,0,0,0,0,0,0,0,0,0,0,0,0,0,0,0,0,0,0,0,0,0,0,0,0,0,0,0,0,0,0,0,0,0,0,0,0,0,0,0,0,0,0,0,0,0,0,0,0,0,0,0,0,0,0,0,0,0,0,0,0,0,0,0,0,0,0,0,0,0,0,0,0,0,0,0,0,0,0,0,0,0,0,0,0,0,0,0,0,0,0,0,0,0,0,0,0,0,0,0,0,0,0,0,0,0,0,0,0,0,0,0,0,0,0,0,0,0,0,0,0,0,0,0,0,0,0,0,0,0,0,0,0,0,0,0,0,0,0,0,0,0,0,0,0,0,0,
0,0,0,0,0,0,0,0,0,0,0,0,0,0,0,0,0,0,0,0,0,0,0,0,0,0,0,0,0,0,0,0,0,0,0,0,0,0,0,0,0,0,0,0,0,0,0,0,0,0,0,0,0,0,0,0,0,0,0,0,0,0,0,0,0,0,0,0,0,0,0,0,0,0,0,0,0,0,0,0,0,0,0,0,0,0,0,0,0,0,0,0,0,0,0,0,0,0,0,0,0,0,0,0,0,0,0,0,0,0,0,0,0,0,0,0,0,0,0,0,0,0,0,0,0,0,0,0,0,0,0,0,0,0,0,0,0,0,0,0,0,0,0,0,0,0,0,0,0,0,0,0,0,0,0,0,0,0,0,0,0,0,0,0,0,0,0,0,0,0,0,0,0,0,0,0,0,0,0,0,0,0,0,0,0,0,0,0,0,0,0,0,0,0,0,0,0,0,0,0,0,0,0,0,0,0,0,0,0,0,0,0,0,0,0,0,0,0,0,0,0,0,0,0,0,0,0,0,0,0,0,0,0,0,0,0,0,0,0,0,0,0,0,0,0,0,0,0,0,0,0,0,0,0,0,0,0,0,0,0,0,0,0,0,0,0,0,0,0,0,0,0,0,0,0,0,0,0,0,0,0,0,0,0,0,0,0,0,0,0,0,0,0,0,0,0,0,0,0,0,0,0,0,0,0,0,0,0,
0,0,0,0,0,0,0,0,0,0,0,0,0,0,0,0,0,0,0,0,0,0,0,0,0,0,0,0,0,0,0,0,0,0,0,0,0,0,0,0,0,0,0,0,0,0,0,0,0,0,0,0,0,0,0,0,0,0,0,0,0,0,0,0,0,0,0,0,0,0,0,0,0,0,0,0,0,0,0,0,0,0,0,0,0,0,0,0,0,0,0,0,0,0,0,0,0,0,0,0,0,0,0,0,0,0,0,0,0,0,0,0,0,0,0,0,0,0,0,0,0,0,0,0,0,0,0,0,0,0,0,0,0,0,0,0,0,0,0,0,0,0,0,0,0,0,0,0,0,0,0,0,0,0,0,0,0,0,0,0,0,0,0,0,0,0,0,0,0,0,0,0,0,0,0,0,0,0,0,0,0,0,0,0,0,0,0,0,0,0,0,0,0,0,0,0,0,0,0,0,0,0,0,0,0,0,0,0,0,0,0,0,0,0,0,0,0,0,0,0,0,0,0,0,0,0,0,0,0,0,0,0,0,0,0,0,0,0,0,0,0,0,0,0,0,0,0,0,0,0,0,0,0,0,0,0,0,0,0,0,0,0,0,0,0,0,0,0,0,0,0,0,0,0,0,0,0,0,0,0,0,0,0,0,0,0,0,0,0,0,0,0,0,0,0,0,0,0,0,0,0,0,0,0,0,0,0,0,
0,0,0,0,0,0,0,0,0,0,0,0,0,0,0,0,0,0,0,0,0,0,0,0,0,0,0,0,0,0,0,0,0,0,0,0,0,0,0,0,0,0,0,0,0,0,0,0,0,0,0,0,0,0,0,0,0,0,0,0,0,0,0,0,0,0,0,0,0,0,0,0,0,0,0,0,0,0,0,0,0,0,0,0,0,0,0,0,0,0,0,0,0,0,0,0,0,0,0,0,0,0,0,0,0,0,0,0,0,0,0,0,0,0,0,0,0,0,0,0,0,0,0,0,0,0,0,0,0,0,0,0,0,0,0,0,0,0,0,0,0,0,0,0,0,0,0,0,0,0,0,0,0,0,0,0,0,0,0,0,0,0,0,0,0,0,0,0,0,0,0,0,0,0,0,0,0,0,0,0,0,0,0,0,0,0,0,0,0,0,0,0,0,0,0,0,0,0,0,0,0,0,0,0,0,0,0,0,0,0,0,0,0,0,0,0,0,0,0,0,0,0,0,0,0,0,0,0,0,0,0,0,0,0,0,0,0,0,0,0,0,0,0,0,0,0,0,0,0,0,0,0,0,0,0,0,0,0,0,0,0,0,0,0,0,0,0,0,0,0,0,0,0,0,0,0,0,0,0,0,0,0,0,0,0,0,0,0,0,0,0,0,0,0,0,0,0,0,0,0,0,0,0,0,0,0,0,0,
0,0,0,0,0,0,0,0,0,0,0,0,0,0,0,0,0,0,0,0,0,0,0,0,0,0,0,0,0,0,0,0,0,0,0,0,0,0,0,0,0,0,0,0,0,0,0,0,0,0,0,0,0,0,0,0,0,0,0,0,0,0,0,0,0,0,0,0,0,0,0,0,0,0,0,0,0,0,0,0,0,0,0,0,0,0,0,0,0,0,0,0,0,0,0,0,0,0,0,0,0,0,0,0,0,0,0,0,0,0,0,0,0,0,0,0,0,0,0,0,0,0,0,0,0,0,0,0,0,0,0,0,0,0,0,0,0,0,0,0,0,0,0,0,0,0,0,0,0,0,0,0,0,0,0,0,0,0,0,0,0,0,0,0,0,0,0,0,0,0,0,0,0,0,0,0,0,0,0,0,0,0,0,0,0,0,0,0,0,0,0,0,0,0,0,0,0,0,0,0,0,0,0,0,0,0,0,0,0,0,0,0,0,0,0,0,0,0,0,0,0,0,0,0,0,0,0,0,0,0,0,0,0,0,0,0,0,0,0,0,0,0,0,0,0,0,0,0,0,0,0,0,0,0,0,0,0,0,0,0,0,0,0,0,0,0,0,0,0,0,0,0,0,0,0,0,0,0,0,0,0,0,0,0,0,0,0,0,0,0,0,0,0,0,0,0,0,0,0,0,0,0,0,0,0,0,0,0,
0,0,0,0,0,0,0,0,0,0,0,0,0,0,0,0,0,0,0,0,0,0,0,0,0,0,0,0,0,0,0,0,0,0,0,0,0,0,0,0,0,0,0,0,0,0,0,0,0,0,0,0,0,0,0,0,0,0,0,0,0,0,0,0,0,0,0,0,0,0,0,0,0,0,0,0,0,0,0,0,0,0,0,0,0,0,0,0,0,0,0,0,0,0,0,0,0,0,0,0,0,0,0,0,0,0,0,0,0,0,0,0,0,0,0,0,0,0,0,0,0,0,0,0,0,0,0,0,0,0,0,0,0,0,0,0,0,0,0,0,0,0,0,0,0,0,0,0,0,0,0,0,0,0,0,0,0,0,0,0,0,0,0,0,0,0,0,0,0,0,0,0,0,0,0,0,0,0,0,0,0,0,0,0,0,0,0,0,0,0,0,0,0,0,0,0,0,0,0,0,0,0,0,0,0,0,0,0,0,0,0,0,0,0,0,0,0,0,0,0,0,0,0,0,0,0,0,0,0,0,0,0,0,0,0,0,0,0,0,0,0,0,0,0,0,0,0,0,0,0,0,0,0,0,0,0,0,0,0,0,0,0,0,0,0,0,0,0,0,0,0,0,0,0,0,0,0,0,0,0,0,0,0,0,0,0,0,0,0,0,0,0,0,0,0,0,0,0,0,0,0,0,0,0,0,0,0,0,
0,0,0,0,0,0,0,0,0,0,0,0,0,0,0,0,0,0,0,0,0,0,0,0,0,0,0,0,0,0,0,0,0,0,0,0,0,0,0,0,0,0,0,0,0,0,0,0,0,0,0,0,0,0,0,0,0,0,0,0,0,0,0,0,0,0,0,0,0,0,0,0,0,0,0,0,0,0,0,0,0,0,0,0,0,0,0,0,0,0,0,0,0,0,0,0,0,0,0,0,0,0,0,0,0,0,0,0,0,0,0,0,0,0,0,0,0,0,0,0,0,0,0,0,0,0,0,0,0,0,0,0,0,0,0,0,0,0,0,0,0,0,0,0,0,0,0,0,0,0,0,0,0,0,0,0,0,0,0,0,0,0,0,0,0,0,0,0,0,0,0,0,0,0,0,0,0,0,0,0,0,0,0,0,0,0,0,0,0,0,0,0,0,0,0,0,0,0,0,0,0,0,0,0,0,0,0,0,0,0,0,0,0,0,0,0,0,0,0,0,0,0,0,0,0,0,0,0,0,0,0,0,0,0,0,0,0,0,0,0,0,0,0,0,0,0,0,0,0,0,0,0,0,0,0,0,0,0,0,0,0,0,0,0,0,0,0,0,0,0,0,0,0,0,0,0,0,0,0,0,0,0,0,0,0,0,0,0,0,0,0,0,0,0,0,0,0,0,0,0,0,0,0,0,0,0,0,0,
0,0,0,0,0,0,0,0,0,0,0,0,0,0,0,0,0,0,0,0,0,0,0,0,0,0,0,0,0,0,0,0,0,0,0,0,0,0,0,0,0,0,0,0,0,0,0,0,0,0,0,0,0,0,0,0,0,0,0,0,0,0,0,0,0,0,0,0,0,0,0,0,0,0,0,0,0,0,0,0,0,0,0,0,0,0,0,0,0,0,0,0,0,0,0,0,0,0,0,0,0,0,0,0,0,0,0,0,0,0,0,0,0,0,0,0,0,0,0,0,0,0,0,0,0,0,0,0,0,0,0,0,0,0,0,0,0,0,0,0,0,0,0,0,0,0,0,0,0,0,0,0,0,0,0,0,0,0,0,0,0,0,0,0,0,0,0,0,0,0,0,0,0,0,0,0,0,0,0,0,0,0,0,0,0,0,0,0,0,0,0,0,0,0,0,0,0,0,0,0,0,0,0,0,0,0,0,0,0,0,0,0,0,0,0,0,0,0,0,0,0,0,0,0,0,0,0,0,0,0,0,0,0,0,0,0,0,0,0,0,0,0,0,0,0,0,0,0,0,0,0,0,0,0,0,0,0,0,0,0,0,0,0,0,0,0,0,0,0,0,0,0,0,0,0,0,0,0,0,0,0,0,0,0,0,0,0,0,0,0,0,0,0,0,0,0,0,0,0,0,0,0,0,0,0,0,0,0,
0,0,0,0,0,0,0,0,0,0,0,0,0,0,0,0,0,0,0,0,0,0,0,0,0,0,0,0,0,0,0,0,0,0,0,0,0,0,0,0,0,0,0,0,0,0,0,0,0,0,0,0,0,0,0,0,0,0,0,0,0,0,0,0,0,0,0,0,0,0,0,0,0,0,0,0,0,0,0,0,0,0,0,0,0,0,0,0,0,0,0,0,0,0,0,0,0,0,0,0,0,0,0,0,0,0,0,0,0,0,0,0,0,0,0,0,0,0,0,0,0,0,0,0,0,0,0,0,0,0,0,0,0,0,0,0,0,0,0,0,0,0,0,0,0,0,0,0,0,0,0,0,0,0,0,0,0,0,0,0,0,0,0,0,0,0,0,0,0,0,0,0,0,0,0,0,0,0,0,0,0,0,0,0,0,0,0,0,0,0,0,0,0,0,0,0,0,0,0,0,0,0,0,0,0,0,0,0,0,0,0,0,0,0,0,0,0,0,0,0,0,0,0,0,0,0,0,0,0,0,0,0,0,0,0,0,0,0,0,0,0,0,0,0,0,0,0,0,0,0,0,0,0,0,0,0,0,0,0,0,0,0,0,0,0,0,0,0,0,0,0,0,0,0,0,0,0,0,0,0,0,0,0,0,0,0,0,0,0,0,0,0,0,0,0,0,0,0,0,0,0,0,0,0,0,0,0,0,
0,0,0,0,0,0,0,0,0,0,0,0,0,0,0,0,0,0,0,0,0,0,0,0,0,0,0,0,0,0,0,0,0,0,0,0,0,0,0,0,0,0,0,0,0,0,0,0,0,0,0,0,0,0,0,0,0,0,0,0,0,0,0,0,0,0,0,0,0,0,0,0,0,0,0,0,0,0,0,0,0,0,0,0,0,0,0,0,0,0,0,0,0,0,0,0,0,0,0,0,0,0,0,0,0,0,0,0,0,0,0,0,0,0,0,0,0,0,0,0,0,0,0,0,0,0,0,0,0,0,0,0,0,0,0,0,0,0,0,0,0,0,0,0,0,0,0,0,0,0,0,0,0,0,0,0,0,0,0,0,0,0,0,0,0,0,0,0,0,0,0,0,0,0,0,0,0,0,0,0,0,0,0,0,0,0,0,0,0,0,0,0,0,0,0,0,0,0,0,0,0,0,0,0,0,0,0,0,0,0,0,0,0,0,0,0,0,0,0,0,0,0,0,0,0,0,0,0,0,0,0,0,0,0,0,0,0,0,0,0,0,0,0,0,0,0,0,0,0,0,0,0,0,0,0,0,0,0,0,0,0,0,0,0,0,0,0,0,0,0,0,0,0,0,0,0,0,0,0,0,0,0,0,0,0,0,0,0,0,0,0,0,0,0,0,0,0,0,0,0,0,0,0,0,0,0,0,0,
0,0,0,0,0,0,0,0,0,0,0,0,0,0,0,0,0,0,0,0,0,0,0,0,0,0,0,0,0,0,0,0,0,0,0,0,0,0,0,0,0,0,0,0,0,0,0,0,0,0,0,0,0,0,0,0,0,0,0,0,0,0,0,0,0,0,0,0,0,0,0,0,0,0,0,0,0,0,0,0,0,0,0,0,0,0,0,0,0,0,0,0,0,0,0,0,0,0,0,0,0,0,0,0,0,0,0,0,0,0,0,0,0,0,0,0,0,0,0,0,0,0,0,0,0,0,0,0,0,0,0,0,0,0,0,0,0,0,0,0,0,0,0,0,0,0,0,0,0,0,0,0,0,0,0,0,0,0,0,0,0,0,0,0,0,0,0,0,0,0,0,0,0,0,0,0,0,0,0,0,0,0,0,0,0,0,0,0,0,0,0,0,0,0,0,0,0,0,0,0,0,0,0,0,0,0,0,0,0,0,0,0,0,0,0,0,0,0,0,0,0,0,0,0,0,0,0,0,0,0,0,0,0,0,0,0,0,0,0,0,0,0,0,0,0,0,0,0,0,0,0,0,0,0,0,0,0,0,0,0,0,0,0,0,0,0,0,0,0,0,0,0,0,0,0,0,0,0,0,0,0,0,0,0,0,0,0,0,0,0,0,0,0,0,0,0,0,0,0,0,0,0,0,0,0,0,0,0,
0,0,0,0,0,0,0,0,0,0,0,0,0,0,0,0,0,0,0,0,0,0,0,0,0,0,0,0,0,0,0,0,0,0,0,0,0,0,0,0,0,0,0,0,0,0,0,0,0,0,0,0,0,0,0,0,0,0,0,0,0,0,0,0,0,0,0,0,0,0,0,0,0,0,0,0,0,0,0,0,0,0,0,0,0,0,0,0,0,0,0,0,0,0,0,0,0,0,0,0,0,0,0,0,0,0,0,0,0,0,0,0,0,0,0,0,0,0,0,0,0,0,0,0,0,0,0,0,0,0,0,0,0,0,0,0,0,0,0,0,0,0,0,0,0,0,0,0,0,0,0,0,0,0,0,0,0,0,0,0,0,0,0,0,0,0,0,0,0,0,0,0,0,0,0,0,0,0,0,0,0,0,0,0,0,0,0,0,0,0,0,0,0,0,0,0,0,0,0,0,0,0,0,0,0,0,0,0,0,0,0,0,0,0,0,0,0,0,0,0,0,0,0,0,0,0,0,0,0,0,0,0,0,0,0,0,0,0,0,0,0,0,0,0,0,0,0,0,0,0,0,0,0,0,0,0,0,0,0,0,0,0,0,0,0,0,0,0,0,0,0,0,0,0,0,0,0,0,0,0,0,0,0,0,0,0,0,0,0,0,0,0,0,0,0,0,0,0,0,0,0,0,0,0,0,0,0,0,
0,0,0,0,0,0,0,0,0,0,0,0,0,0,0,0,0,0,0,0,0,0,0,0,0,0,0,0,0,0,0,0,0,0,0,0,0,0,0,0,0,0,0,0,0,0,0,0,0,0,0,0,0,0,0,0,0,0,0,0,0,0,0,0,0,0,0,0,0,0,0,0,0,0,0,0,0,0,0,0,0,0,0,0,0,0,0,0,0,0,0,0,0,0,0,0,0,0,0,0,0,0,0,0,0,0,0,0,0,0,0,0,0,0,0,0,0,0,0,0,0,0,0,0,0,0,0,0,0,0,0,0,0,0,0,0,0,0,0,0,0,0,0,0,0,0,0,0,0,0,0,0,0,0,0,0,0,0,0,0,0,0,0,0,0,0,0,0,0,0,0,0,0,0,0,0,0,0,0,0,0,0,0,0,0,0,0,0,0,0,0,0,0,0,0,0,0,0,0,0,0,0,0,0,0,0,0,0,0,0,0,0,0,0,0,0,0,0,0,0,0,0,0,0,0,0,0,0,0,0,0,0,0,0,0,0,0,0,0,0,0,0,0,0,0,0,0,0,0,0,0,0,0,0,0,0,0,0,0,0,0,0,0,0,0,0,0,0,0,0,0,0,0,0,0,0,0,0,0,0,0,0,0,0,0,0,0,0,0,0,0,0,0,0,0,0,0,0,0,0,0,0,0,0,0,0,0,0,
0,0,0,0,0,0,0,0,0,0,0,0,0,0,0,0,0,0,0,0,0,0,0,0,0,0,0,0,0,0,0,0,0,0,0,0,0,0,0,0,0,0,0,0,0,0,0,0,0,0,0,0,0,0,0,0,0,0,0,0,0,0,0,0,0,0,0,0,0,0,0,0,0,0,0,0,0,0,0,0,0,0,0,0,0,0,0,0,0,0,0,0,0,0,0,0,0,0,0,0,0,0,0,0,0,0,0,0,0,0,0,0,0,0,0,0,0,0,0,0,0,0,0,0,0,0,0,0,0,0,0,0,0,0,0,0,0,0,0,0,0,0,0,0,0,0,0,0,0,0,0,0,0,0,0,0,0,0,0,0,0,0,0,0,0,0,0,0,0,0,0,0,0,0,0,0,0,0,0,0,0,0,0,0,0,0,0,0,0,0,0,0,0,0,0,0,0,0,0,0,0,0,0,0,0,0,0,0,0,0,0,0,0,0,0,0,0,0,0,0,0,0,0,0,0,0,0,0,0,0,0,0,0,0,0,0,0,0,0,0,0,0,0,0,0,0,0,0,0,0,0,0,0,0,0,0,0,0,0,0,0,0,0,0,0,0,0,0,0,0,0,0,0,0,0,0,0,0,0,0,0,0,0,0,0,0,0,0,0,0,0,0,0,0,0,0,0,0,0,0,0,0,0,0,0,0,0,0,
0,0,0,0,0,0,0,0,0,0,0,0,0,0,0,0,0,0,0,0,0,0,0,0,0,0,0,0,0,0,0,0,0,0,0,0,0,0,0,0,0,0,0,0,0,0,0,0,0,0,0,0,0,0,0,0,0,0,0,0,0,0,0,0,0,0,0,0,0,0,0,0,0,0,0,0,0,0,0,0,0,0,0,0,0,0,0,0,0,0,0,0,0,0,0,0,0,0,0,0,0,0,0,0,0,0,0,0,0,0,0,0,0,0,0,0,0,0,0,0,0,0,0,0,0,0,0,0,0,0,0,0,0,0,0,0,0,0,0,0,0,0,0,0,0,0,0,0,0,0,0,0,0,0,0,0,0,0,0,0,0,0,0,0,0,0,0,0,0,0,0,0,0,0,0,0,0,0,0,0,0,0,0,0,0,0,0,0,0,0,0,0,0,0,0,0,0,0,0,0,0,0,0,0,0,0,0,0,0,0,0,0,0,0,0,0,0,0,0,0,0,0,0,0,0,0,0,0,0,0,0,0,0,0,0,0,0,0,0,0,0,0,0,0,0,0,0,0,0,0,0,0,0,0,0,0,0,0,0,0,0,0,0,0,0,0,0,0,0,0,0,0,0,0,0,0,0,0,0,0,0,0,0,0,0,0,0,0,0,0,0,0,0,0,0,0,0,0,0,0,0,0,0,0,0,0,0,0,
0,0,0,0,0,0,0,0,0,0,0,0,0,0,0,0,0,0,0,0,0,0,0,0,0,0,0,0,0,0,0,0,0,0,0,0,0,0,0,0,0,0,0,0,0,0,0,0,0,0,0,0,0,0,0,0,0,0,0,0,0,0,0,0,0,0,0,0,0,0,0,0,0,0,0,0,0,0,0,0,0,0,0,0,0,0,0,0,0,0,0,0,0,0,0,0,0,0,0,0,0,0,0,0,0,0,0,0,0,0,0,0,0,0,0,0,0,0,0,0,0,0,0,0,0,0,0,0,0,0,0,0,0,0,0,0,0,0,0,0,0,0,0,0,0,0,0,0,0,0,0,0,0,0,0,0,0,0,0,0,0,0,0,0,0,0,0,0,0,0,0,0,0,0,0,0,0,0,0,0,0,0,0,0,0,0,0,0,0,0,0,0,0,0,0,0,0,0,0,0,0,0,0,0,0,0,0,0,0,0,0,0,0,0,0,0,0,0,0,0,0,0,0,0,0,0,0,0,0,0,0,0,0,0,0,0,0,0,0,0,0,0,0,0,0,0,0,0,0,0,0,0,0,0,0,0,0,0,0,0,0,0,0,0,0,0,0,0,0,0,0,0,0,0,0,0,0,0,0,0,0,0,0,0,0,0,0,0,0,0,0,0,0,0,0,0,0,0,0,0,0,0,0,0,0,0,0,0,
0,0,0,0,0,0,0,0,0,0,0,0,0,0,0,0,0,0,0,0,0,0,0,0,0,0,0,0,0,0,0,0,0,0,0,0,0,0,0,0,0,0,0,0,0,0,0,0,0,0,0,0,0,0,0,0,0,0,0,0,0,0,0,0,0,0,0,0,0,0,0,0,0,0,0,0,0,0,0,0,0,0,0,0,0,0,0,0,0,0,0,0,0,0,0,0,0,0,0,0,0,0,0,0,0,0,0,0,0,0,0,0,0,0,0,0,0,0,0,0,0,0,0,0,0,0,0,0,0,0,0,0,0,0,0,0,0,0,0,0,0,0,0,0,0,0,0,0,0,0,0,0,0,0,0,0,0,0,0,0,0,0,0,0,0,0,0,0,0,0,0,0,0,0,0,0,0,0,0,0,0,0,0,0,0,0,0,0,0,0,0,0,0,0,0,0,0,0,0,0,0,0,0,0,0,0,0,0,0,0,0,0,0,0,0,0,0,0,0,0,0,0,0,0,0,0,0,0,0,0,0,0,0,0,0,0,0,0,0,0,0,0,0,0,0,0,0,0,0,0,0,0,0,0,0,0,0,0,0,0,0,0,0,0,0,0,0,0,0,0,0,0,0,0,0,0,0,0,0,0,0,0,0,0,0,0,0,0,0,0,0,0,0,0,0,0,0,0,0,0,0,0,0,0,0,0,0,0,
0,0,0,0,0,0,0,0,0,0,0,0,0,0,0,0,0,0,0,0,0,0,0,0,0,0,0,0,0,0,0,0,0,0,0,0,0,0,0,0,0,0,0,0,0,0,0,0,0,0,0,0,0,0,0,0,0,0,0,0,0,0,0,0,0,0,0,0,0,0,0,0,0,0,0,0,0,0,0,0,0,0,0,0,0,0,0,0,0,0,0,0,0,0,0,0,0,0,0,0,0,0,0,0,0,0,0,0,0,0,0,0,0,0,0,0,0,0,0,0,0,0,0,0,0,0,0,0,0,0,0,0,0,0,0,0,0,0,0,0,0,0,0,0,0,0,0,0,0,0,0,0,0,0,0,0,0,0,0,0,0,0,0,0,0,0,0,0,0,0,0,0,0,0,0,0,0,0,0,0,0,0,0,0,0,0,0,0,0,0,0,0,0,0,0,0,0,0,0,0,0,0,0,0,0,0,0,0,0,0,0,0,0,0,0,0,0,0,0,0,0,0,0,0,0,0,0,0,0,0,0,0,0,0,0,0,0,0,0,0,0,0,0,0,0,0,0,0,0,0,0,0,0,0,0,0,0,0,0,0,0,0,0,0,0,0,0,0,0,0,0,0,0,0,0,0,0,0,0,0,0,0,0,0,0,0,0,0,0,0,0,0,0,0,0,0,0,0,0,0,0,0,0,0,0,0,0,0,
0,0,0,0,0,0,0,0,0,0,0,0,0,0,0,0,0,0,0,0,0,0,0,0,0,0,0,0,0,0,0,0,0,0,0,0,0,0,0,0,0,0,0,0,0,0,0,0,0,0,0,0,0,0,0,0,0,0,0,0,0,0,0,0,0,0,0,0,0,0,0,0,0,0,0,0,0,0,0,0,0,0,0,0,0,0,0,0,0,0,0,0,0,0,0,0,0,0,0,0,0,0,0,0,0,0,0,0,0,0,0,0,0,0,0,0,0,0,0,0,0,0,0,0,0,0,0,0,0,0,0,0,0,0,0,0,0,0,0,0,0,0,0,0,0,0,0,0,0,0,0,0,0,0,0,0,0,0,0,0,0,0,0,0,0,0,0,0,0,0,0,0,0,0,0,0,0,0,0,0,0,0,0,0,0,0,0,0,0,0,0,0,0,0,0,0,0,0,0,0,0,0,0,0,0,0,0,0,0,0,0,0,0,0,0,0,0,0,0,0,0,0,0,0,0,0,0,0,0,0,0,0,0,0,0,0,0,0,0,0,0,0,0,0,0,0,0,0,0,0,0,0,0,0,0,0,0,0,0,0,0,0,0,0,0,0,0,0,0,0,0,0,0,0,0,0,0,0,0,0,0,0,0,0,0,0,0,0,0,0,0,0,0,0,0,0,0,0,0,0,0,0,0,0,0,0,0,0,
0,0,0,0,0,0,0,0,0,0,0,0,0,0,0,0,0,0,0,0,0,0,0,0,0,0,0,0,0,0,0,0,0,0,0,0,0,0,0,0,0,0,0,0,0,0,0,0,0,0,0,0,0,0,0,0,0,0,0,0,0,0,0,0,0,0,0,0,0,0,0,0,0,0,0,0,0,0,0,0,0,0,0,0,0,0,0,0,0,0,0,0,0,0,0,0,0,0,0,0,0,0,0,0,0,0,0,0,0,0,0,0,0,0,0,0,0,0,0,0,0,0,0,0,0,0,0,0,0,0,0,0,0,0,0,0,0,0,0,0,0,0,0,0,0,0,0,0,0,0,0,0,0,0,0,0,0,0,0,0,0,0,0,0,0,0,0,0,0,0,0,0,0,0,0,0,0,0,0,0,0,0,0,0,0,0,0,0,0,0,0,0,0,0,0,0,0,0,0,0,0,0,0,0,0,0,0,0,0,0,0,0,0,0,0,0,0,0,0,0,0,0,0,0,0,0,0,0,0,0,0,0,0,0,0,0,0,0,0,0,0,0,0,0,0,0,0,0,0,0,0,0,0,0,0,0,0,0,0,0,0,0,0,0,0,0,0,0,0,0,0,0,0,0,0,0,0,0,0,0,0,0,0,0,0,0,0,0,0,0,0,0,0,0,0,0,0,0,0,0,0,0,0,0,0,0,0,0,
0,0,0,0,0,0,0,0,0,0,0,0,0,0,0,0,0,0,0,0,0,0,0,0,0,0,0,0,0,0,0,0,0,0,0,0,0,0,0,0,0,0,0,0,0,0,0,0,0,0,0,0,0,0,0,0,0,0,0,0,0,0,0,0,0,0,0,0,0,0,0,0,0,0,0,0,0,0,0,0,0,0,0,0,0,0,0,0,0,0,0,0,0,0,0,0,0,0,0,0,0,0,0,0,0,0,0,0,0,0,0,0,0,0,0,0,0,0,0,0,0,0,0,0,0,0,0,0,0,0,0,0,0,0,0,0,0,0,0,0,0,0,0,0,0,0,0,0,0,0,0,0,0,0,0,0,0,0,0,0,0,0,0,0,0,0,0,0,0,0,0,0,0,0,0,0,0,0,0,0,0,0,0,0,0,0,0,0,0,0,0,0,0,0,0,0,0,0,0,0,0,0,0,0,0,0,0,0,0,0,0,0,0,0,0,0,0,0,0,0,0,0,0,0,0,0,0,0,0,0,0,0,0,0,0,0,0,0,0,0,0,0,0,0,0,0,0,0,0,0,0,0,0,0,0,0,0,0,0,0,0,0,0,0,0,0,0,0,0,0,0,0,0,0,0,0,0,0,0,0,0,0,0,0,0,0,0,0,0,0,0,0,0,0,0,0,0,0,0,0,0,0,0,0,0,0,0,0,
0,0,0,0,0,0,0,0,0,0,0,0,0,0,0,0,0,0,0,0,0,0,0,0,0,0,0,0,0,0,0,0,0,0,0,0,0,0,0,0,0,0,0,0,0,0,0,0,0,0,0,0,0,0,0,0,0,0,0,0,0,0,0,0,0,0,0,0,0,0,0,0,0,0,0,0,0,0,0,0,0,0,0,0,0,0,0,0,0,0,0,0,0,0,0,0,0,0,0,0,0,0,0,0,0,0,0,0,0,0,0,0,0,0,0,0,0,0,0,0,0,0,0,0,0,0,0,0,0,0,0,0,0,0,0,0,0,0,0,0,0,0,0,0,0,0,0,0,0,0,0,0,0,0,0,0,0,0,0,0,0,0,0,0,0,0,0,0,0,0,0,0,0,0,0,0,0,0,0,0,0,0,0,0,0,0,0,0,0,0,0,0,0,0,0,0,0,0,0,0,0,0,0,0,0,0,0,0,0,0,0,0,0,0,0,0,0,0,0,0,0,0,0,0,0,0,0,0,0,0,0,0,0,0,0,0,0,0,0,0,0,0,0,0,0,0,0,0,0,0,0,0,0,0,0,0,0,0,0,0,0,0,0,0,0,0,0,0,0,0,0,0,0,0,0,0,0,0,0,0,0,0,0,0,0,0,0,0,0,0,0,0,0,0,0,0,0,0,0,0,0,0,0,0,0,0,0,0,
0,0,0,0,0,0,0,0,0,0,0,0,0,0,0,0,0,0,0,0,0,0,0,0,0,0,0,0,0,0,0,0,0,0,0,0,0,0,0,0,0,0,0,0,0,0,0,0,0,0,0,0,0,0,0,0,0,0,0,0,0,0,0,0,0,0,0,0,0,0,0,0,0,0,0,0,0,0,0,0,0,0,0,0,0,0,0,0,0,0,0,0,0,0,0,0,0,0,0,0,0,0,0,0,0,0,0,0,0,0,0,0,0,0,0,0,0,0,0,0,0,0,0,0,0,0,0,0,0,0,0,0,0,0,0,0,0,0,0,0,0,0,0,0,0,0,0,0,0,0,0,0,0,0,0,0,0,0,0,0,0,0,0,0,0,0,0,0,0,0,0,0,0,0,0,0,0,0,0,0,0,0,0,0,0,0,0,0,0,0,0,0,0,0,0,0,0,0,0,0,0,0,0,0,0,0,0,0,0,0,0,0,0,0,0,0,0,0,0,0,0,0,0,0,0,0,0,0,0,0,0,0,0,0,0,0,0,0,0,0,0,0,0,0,0,0,0,0,0,0,0,0,0,0,0,0,0,0,0,0,0,0,0,0,0,0,0,0,0,0,0,0,0,0,0,0,0,0,0,0,0,0,0,0,0,0,0,0,0,0,0,0,0,0,0,0,0,0,0,0,0,0,0,0,0,0,0,0,
0,0,0,0,0,0,0,0,0,0,0,0,0,0,0,0,0,0,0,0,0,0,0,0,0,0,0,0,0,0,0,0,0,0,0,0,0,0,0,0,0,0,0,0,0,0,0,0,0,0,0,0,0,0,0,0,0,0,0,0,0,0,0,0,0,0,0,0,0,0,0,0,0,0,0,0,0,0,0,0,0,0,0,0,0,0,0,0,0,0,0,0,0,0,0,0,0,0,0,0,0,0,0,0,0,0,0,0,0,0,0,0,0,0,0,0,0,0,0,0,0,0,0,0,0,0,0,0,0,0,0,0,0,0,0,0,0,0,0,0,0,0,0,0,0,0,0,0,0,0,0,0,0,0,0,0,0,0,0,0,0,0,0,0,0,0,0,0,0,0,0,0,0,0,0,0,0,0,0,0,0,0,0,0,0,0,0,0,0,0,0,0,0,0,0,0,0,0,0,0,0,0,0,0,0,0,0,0,0,0,0,0,0,0,0,0,0,0,0,0,0,0,0,0,0,0,0,0,0,0,0,0,0,0,0,0,0,0,0,0,0,0,0,0,0,0,0,0,0,0,0,0,0,0,0,0,0,0,0,0,0,0,0,0,0,0,0,0,0,0,0,0,0,0,0,0,0,0,0,0,0,0,0,0,0,0,0,0,0,0,0,0,0,0,0,0,0,0,0,0,0,0,0,0,0,0,0,0,
0,0,0,0,0,0,0,0,0,0,0,0,0,0,0,0,0,0,0,0,0,0,0,0,0,0,0,0,0,0,0,0,0,0,0,0,0,0,0,0,0,0,0,0,0,0,0,0,0,0,0,0,0,0,0,0,0,0,0,0,0,0,0,0,0,0,0,0,0,0,0,0,0,0,0,0,0,0,0,0,0,0,0,0,0,0,0,0,0,0,0,0,0,0,0,0,0,0,0,0,0,0,0,0,0,0,0,0,0,0,0,0,0,0,0,0,0,0,0,0,0,0,0,0,0,0,0,0,0,0,0,0,0,0,0,0,0,0,0,0,0,0,0,0,0,0,0,0,0,0,0,0,0,0,0,0,0,0,0,0,0,0,0,0,0,0,0,0,0,0,0,0,0,0,0,0,0,0,0,0,0,0,0,0,0,0,0,0,0,0,0,0,0,0,0,0,0,0,0,0,0,0,0,0,0,0,0,0,0,0,0,0,0,0,0,0,0,0,0,0,0,0,0,0,0,0,0,0,0,0,0,0,0,0,0,0,0,0,0,0,0,0,0,0,0,0,0,0,0,0,0,0,0,0,0,0,0,0,0,0,0,0,0,0,0,0,0,0,0,0,0,0,0,0,0,0,0,0,0,0,0,0,0,0,0,0,0,0,0,0,0,0,0,0,0,0,0,0,0,0,0,0,0,0,0,0,0,0,
0,0,0,0,0,0,0,0,0,0,0,0,0,0,0,0,0,0,0,0,0,0,0,0,0,0,0,0,0,0,0,0,0,0,0,0,0,0,0,0,0,0,0,0,0,0,0,0,0,0,0,0,0,0,0,0,0,0,0,0,0,0,0,0,0,0,0,0,0,0,0,0,0,0,0,0,0,0,0,0,0,0,0,0,0,0,0,0,0,0,0,0,0,0,0,0,0,0,0,0,0,0,0,0,0,0,0,0,0,0,0,0,0,0,0,0,0,0,0,0,0,0,0,0,0,0,0,0,0,0,0,0,0,0,0,0,0,0,0,0,0,0,0,0,0,0,0,0,0,0,0,0,0,0,0,0,0,0,0,0,0,0,0,0,0,0,0,0,0,0,0,0,0,0,0,0,0,0,0,0,0,0,0,0,0,0,0,0,0,0,0,0,0,0,0,0,0,0,0,0,0,0,0,0,0,0,0,0,0,0,0,0,0,0,0,0,0,0,0,0,0,0,0,0,0,0,0,0,0,0,0,0,0,0,0,0,0,0,0,0,0,0,0,0,0,0,0,0,0,0,0,0,0,0,0,0,0,0,0,0,0,0,0,0,0,0,0,0,0,0,0,0,0,0,0,0,0,0,0,0,0,0,0,0,0,0,0,0,0,0,0,0,0,0,0,0,0,0,0,0,0,0,0,0,0,0,0,0,
0,0,0,0,0,0,0,0,0,0,0,0,0,0,0,0,0,0,0,0,0,0,0,0,0,0,0,0,0,0,0,0,0,0,0,0,0,0,0,0,0,0,0,0,0,0,0,0,0,0,0,0,0,0,0,0,0,0,0,0,0,0,0,0,0,0,0,0,0,0,0,0,0,0,0,0,0,0,0,0,0,0,0,0,0,0,0,0,0,0,0,0,0,0,0,0,0,0,0,0,0,0,0,0,0,0,0,0,0,0,0,0,0,0,0,0,0,0,0,0,0,0,0,0,0,0,0,0,0,0,0,0,0,0,0,0,0,0,0,0,0,0,0,0,0,0,0,0,0,0,0,0,0,0,0,0,0,0,0,0,0,0,0,0,0,0,0,0,0,0,0,0,0,0,0,0,0,0,0,0,0,0,0,0,0,0,0,0,0,0,0,0,0,0,0,0,0,0,0,0,0,0,0,0,0,0,0,0,0,0,0,0,0,0,0,0,0,0,0,0,0,0,0,0,0,0,0,0,0,0,0,0,0,0,0,0,0,0,0,0,0,0,0,0,0,0,0,0,0,0,0,0,0,0,0,0,0,0,0,0,0,0,0,0,0,0,0,0,0,0,0,0,0,0,0,0,0,0,0,0,0,0,0,0,0,0,0,0,0,0,0,0,0,0,0,0,0,0,0,0,0,0,0,0,0,0,0,0,
0,0,0,0,0,0,0,0,0,0,0,0,0,0,0,0,0,0,0,0,0,0,0,0,0,0,0,0,0,0,0,0,0,0,0,0,0,0,0,0,0,0,0,0,0,0,0,0,0,0,0,0,0,0,0,0,0,0,0,0,0,0,0,0,0,0,0,0,0,0,0,0,0,0,0,0,0,0,0,0,0,0,0,0,0,0,0,0,0,0,0,0,0,0,0,0,0,0,0,0,0,0,0,0,0,0,0,0,0,0,0,0,0,0,0,0,0,0,0,0,0,0,0,0,0,0,0,0,0,0,0,0,0,0,0,0,0,0,0,0,0,0,0,0,0,0,0,0,0,0,0,0,0,0,0,0,0,0,0,0,0,0,0,0,0,0,0,0,0,0,0,0,0,0,0,0,0,0,0,0,0,0,0,0,0,0,0,0,0,0,0,0,0,0,0,0,0,0,0,0,0,0,0,0,0,0,0,0,0,0,0,0,0,0,0,0,0,0,0,0,0,0,0,0,0,0,0,0,0,0,0,0,0,0,0,0,0,0,0,0,0,0,0,0,0,0,0,0,0,0,0,0,0,0,0,0,0,0,0,0,0,0,0,0,0,0,0,0,0,0,0,0,0,0,0,0,0,0,0,0,0,0,0,0,0,0,0,0,0,0,0,0,0,0,0,0,0,0,0,0,0,0,0,0,0,0,0,0,
0,0,0,0,0,0,0,0,0,0,0,0,0,0,0,0,0,0,0,0,0,0,0,0,0,0,0,0,0,0,0,0,0,0,0,0,0,0,0,0,0,0,0,0,0,0,0,0,0,0,0,0,0,0,0,0,0,0,0,0,0,0,0,0,0,0,0,0,0,0,0,0,0,0,0,0,0,0,0,0,0,0,0,0,0,0,0,0,0,0,0,0,0,0,0,0,0,0,0,0,0,0,0,0,0,0,0,0,0,0,0,0,0,0,0,0,0,0,0,0,0,0,0,0,0,0,0,0,0,0,0,0,0,0,0,0,0,0,0,0,0,0,0,0,0,0,0,0,0,0,0,0,0,0,0,0,0,0,0,0,0,0,0,0,0,0,0,0,0,0,0,0,0,0,0,0,0,0,0,0,0,0,0,0,0,0,0,0,0,0,0,0,0,0,0,0,0,0,0,0,0,0,0,0,0,0,0,0,0,0,0,0,0,0,0,0,0,0,0,0,0,0,0,0,0,0,0,0,0,0,0,0,0,0,0,0,0,0,0,0,0,0,0,0,0,0,0,0,0,0,0,0,0,0,0,0,0,0,0,0,0,0,0,0,0,0,0,0,0,0,0,0,0,0,0,0,0,0,0,0,0,0,0,0,0,0,0,0,0,0,0,0,0,0,0,0,0,0,0,0,0,0,0,0,0,0,0,0,
0,0,0,0,0,0,0,0,0,0,0,0,0,0,0,0,0,0,0,0,0,0,0,0,0,0,0,0,0,0,0,0,0,0,0,0,0,0,0,0,0,0,0,0,0,0,0,0,0,0,0,0,0,0,0,0,0,0,0,0,0,0,0,0,0,0,0,0,0,0,0,0,0,0,0,0,0,0,0,0,0,0,0,0,0,0,0,0,0,0,0,0,0,0,0,0,0,0,0,0,0,0,0,0,0,0,0,0,0,0,0,0,0,0,0,0,0,0,0,0,0,0,0,0,0,0,0,0,0,0,0,0,0,0,0,0,0,0,0,0,0,0,0,0,0,0,0,0,0,0,0,0,0,0,0,0,0,0,0,0,0,0,0,0,0,0,0,0,0,0,0,0,0,0,0,0,0,0,0,0,0,0,0,0,0,0,0,0,0,0,0,0,0,0,0,0,0,0,0,0,0,0,0,0,0,0,0,0,0,0,0,0,0,0,0,0,0,0,0,0,0,0,0,0,0,0,0,0,0,0,0,0,0,0,0,0,0,0,0,0,0,0,0,0,0,0,0,0,0,0,0,0,0,0,0,0,0,0,0,0,0,0,0,0,0,0,0,0,0,0,0,0,0,0,0,0,0,0,0,0,0,0,0,0,0,0,0,0,0,0,0,0,0,0,0,0,0,0,0,0,0,0,0,0,0,0,0,0,
0,0,0,0,0,0,0,0,0,0,0,0,0,0,0,0,0,0,0,0,0,0,0,0,0,0,0,0,0,0,0,0,0,0,0,0,0,0,0,0,0,0,0,0,0,0,0,0,0,0,0,0,0,0,0,0,0,0,0,0,0,0,0,0,0,0,0,0,0,0,0,0,0,0,0,0,0,0,0,0,0,0,0,0,0,0,0,0,0,0,0,0,0,0,0,0,0,0,0,0,0,0,0,0,0,0,0,0,0,0,0,0,0,0,0,0,0,0,0,0,0,0,0,0,0,0,0,0,0,0,0,0,0,0,0,0,0,0,0,0,0,0,0,0,0,0,0,0,0,0,0,0,0,0,0,0,0,0,0,0,0,0,0,0,0,0,0,0,0,0,0,0,0,0,0,0,0,0,0,0,0,0,0,0,0,0,0,0,0,0,0,0,0,0,0,0,0,0,0,0,0,0,0,0,0,0,0,0,0,0,0,0,0,0,0,0,0,0,0,0,0,0,0,0,0,0,0,0,0,0,0,0,0,0,0,0,0,0,0,0,0,0,0,0,0,0,0,0,0,0,0,0,0,0,0,0,0,0,0,0,0,0,0,0,0,0,0,0,0,0,0,0,0,0,0,0,0,0,0,0,0,0,0,0,0,0,0,0,0,0,0,0,0,0,0,0,0,0,0,0,0,0,0,0,0,0,0,0,
0,0,0,0,0,0,0,0,0,0,0,0,0,0,0,0,0,0,0,0,0,0,0,0,0,0,0,0,0,0,0,0,0,0,0,0,0,0,0,0,0,0,0,0,0,0,0,0,0,0,0,0,0,0,0,0,0,0,0,0,0,0,0,0,0,0,0,0,0,0,0,0,0,0,0,0,0,0,0,0,0,0,0,0,0,0,0,0,0,0,0,0,0,0,0,0,0,0,0,0,0,0,0,0,0,0,0,0,0,0,0,0,0,0,0,0,0,0,0,0,0,0,0,0,0,0,0,0,0,0,0,0,0,0,0,0,0,0,0,0,0,0,0,0,0,0,0,0,0,0,0,0,0,0,0,0,0,0,0,0,0,0,0,0,0,0,0,0,0,0,0,0,0,0,0,0,0,0,0,0,0,0,0,0,0,0,0,0,0,0,0,0,0,0,0,0,0,0,0,0,0,0,0,0,0,0,0,0,0,0,0,0,0,0,0,0,0,0,0,0,0,0,0,0,0,0,0,0,0,0,0,0,0,0,0,0,0,0,0,0,0,0,0,0,0,0,0,0,0,0,0,0,0,0,0,0,0,0,0,0,0,0,0,0,0,0,0,0,0,0,0,0,0,0,0,0,0,0,0,0,0,0,0,0,0,0,0,0,0,0,0,0,0,0,0,0,0,0,0,0,0,0,0,0,0,0,0,0,
0,0,0,0,0,0,0,0,0,0,0,0,0,0,0,0,0,0,0,0,0,0,0,0,0,0,0,0,0,0,0,0,0,0,0,0,0,0,0,0,0,0,0,0,0,0,0,0,0,0,0,0,0,0,0,0,0,0,0,0,0,0,0,0,0,0,0,0,0,0,0,0,0,0,0,0,0,0,0,0,0,0,0,0,0,0,0,0,0,0,0,0,0,0,0,0,0,0,0,0,0,0,0,0,0,0,0,0,0,0,0,0,0,0,0,0,0,0,0,0,0,0,0,0,0,0,0,0,0,0,0,0,0,0,0,0,0,0,0,0,0,0,0,0,0,0,0,0,0,0,0,0,0,0,0,0,0,0,0,0,0,0,0,0,0,0,0,0,0,0,0,0,0,0,0,0,0,0,0,0,0,0,0,0,0,0,0,0,0,0,0,0,0,0,0,0,0,0,0,0,0,0,0,0,0,0,0,0,0,0,0,0,0,0,0,0,0,0,0,0,0,0,0,0,0,0,0,0,0,0,0,0,0,0,0,0,0,0,0,0,0,0,0,0,0,0,0,0,0,0,0,0,0,0,0,0,0,0,0,0,0,0,0,0,0,0,0,0,0,0,0,0,0,0,0,0,0,0,0,0,0,0,0,0,0,0,0,0,0,0,0,0,0,0,0,0,0,0,0,0,0,0,0,0,0,0,0,0,
0,0,0,0,0,0,0,0,0,0,0,0,0,0,0,0,0,0,0,0,0,0,0,0,0,0,0,0,0,0,0,0,0,0,0,0,0,0,0,0,0,0,0,0,0,0,0,0,0,0,0,0,0,0,0,0,0,0,0,0,0,0,0,0,0,0,0,0,0,0,0,0,0,0,0,0,0,0,0,0,0,0,0,0,0,0,0,0,0,0,0,0,0,0,0,0,0,0,0,0,0,0,0,0,0,0,0,0,0,0,0,0,0,0,0,0,0,0,0,0,0,0,0,0,0,0,0,0,0,0,0,0,0,0,0,0,0,0,0,0,0,0,0,0,0,0,0,0,0,0,0,0,0,0,0,0,0,0,0,0,0,0,0,0,0,0,0,0,0,0,0,0,0,0,0,0,0,0,0,0,0,0,0,0,0,0,0,0,0,0,0,0,0,0,0,0,0,0,0,0,0,0,0,0,0,0,0,0,0,0,0,0,0,0,0,0,0,0,0,0,0,0,0,0,0,0,0,0,0,0,0,0,0,0,0,0,0,0,0,0,0,0,0,0,0,0,0,0,0,0,0,0,0,0,0,0,0,0,0,0,0,0,0,0,0,0,0,0,0,0,0,0,0,0,0,0,0,0,0,0,0,0,0,0,0,0,0,0,0,0,0,0,0,0,0,0,0,0,0,0,0,0,0,0,0,0,0,0,
0,0,0,0,0,0,0,0,0,0,0,0,0,0,0,0,0,0,0,0,0,0,0,0,0,0,0,0,0,0,0,0,0,0,0,0,0,0,0,0,0,0,0,0,0,0,0,0,0,0,0,0,0,0,0,0,0,0,0,0,0,0,0,0,0,0,0,0,0,0,0,0,0,0,0,0,0,0,0,0,0,0,0,0,0,0,0,0,0,0,0,0,0,0,0,0,0,0,0,0,0,0,0,0,0,0,0,0,0,0,0,0,0,0,0,0,0,0,0,0,0,0,0,0,0,0,0,0,0,0,0,0,0,0,0,0,0,0,0,0,0,0,0,0,0,0,0,0,0,0,0,0,0,0,0,0,0,0,0,0,0,0,0,0,0,0,0,0,0,0,0,0,0,0,0,0,0,0,0,0,0,0,0,0,0,0,0,0,0,0,0,0,0,0,0,0,0,0,0,0,0,0,0,0,0,0,0,0,0,0,0,0,0,0,0,0,0,0,0,0,0,0,0,0,0,0,0,0,0,0,0,0,0,0,0,0,0,0,0,0,0,0,0,0,0,0,0,0,0,0,0,0,0,0,0,0,0,0,0,0,0,0,0,0,0,0,0,0,0,0,0,0,0,0,0,0,0,0,0,0,0,0,0,0,0,0,0,0,0,0,0,0,0,0,0,0,0,0,0,0,0,0,0,0,0,0,0,0,
0,0,0,0,0,0,0,0,0,0,0,0,0,0,0,0,0,0,0,0,0,0,0,0,0,0,0,0,0,0,0,0,0,0,0,0,0,0,0,0,0,0,0,0,0,0,0,0,0,0,0,0,0,0,0,0,0,0,0,0,0,0,0,0,0,0,0,0,0,0,0,0,0,0,0,0,0,0,0,0,0,0,0,0,0,0,0,0,0,0,0,0,0,0,0,0,0,0,0,0,0,0,0,0,0,0,0,0,0,0,0,0,0,0,0,0,0,0,0,0,0,0,0,0,0,0,0,0,0,0,0,0,0,0,0,0,0,0,0,0,0,0,0,0,0,0,0,0,0,0,0,0,0,0,0,0,0,0,0,0,0,0,0,0,0,0,0,0,0,0,0,0,0,0,0,0,0,0,0,0,0,0,0,0,0,0,0,0,0,0,0,0,0,0,0,0,0,0,0,0,0,0,0,0,0,0,0,0,0,0,0,0,0,0,0,0,0,0,0,0,0,0,0,0,0,0,0,0,0,0,0,0,0,0,0,0,0,0,0,0,0,0,0,0,0,0,0,0,0,0,0,0,0,0,0,0,0,0,0,0,0,0,0,0,0,0,0,0,0,0,0,0,0,0,0,0,0,0,0,0,0,0,0,0,0,0,0,0,0,0,0,0,0,0,0,0,0,0,0,0,0,0,0,0,0,0,0,0,
0,0,0,0,0,0,0,0,0,0,0,0,0,0,0,0,0,0,0,0,0,0,0,0,0,0,0,0,0,0,0,0,0,0,0,0,0,0,0,0,0,0,0,0,0,0,0,0,0,0,0,0,0,0,0,0,0,0,0,0,0,0,0,0,0,0,0,0,0,0,0,0,0,0,0,0,0,0,0,0,0,0,0,0,0,0,0,0,0,0,0,0,0,0,0,0,0,0,0,0,0,0,0,0,0,0,0,0,0,0,0,0,0,0,0,0,0,0,0,0,0,0,0,0,0,0,0,0,0,0,0,0,0,0,0,0,0,0,0,0,0,0,0,0,0,0,0,0,0,0,0,0,0,0,0,0,0,0,0,0,0,0,0,0,0,0,0,0,0,0,0,0,0,0,0,0,0,0,0,0,0,0,0,0,0,0,0,0,0,0,0,0,0,0,0,0,0,0,0,0,0,0,0,0,0,0,0,0,0,0,0,0,0,0,0,0,0,0,0,0,0,0,0,0,0,0,0,0,0,0,0,0,0,0,0,0,0,0,0,0,0,0,0,0,0,0,0,0,0,0,0,0,0,0,0,0,0,0,0,0,0,0,0,0,0,0,0,0,0,0,0,0,0,0,0,0,0,0,0,0,0,0,0,0,0,0,0,0,0,0,0,0,0,0,0,0,0,0,0,0,0,0,0,0,0,0,0,0,
0,0,0,0,0,0,0,0,0,0,0,0,0,0,0,0,0,0,0,0,0,0,0,0,0,0,0,0,0,0,0,0,0,0,0,0,0,0,0,0,0,0,0,0,0,0,0,0,0,0,0,0,0,0,0,0,0,0,0,0,0,0,0,0,0,0,0,0,0,0,0,0,0,0,0,0,0,0,0,0,0,0,0,0,0,0,0,0,0,0,0,0,0,0,0,0,0,0,0,0,0,0,0,0,0,0,0,0,0,0,0,0,0,0,0,0,0,0,0,0,0,0,0,0,0,0,0,0,0,0,0,0,0,0,0,0,0,0,0,0,0,0,0,0,0,0,0,0,0,0,0,0,0,0,0,0,0,0,0,0,0,0,0,0,0,0,0,0,0,0,0,0,0,0,0,0,0,0,0,0,0,0,0,0,0,0,0,0,0,0,0,0,0,0,0,0,0,0,0,0,0,0,0,0,0,0,0,0,0,0,0,0,0,0,0,0,0,0,0,0,0,0,0,0,0,0,0,0,0,0,0,0,0,0,0,0,0,0,0,0,0,0,0,0,0,0,0,0,0,0,0,0,0,0,0,0,0,0,0,0,0,0,0,0,0,0,0,0,0,0,0,0,0,0,0,0,0,0,0,0,0,0,0,0,0,0,0,0,0,0,0,0,0,0,0,0,0,0,0,0,0,0,0,0,0,0,0,0,
0,0,0,0,0,0,0,0,0,0,0,0,0,0,0,0,0,0,0,0,0,0,0,0,0,0,0,0,0,0,0,0,0,0,0,0,0,0,0,0,0,0,0,0,0,0,0,0,0,0,0,0,0,0,0,0,0,0,0,0,0,0,0,0,0,0,0,0,0,0,0,0,0,0,0,0,0,0,0,0,0,0,0,0,0,0,0,0,0,0,0,0,0,0,0,0,0,0,0,0,0,0,0,0,0,0,0,0,0,0,0,0,0,0,0,0,0,0,0,0,0,0,0,0,0,0,0,0,0,0,0,0,0,0,0,0,0,0,0,0,0,0,0,0,0,0,0,0,0,0,0,0,0,0,0,0,0,0,0,0,0,0,0,0,0,0,0,0,0,0,0,0,0,0,0,0,0,0,0,0,0,0,0,0,0,0,0,0,0,0,0,0,0,0,0,0,0,0,0,0,0,0,0,0,0,0,0,0,0,0,0,0,0,0,0,0,0,0,0,0,0,0,0,0,0,0,0,0,0,0,0,0,0,0,0,0,0,0,0,0,0,0,0,0,0,0,0,0,0,0,0,0,0,0,0,0,0,0,0,0,0,0,0,0,0,0,0,0,0,0,0,0,0,0,0,0,0,0,0,0,0,0,0,0,0,0,0,0,0,0,0,0,0,0,0,0,0,0,0,0,0,0,0,0,0,0,0,0,
0,0,0,0,0,0,0,0,0,0,0,0,0,0,0,0,0,0,0,0,0,0,0,0,0,0,0,0,0,0,0,0,0,0,0,0,0,0,0,0,0,0,0,0,0,0,0,0,0,0,0,0,0,0,0,0,0,0,0,0,0,0,0,0,0,0,0,0,0,0,0,0,0,0,0,0,0,0,0,0,0,0,0,0,0,0,0,0,0,0,0,0,0,0,0,0,0,0,0,0,0,0,0,0,0,0,0,0,0,0,0,0,0,0,0,0,0,0,0,0,0,0,0,0,0,0,0,0,0,0,0,0,0,0,0,0,0,0,0,0,0,0,0,0,0,0,0,0,0,0,0,0,0,0,0,0,0,0,0,0,0,0,0,0,0,0,0,0,0,0,0,0,0,0,0,0,0,0,0,0,0,0,0,0,0,0,0,0,0,0,0,0,0,0,0,0,0,0,0,0,0,0,0,0,0,0,0,0,0,0,0,0,0,0,0,0,0,0,0,0,0,0,0,0,0,0,0,0,0,0,0,0,0,0,0,0,0,0,0,0,0,0,0,0,0,0,0,0,0,0,0,0,0,0,0,0,0,0,0,0,0,0,0,0,0,0,0,0,0,0,0,0,0,0,0,0,0,0,0,0,0,0,0,0,0,0,0,0,0,0,0,0,0,0,0,0,0,0,0,0,0,0,0,0,0,0,0,0,
0,0,0,0,0,0,0,0,0,0,0,0,0,0,0,0,0,0,0,0,0,0,0,0,0,0,0,0,0,0,0,0,0,0,0,0,0,0,0,0,0,0,0,0,0,0,0,0,0,0,0,0,0,0,0,0,0,0,0,0,0,0,0,0,0,0,0,0,0,0,0,0,0,0,0,0,0,0,0,0,0,0,0,0,0,0,0,0,0,0,0,0,0,0,0,0,0,0,0,0,0,0,0,0,0,0,0,0,0,0,0,0,0,0,0,0,0,0,0,0,0,0,0,0,0,0,0,0,0,0,0,0,0,0,0,0,0,0,0,0,0,0,0,0,0,0,0,0,0,0,0,0,0,0,0,0,0,0,0,0,0,0,0,0,0,0,0,0,0,0,0,0,0,0,0,0,0,0,0,0,0,0,0,0,0,0,0,0,0,0,0,0,0,0,0,0,0,0,0,0,0,0,0,0,0,0,0,0,0,0,0,0,0,0,0,0,0,0,0,0,0,0,0,0,0,0,0,0,0,0,0,0,0,0,0,0,0,0,0,0,0,0,0,0,0,0,0,0,0,0,0,0,0,0,0,0,0,0,0,0,0,0,0,0,0,0,0,0,0,0,0,0,0,0,0,0,0,0,0,0,0,0,0,0,0,0,0,0,0,0,0,0,0,0,0,0,0,0,0,0,0,0,0,0,0,0,0,0,
0,0,0,0,0,0,0,0,0,0,0,0,0,0,0,0,0,0,0,0,0,0,0,0,0,0,0,0,0,0,0,0,0,0,0,0,0,0,0,0,0,0,0,0,0,0,0,0,0,0,0,0,0,0,0,0,0,0,0,0,0,0,0,0,0,0,0,0,0,0,0,0,0,0,0,0,0,0,0,0,0,0,0,0,0,0,0,0,0,0,0,0,0,0,0,0,0,0,0,0,0,0,0,0,0,0,0,0,0,0,0,0,0,0,0,0,0,0,0,0,0,0,0,0,0,0,0,0,0,0,0,0,0,0,0,0,0,0,0,0,0,0,0,0,0,0,0,0,0,0,0,0,0,0,0,0,0,0,0,0,0,0,0,0,0,0,0,0,0,0,0,0,0,0,0,0,0,0,0,0,0,0,0,0,0,0,0,0,0,0,0,0,0,0,0,0,0,0,0,0,0,0,0,0,0,0,0,0,0,0,0,0,0,0,0,0,0,0,0,0,0,0,0,0,0,0,0,0,0,0,0,0,0,0,0,0,0,0,0,0,0,0,0,0,0,0,0,0,0,0,0,0,0,0,0,0,0,0,0,0,0,0,0,0,0,0,0,0,0,0,0,0,0,0,0,0,0,0,0,0,0,0,0,0,0,0,0,0,0,0,0,0,0,0,0,0,0,0,0,0,0,0,0,0,0,0,0,0,
0,0,0,0,0,0,0,0,0,0,0,0,0,33161,33162,33163,33164,33165,33166,33167,0,0,0,0,0,33161,33162,33163,33164,33165,33166,33167,0,0,0,0,0,0,0,0,0,0,0,0,0,33161,33162,33163,33164,33165,33166,33167,33168,0,0,0,0,33161,33162,33163,33164,33165,33166,33167,33168,0,0,0,0,0,0,0,0,0,0,0,0,0,0,0,0,0,0,0,0,0,33161,33162,33163,33164,33165,33166,33167,33168,0,0,0,0,33161,33162,33163,33164,33165,33166,33167,33168,0,0,0,0,0,0,0,0,0,0,0,0,0,0,0,0,0,0,0,0,0,0,0,0,0,0,0,0,0,0,0,0,0,0,0,0,0,0,0,0,0,0,0,0,0,0,0,0,0,0,0,0,0,0,0,0,0,0,0,0,0,0,0,0,0,0,0,0,0,0,0,0,0,33161,33162,33163,33164,33165,33166,33167,33168,0,0,0,0,33161,33162,33163,33164,33165,33166,33167,33168,0,0,0,0,0,0,0,0,0,0,0,0,0,0,0,0,0,0,0,0,0,0,0,0,0,0,0,0,0,0,0,0,0,0,0,33161,33162,33163,33164,33165,33166,33167,33168,0,0,0,0,33161,33162,33163,33164,33165,33166,33167,33168,0,0,0,0,0,0,0,0,0,0,0,0,0,0,0,0,0,0,0,33161,33162,33163,33164,33165,33166,33167,33168,0,0,0,0,33161,0,0,0,0,33161,33162,33163,33164,33165,33166,33167,33168,0,0,0,0,33167,33168,0,0,0,0,
33445,33445,33446,33447,33448,33449,33450,33451,33452,33429,33430,33431,33432,33417,33418,33419,33420,33421,33422,33423,33452,33429,33430,33431,33432,33417,33418,33419,33420,33421,33422,33423,33445,33445,33446,33447,33448,33449,33450,33451,33452,33429,33430,33431,33432,33417,33418,33419,33420,33421,33422,33423,33424,33429,33430,33431,33445,33446,33447,33448,33449,33450,33451,33452,33429,33430,33431,33432,33417,33418,33419,33420,33421,33422,33445,33446,33447,33448,33449,33450,33451,33452,33429,33430,33431,33432,33417,33418,33419,33420,33421,33422,33423,33424,33429,33430,33431,33445,33446,33447,33448,33449,33450,33451,33452,33429,33430,33431,33432,33417,33418,33419,33420,33421,33422,33423,33424,33429,33430,33431,33432,33417,33418,33419,33420,33421,33422,33423,33424,33432,33417,33418,33419,33420,33421,33422,33423,33424,33445,33446,33447,33448,33449,33450,33451,33452,33429,33430,33431,33432,33417,33447,33448,33449,33450,33451,33452,33429,33430,33431,33432,33417,33418,33419,33420,33421,33422,33445,33446,33447,33448,33449,33450,33451,33452,33429,33430,33431,33432,33417,33418,33419,33420,33421,33422,33423,33424,33429,33430,33431,33445,33446,33447,33448,33449,33450,33451,33452,33429,33430,33431,33432,33417,33418,33419,33420,33421,33422,33423,33424,33429,33430,33431,33432,33417,33418,33419,33420,33421,33422,33423,33424,33445,33446,33447,33448,33449,33450,33451,33452,33429,33430,33431,33432,33417,33418,33419,33420,33421,33422,33423,33424,33429,33430,33431,33445,33446,33447,33448,33449,33450,33451,33452,33429,33430,33431,33432,33417,33418,33419,33420,33445,33446,33447,33448,33449,33450,33451,33452,33429,33430,33431,33432,33417,33418,33419,33420,33421,33422,33423,33424,33429,33430,33431,33445,33446,33429,33430,33431,33432,33417,33418,33419,33420,33421,33422,33423,33424,33429,33430,33429,33430,33423,33424,33429,33430,33429,33430,
33701,33701,33702,33703,33704,33705,33706,33707,33708,33685,33686,33687,33688,33673,33674,33675,33676,33677,33678,33679,33708,33685,33686,33687,33688,33673,33674,33675,33676,33677,33678,33679,33701,33701,33702,33703,33704,33705,33706,33707,33708,33685,33686,33687,33688,33673,33674,33675,33676,33677,33678,33679,33680,33685,33686,33687,33701,33702,33703,33704,33705,33706,33707,33708,33685,33686,33687,33688,33673,33674,33675,33676,33677,33678,33701,33702,33703,33704,33705,33706,33707,33708,33685,33686,33687,33688,33673,33674,33675,33676,33677,33678,33679,33680,33685,33686,33687,33701,33702,33703,33704,33705,33706,33707,33708,33685,33686,33687,33688,33673,33674,33675,33676,33677,33678,33679,33680,33685,33686,33687,33688,33673,33674,33675,33676,33677,33678,33679,33680,33688,33673,33674,33675,33676,33677,33678,33679,33680,33701,33702,33703,33704,33705,33706,33707,33708,33685,33686,33687,33688,33673,33703,33704,33705,33706,33707,33708,33685,33686,33687,33688,33673,33674,33675,33676,33677,33678,33701,33702,33703,33704,33705,33706,33707,33708,33685,33686,33687,33688,33673,33674,33675,33676,33677,33678,33679,33680,33685,33686,33687,33701,33702,33703,33704,33705,33706,33707,33708,33685,33686,33687,33688,33673,33674,33675,33676,33677,33678,33679,33680,33685,33686,33687,33688,33673,33674,33675,33676,33677,33678,33679,33680,33701,33702,33703,33704,33705,33706,33707,33708,33685,33686,33687,33688,33673,33674,33675,33676,33677,33678,33679,33680,33685,33686,33687,33701,33702,33703,33704,33705,33706,33707,33708,33685,33686,33687,33688,33673,33674,33675,33676,33701,33702,33703,33704,33705,33706,33707,33708,33685,33686,33687,33688,33673,33674,33675,33676,33677,33678,33679,33680,33685,33686,33687,33701,33702,33685,33686,33687,33688,33673,33674,33675,33676,33677,33678,33679,33680,33685,33686,33685,33686,33679,33680,33685,33686,33685,33686,
33957,33957,33958,33959,33960,33961,33962,33963,33964,33941,33942,33943,33944,33929,33930,33931,33932,33933,33934,33935,33964,33941,33942,33943,33944,33929,33930,33931,33932,33933,33934,33935,33957,33957,33958,33959,33960,33961,33962,33963,33964,33941,33942,33943,33944,33929,33930,33931,33932,33933,33934,33935,33936,33941,33942,33943,33957,33958,33959,33960,33961,33962,33963,33964,33941,33942,33943,33944,33929,33930,33931,33932,33933,33934,33957,33958,33959,33960,33961,33962,33963,33964,33941,33942,33943,33944,33929,33930,33931,33932,33933,33934,33935,33936,33941,33942,33943,33957,33958,33959,33960,33961,33962,33963,33964,33941,33942,33943,33944,33929,33930,33931,33932,33933,33934,33935,33936,33941,33942,33943,33944,33929,33930,33931,33932,33933,33934,33935,33936,33944,33929,33930,33931,33932,33933,33934,33935,33936,33957,33958,33959,33960,33961,33962,33963,33964,33941,33942,33943,33944,33929,33959,33960,33961,33962,33963,33964,33941,33942,33943,33944,33929,33930,33931,33932,33933,33934,33957,33958,33959,33960,33961,33962,33963,33964,33941,33942,33943,33944,33929,33930,33931,33932,33933,33934,33935,33936,33941,33942,33943,33957,33958,33959,33960,33961,33962,33963,33964,33941,33942,33943,33944,33929,33930,33931,33932,33933,33934,33935,33936,33941,33942,33943,33944,33929,33930,33931,33932,33933,33934,33935,33936,33957,33958,33959,33960,33961,33962,33963,33964,33941,33942,33943,33944,33929,33930,33931,33932,33933,33934,33935,33936,33941,33942,33943,33957,33958,33959,33960,33961,33962,33963,33964,33941,33942,33943,33944,33929,33930,33931,33932,33957,33958,33959,33960,33961,33962,33963,33964,33941,33942,33943,33944,33929,33930,33931,33932,33933,33934,33935,33936,33941,33942,33943,33957,33958,33941,33942,33943,33944,33929,33930,33931,33932,33933,33934,33935,33936,33941,33942,33941,33942,33935,33936,33941,33942,33941,33942,
34213,34213,34214,34215,34216,34217,34218,34219,34220,34197,34198,34199,34200,34185,34186,34187,34188,34189,34190,34191,34220,34197,34198,34199,34200,34185,34186,34187,34188,34189,34190,34191,34213,34213,34214,34215,34216,34217,34218,34219,34220,34197,34198,34199,34200,34185,34186,34187,34188,34189,34190,34191,34192,34197,34198,34199,34213,34214,34215,34216,34217,34218,34219,34220,34197,34198,34199,34200,34185,34186,34187,34188,34189,34190,34213,34214,34215,34216,34217,34218,34219,34220,34197,34198,34199,34200,34185,34186,34187,34188,34189,34190,34191,34192,34197,34198,34199,34213,34214,34215,34216,34217,34218,34219,34220,34197,34198,34199,34200,34185,34186,34187,34188,34189,34190,34191,34192,34197,34198,34199,34200,34185,34186,34187,34188,34189,34190,34191,34192,34200,34185,34186,34187,34188,34189,34190,34191,34192,34213,34214,34215,34216,34217,34218,34219,34220,34197,34198,34199,34200,34185,34215,34216,34217,34218,34219,34220,34197,34198,34199,34200,34185,34186,34187,34188,34189,34190,34213,34214,34215,34216,34217,34218,34219,34220,34197,34198,34199,34200,34185,34186,34187,34188,34189,34190,34191,34192,34197,34198,34199,34213,34214,34215,34216,34217,34218,34219,34220,34197,34198,34199,34200,34185,34186,34187,34188,34189,34190,34191,34192,34197,34198,34199,34200,34185,34186,34187,34188,34189,34190,34191,34192,34213,34214,34215,34216,34217,34218,34219,34220,34197,34198,34199,34200,34185,34186,34187,34188,34189,34190,34191,34192,34197,34198,34199,34213,34214,34215,34216,34217,34218,34219,34220,34197,34198,34199,34200,34185,34186,34187,34188,34213,34214,34215,34216,34217,34218,34219,34220,34197,34198,34199,34200,34185,34186,34187,34188,34189,34190,34191,34192,34197,34198,34199,34213,34214,34197,34198,34199,34200,34185,34186,34187,34188,34189,34190,34191,34192,34197,34198,34197,34198,34191,34192,34197,34198,34197,34198,
34469,34469,34470,34471,34472,34473,34474,34475,34476,34453,34454,34455,34456,34441,34442,34443,34444,34445,34446,34447,34476,34453,34454,34455,34456,34441,34442,34443,34444,34445,34446,34447,34469,34469,34470,34471,34472,34473,34474,34475,34476,34453,34454,34455,34456,34441,34442,34443,34444,34445,34446,34447,34448,34453,34454,34455,34469,34470,34471,34472,34473,34474,34475,34476,34453,34454,34455,34456,34441,34442,34443,34444,34445,34446,34469,34470,34471,34472,34473,34474,34475,34476,34453,34454,34455,34456,34441,34442,34443,34444,34445,34446,34447,34448,34453,34454,34455,34469,34470,34471,34472,34473,34474,34475,34476,34453,34454,34455,34456,34441,34442,34443,34444,34445,34446,34447,34448,34453,34454,34455,34456,34441,34442,34443,34444,34445,34446,34447,34448,34456,34441,34442,34443,34444,34445,34446,34447,34448,34469,34470,34471,34472,34473,34474,34475,34476,34453,34454,34455,34456,34441,34471,34472,34473,34474,34475,34476,34453,34454,34455,34456,34441,34442,34443,34444,34445,34446,34469,34470,34471,34472,34473,34474,34475,34476,34453,34454,34455,34456,34441,34442,34443,34444,34445,34446,34447,34448,34453,34454,34455,34469,34470,34471,34472,34473,34474,34475,34476,34453,34454,34455,34456,34441,34442,34443,34444,34445,34446,34447,34448,34453,34454,34455,34456,34441,34442,34443,34444,34445,34446,34447,34448,34469,34470,34471,34472,34473,34474,34475,34476,34453,34454,34455,34456,34441,34442,34443,34444,34445,34446,34447,34448,34453,34454,34455,34469,34470,34471,34472,34473,34474,34475,34476,34453,34454,34455,34456,34441,34442,34443,34444,34469,34470,34471,34472,34473,34474,34475,34476,34453,34454,34455,34456,34441,34442,34443,34444,34445,34446,34447,34448,34453,34454,34455,34469,34470,34453,34454,34455,34456,34441,34442,34443,34444,34445,34446,34447,34448,34453,34454,34453,34454,34447,34448,34453,34454,34453,34454,
34725,34725,34726,34727,34728,34729,34730,34731,34732,34709,34710,34711,34712,34697,34698,34699,34700,34701,34702,34703,34732,34709,34710,34711,34712,34697,34698,34699,34700,34701,34702,34703,34725,34725,34726,34727,34728,34729,34730,34731,34732,34709,34710,34711,34712,34697,34698,34699,34700,34701,34702,34703,34704,34709,34710,34711,34725,34726,34727,34728,34729,34730,34731,34732,34709,34710,34711,34712,34697,34698,34699,34700,34701,34702,34725,34726,34727,34728,34729,34730,34731,34732,34709,34710,34711,34712,34697,34698,34699,34700,34701,34702,34703,34704,34709,34710,34711,34725,34726,34727,34728,34729,34730,34731,34732,34709,34710,34711,34712,34697,34698,34699,34700,34701,34702,34703,34704,34709,34710,34711,34712,34697,34698,34699,34700,34701,34702,34703,34704,34712,34697,34698,34699,34700,34701,34702,34703,34704,34725,34726,34727,34728,34729,34730,34731,34732,34709,34710,34711,34712,34697,34727,34728,34729,34730,34731,34732,34709,34710,34711,34712,34697,34698,34699,34700,34701,34702,34725,34726,34727,34728,34729,34730,34731,34732,34709,34710,34711,34712,34697,34698,34699,34700,34701,34702,34703,34704,34709,34710,34711,34725,34726,34727,34728,34729,34730,34731,34732,34709,34710,34711,34712,34697,34698,34699,34700,34701,34702,34703,34704,34709,34710,34711,34712,34697,34698,34699,34700,34701,34702,34703,34704,34725,34726,34727,34728,34729,34730,34731,34732,34709,34710,34711,34712,34697,34698,34699,34700,34701,34702,34703,34704,34709,34710,34711,34725,34726,34727,34728,34729,34730,34731,34732,34709,34710,34711,34712,34697,34698,34699,34700,34725,34726,34727,34728,34729,34730,34731,34732,34709,34710,34711,34712,34697,34698,34699,34700,34701,34702,34703,34704,34709,34710,34711,34725,34726,34709,34710,34711,34712,34697,34698,34699,34700,34701,34702,34703,34704,34709,34710,34709,34710,34703,34704,34709,34710,34709,34710,
34981,34981,34982,34983,34984,34985,34986,34987,34988,34965,34966,34967,34968,34953,34954,34955,34956,34957,34958,34959,34988,34965,34966,34967,34968,34953,34954,34955,34956,34957,34958,34959,34981,34981,34982,34983,34984,34985,34986,34987,34988,34965,34966,34967,34968,34953,34954,34955,34956,34957,34958,34959,34960,34965,34966,34967,34981,34982,34983,34984,34985,34986,34987,34988,34965,34966,34967,34968,34953,34954,34955,34956,34957,34958,34981,34982,34983,34984,34985,34986,34987,34988,34965,34966,34967,34968,34953,34954,34955,34956,34957,34958,34959,34960,34965,34966,34967,34981,34982,34983,34984,34985,34986,34987,34988,34965,34966,34967,34968,34953,34954,34955,34956,34957,34958,34959,34960,34965,34966,34967,34968,34953,34954,34955,34956,34957,34958,34959,34960,34968,34953,34954,34955,34956,34957,34958,34959,34960,34981,42125,42126,42127,42125,42126,42127,42128,42129,42125,42126,42127,42128,34983,34984,34985,34986,34987,34988,34965,34966,34967,34968,34953,34954,34955,34956,34957,34958,34981,34982,34983,34984,34985,34986,34987,34988,34965,34966,34967,34968,34953,34954,34955,34956,34957,34958,34959,34960,34965,34966,34967,34981,34982,34983,34984,34985,34986,34987,34988,34965,34966,34967,34968,34953,34954,34955,34956,34957,34958,34959,34960,34965,34966,34967,34968,34953,34954,34955,34956,34957,34958,34959,34960,34981,34982,34983,34984,34985,34986,34987,34988,34965,34966,34967,34968,34953,34954,34955,34956,34957,34958,34959,34960,34965,34966,34967,34981,34982,34983,34984,34985,34986,34987,34988,34965,34966,34967,34968,34953,34954,34955,34956,34981,34982,34983,34984,34985,34986,34987,34988,34965,34966,34967,34968,34953,34954,34955,34956,34957,34958,34959,34960,34965,34966,34967,34981,34982,34965,34966,34967,34968,34953,34954,34955,34956,34957,34958,34959,34960,34965,34966,34965,34966,34959,34960,34965,34966,34965,34966,
42125,42125,42126,42127,42128,42129,42130,42131,42125,42126,42127,42128,42129,42130,42131,42125,42126,42127,42128,42129,42125,42126,42127,42128,42129,42130,42131,42125,42126,42127,42128,42129,42125,42125,42126,42127,42128,42129,42130,42131,42125,42126,42127,42128,42129,42130,42131,42125,42126,42127,42128,42129,42130,42125,42126,42127,42128,42129,42125,42126,42127,42128,42129,42130,42131,42132,42129,42130,42125,42126,42127,42128,42129,42130,42125,42126,42127,42128,42129,42130,42131,42125,42126,42127,42128,42129,42130,42131,42125,42126,42127,42128,42129,42130,42125,42126,42127,42128,42129,42125,42126,42127,42128,42129,42130,42131,42132,42129,42130,42125,42126,42127,42128,42129,42130,42131,42132,42126,42127,42128,42129,42130,42131,42125,42126,42127,42128,42129,42130,42131,42132,42125,42126,42127,42128,42129,42130,42131,42125,42126,42127,42128,42129,42130,42131,42125,42126,42127,42128,42129,42130,42130,42131,42125,42126,42127,42125,42126,42127,42128,42129,42130,42125,42125,42126,42127,42128,42125,42126,42127,42128,42129,42130,42131,42125,42126,42127,42128,42129,42130,42131,42125,42126,42127,42128,42129,42130,42125,42126,42127,42128,42129,42125,42126,42127,42128,42129,42130,42131,42132,42129,42130,42125,42126,42127,42128,42129,42130,42131,42132,42126,42127,42128,42129,42130,42131,42125,42126,42127,42128,42129,42130,42125,42126,42127,42128,42129,42130,42131,42125,42126,42127,42128,42129,42130,42131,42125,42126,42127,42128,42129,42130,42125,42126,42127,42128,42129,42125,42126,42127,42128,42129,42130,42131,42132,42129,42130,42125,42126,42127,42128,42125,42126,42127,42128,42129,42130,42131,42125,42126,42127,42128,42129,42130,42131,42125,42126,42127,42128,42129,42130,42125,42126,42127,42128,42129,42126,42127,42128,42129,42130,42131,42125,42126,42127,42128,42129,42130,42125,42126,42125,42126,42129,42130,42125,42126,42125,42126,
42381,42381,42382,42383,42384,42385,42386,42387,42381,42382,42383,42384,42385,42386,42387,42381,42382,42383,42384,42385,42381,42382,42383,42384,42385,42386,42387,42381,42382,42383,42384,42385,42381,42381,42382,42383,42384,42385,42386,42387,42381,42382,42383,42384,42385,42386,42387,42381,42382,42383,42384,42385,42386,42381,42382,42383,42384,42385,42381,42382,42383,42384,42385,42386,42387,42388,42385,42386,42381,42382,42383,42384,42385,42386,42381,42382,42383,42384,42385,42386,42387,42381,42382,42383,42384,42385,42386,42387,42381,42382,42383,42384,42385,42386,42381,42382,42383,42384,42385,42381,42382,42383,42384,42385,42386,42387,42388,42385,42386,42381,42382,42383,42384,42385,42386,42387,42388,42382,42383,42384,42385,42386,42387,42381,42382,42383,42384,42385,42386,42387,42388,42381,42382,42383,42384,42385,42386,42387,42381,42382,42383,42384,42385,42386,42387,42381,42382,42383,42384,42385,42386,42386,42387,42381,42382,42383,42381,42382,42383,42384,42385,42386,42381,42381,42382,42383,42384,42381,42382,42383,42384,42385,42386,42387,42381,42382,42383,42384,42385,42386,42387,42381,42382,42383,42384,42385,42386,42381,42382,42383,42384,42385,42381,42382,42383,42384,42385,42386,42387,42388,42385,42386,42381,42382,42383,42384,42385,42386,42387,42388,42382,42383,42384,42385,42386,42387,42381,42382,42383,42384,42385,42386,42381,42382,42383,42384,42385,42386,42387,42381,42382,42383,42384,42385,42386,42387,42381,42382,42383,42384,42385,42386,42381,42382,42383,42384,42385,42381,42382,42383,42384,42385,42386,42387,42388,42385,42386,42381,42382,42383,42384,42381,42382,42383,42384,42385,42386,42387,42381,42382,42383,42384,42385,42386,42387,42381,42382,42383,42384,42385,42386,42381,42382,42383,42384,42385,42382,42383,42384,42385,42386,42387,42381,42382,42383,42384,42385,42386,42381,42382,42381,42382,42385,42386,42381,42382,42381,42382,
42637,42637,42638,42639,42640,42641,42642,42643,42637,42638,42639,42640,42641,42642,42643,42637,42638,42639,42640,42641,42637,42638,42639,42640,42641,42642,42643,42637,42638,42639,42640,42641,42637,42637,42638,42639,42640,42641,42642,42643,42637,42638,42639,42640,42641,42642,42643,42637,42638,42639,42640,42641,42642,42637,42638,42639,42640,42641,42637,42638,42639,42640,42641,42642,42643,42644,42641,42642,42637,42638,42639,42640,42641,42642,42637,42638,42639,42640,42641,42642,42643,42637,42638,42639,42640,42641,42642,42643,42637,42638,42639,42640,42641,42642,42637,42638,42639,42640,42641,42637,42638,42639,42640,42641,42642,42643,42644,42641,42642,42637,42638,42639,42640,42641,42642,42643,42644,42638,42639,42640,42641,42642,42643,42637,42638,42639,42640,42641,42642,42643,42644,42637,42638,42639,42640,42641,42642,42643,42637,42638,42639,42640,42641,42642,42643,42637,42638,42639,42640,42641,42642,42642,42643,42637,42638,42639,42637,42638,42639,42640,42641,42642,42637,42637,42638,42639,42640,42637,42638,42639,42640,42641,42642,42643,42637,42638,42639,42640,42641,42642,42643,42637,42638,42639,42640,42641,42642,42637,42638,42639,42640,42641,42637,42638,42639,42640,42641,42642,42643,42644,42641,42642,42637,42638,42639,42640,42641,42642,42643,42644,42638,42639,42640,42641,42642,42643,42637,42638,42639,42640,42641,42642,42637,42638,42639,42640,42641,42642,42643,42637,42638,42639,42640,42641,42642,42643,42637,42638,42639,42640,42641,42642,42637,42638,42639,42640,42641,42637,42638,42639,42640,42641,42642,42643,42644,42641,42642,42637,42638,42639,42640,42637,42638,42639,42640,42641,42642,42643,42637,42638,42639,42640,42641,42642,42643,42637,42638,42639,42640,42641,42642,42637,42638,42639,42640,42641,42638,42639,42640,42641,42642,42643,42637,42638,42639,42640,42641,42642,42637,42638,42637,42638,42641,42642,42637,42638,42637,42638,
42893,42893,42894,42895,42896,42897,42898,42899,42893,42894,42895,42896,42897,42898,42899,42893,42894,42895,42896,42897,42893,42894,42895,42896,42897,42898,42899,42893,42894,42895,42896,42897,42893,42893,42894,42895,42896,42897,42898,42899,42893,42894,42895,42896,42897,42898,42899,42893,42894,42895,42896,42897,42898,42893,42894,42895,42896,42897,42893,42894,42895,42896,42897,42898,42899,42900,42897,42898,42893,42894,42895,42896,42897,42898,42893,42894,42895,42896,42897,42898,42899,42893,42894,42895,42896,42897,42898,42899,42893,42894,42895,42896,42897,42898,42893,42894,42895,42896,42897,42893,42894,42895,42896,42897,42898,42899,42900,42897,42898,42893,42894,42895,42896,42897,42898,42899,42900,42894,42895,42896,42897,42898,42899,42893,42894,42895,42896,42897,42898,42899,42900,42893,42894,42895,42896,42897,42898,42899,42893,42894,42895,42896,42897,42898,42899,42893,42894,42895,42896,42897,42898,42898,42899,42893,42894,42895,42893,42894,42895,42896,42897,42898,42893,42893,42894,42895,42896,42893,42894,42895,42896,42897,42898,42899,42893,42894,42895,42896,42897,42898,42899,42893,42894,42895,42896,42897,42898,42893,42894,42895,42896,42897,42893,42894,42895,42896,42897,42898,42899,42900,42897,42898,42893,42894,42895,42896,42897,42898,42899,42900,42894,42895,42896,42897,42898,42899,42893,42894,42895,42896,42897,42898,42893,42894,42895,42896,42897,42898,42899,42893,42894,42895,42896,42897,42898,42899,42893,42894,42895,42896,42897,42898,42893,42894,42895,42896,42897,42893,42894,42895,42896,42897,42898,42899,42900,42897,42898,42893,42894,42895,42896,42893,42894,42895,42896,42897,42898,42899,42893,42894,42895,42896,42897,42898,42899,42893,42894,42895,42896,42897,42898,42893,42894,42895,42896,42897,42894,42895,42896,42897,42898,42899,42893,42894,42895,42896,42897,42898,42893,42894,42893,42894,42897,42898,42893,42894,42893,42894,
43149,43149,43150,43151,43152,43153,43154,15193,15194,15195,15196,15197,15198,15199,15200,15196,15197,15198,15199,15200,15194,15195,15196,15197,15198,15199,15200,43149,43150,43151,43152,43153,43149,43149,43150,43151,43152,43153,43154,43155,43149,43150,43151,43152,43153,43154,43155,43149,43150,43151,43152,43153,43154,43149,43150,43151,43152,43153,43149,43150,43151,43152,43153,43154,43155,43156,43153,43154,43149,43150,43151,43152,43153,43154,43149,43150,43151,43152,43153,43154,43155,43149,43150,43151,43152,43153,43154,43155,43149,43150,43151,43152,43153,43154,43149,15193,15194,15195,15196,15197,15198,15199,15200,43153,43154,43155,43156,43153,43154,43149,43150,43151,43152,43153,43154,43155,43156,43150,43151,43152,43153,15193,15193,15193,15193,15193,15193,15193,15193,15193,15193,15193,15193,15194,15195,15196,15193,15194,15195,15196,15197,15198,15199,15200,43155,43149,43150,43151,43152,43153,43154,43154,43155,43149,43150,43151,43149,43150,43151,43152,43153,43154,43149,43149,43150,43151,43152,43149,43150,43151,43152,43153,15193,15194,15195,15196,15197,15198,15199,15200,43155,43149,43150,43151,43152,43153,43154,43149,43150,43151,43152,43153,43149,43150,43151,43152,43153,43154,43155,43156,43153,43154,43149,43150,43151,43152,43153,43154,43155,43156,43150,43151,43152,43153,43154,43155,43149,15193,15194,15195,15196,15193,15194,15195,15196,15197,15198,15199,15200,43149,43150,15193,15194,15195,15196,15197,15198,15199,15200,43152,43153,43154,43149,43150,43151,43152,43153,43149,43150,43151,43152,43153,43154,43155,43156,43153,43154,43149,43150,43151,43152,15193,15194,15195,15196,15197,15198,15199,15200,43150,43151,43152,43153,43154,43155,43149,43150,43151,43152,43153,43154,43149,43150,43151,43152,43153,43150,43151,43152,43153,43154,43155,43149,43150,43151,43152,43153,43154,43149,43150,43149,43150,43153,43154,43149,43150,43149,43150,
15193,15194,15195,15196,15197,15198,15199,15449,15450,15451,15452,15453,15454,15455,15456,15452,15453,15454,15455,15456,15450,15451,15452,15453,15454,15455,15456,42381,42382,42383,42384,42385,42381,42381,42382,42383,42384,42385,42386,42387,42381,42382,15193,15194,15195,15196,15197,15198,15199,15200,42384,42385,42386,42381,42382,42381,42381,42382,15193,15194,15195,15196,15197,15198,15199,15200,15196,15197,15198,15199,15200,42382,42383,42384,42385,42381,42382,42383,42384,42385,42386,42387,42381,42382,42383,42384,42385,42381,42381,42382,42383,42384,42385,42386,42387,15449,15450,15451,15452,15453,15454,15455,15456,42382,42383,42384,42385,42386,42381,42382,42383,42384,42385,42381,42382,42383,42384,42385,42386,42387,15193,15449,15449,15449,15449,15449,15449,15449,15449,15449,15449,15449,15449,15450,15451,15452,15449,15450,15451,15452,15453,15454,15455,15456,42382,42383,42384,42385,42386,42381,15193,15194,15195,15196,15197,15198,15199,15200,42385,42386,15193,15194,15195,15196,15197,15198,15199,15200,42385,42386,42387,42388,15449,15450,15451,15452,15453,15454,15455,15456,15196,15197,15198,15199,15200,15193,15194,15195,15196,15197,15198,15199,15200,15193,15194,15195,15196,15197,15198,15199,15200,15195,15196,15197,15198,15199,15200,15200,42381,42382,42383,42381,42382,42383,15193,15194,15195,15196,15197,15198,15199,15449,15450,15451,15452,15453,15454,15455,15456,42381,42382,15449,15450,15451,15452,15453,15454,15455,15456,42384,15193,15194,15195,15196,15197,15198,15199,15200,15193,15194,15195,15196,15197,15198,15199,15200,15193,15194,15195,15196,15197,15449,15450,15451,15452,15453,15454,15455,15456,42386,42387,42381,15193,15194,15195,15196,15197,15198,15199,15200,42384,42385,42386,42387,42381,42382,42383,42384,42385,15193,15194,15195,15196,15197,15198,15193,15194,15195,15196,15197,15198,15199,15194,15195,15196,15197,15198,15199,
15449,15450,15451,15452,15453,15454,15455,15705,15706,15707,15708,15709,15710,15711,15712,15708,15709,15710,15711,15712,15706,15707,15708,15709,15710,15711,15712,42637,42638,42639,42640,42641,42637,42637,42638,42639,42640,42641,42642,42643,42637,42638,15449,15450,15451,15452,15453,15454,15455,15456,42640,42641,42642,42637,42638,42637,42637,42638,15449,15450,15451,15452,15453,15454,15455,15456,15452,15453,15454,15455,15456,42638,42639,42640,42641,42637,42638,42639,42640,42641,42642,42643,42637,42638,42639,42640,42641,42637,42637,42638,42639,42640,42641,42642,42643,15705,15706,15707,15708,15709,15710,15711,15712,42638,42639,42640,42641,42642,42637,42638,42639,42640,42641,42637,42638,42639,42640,42641,42642,42643,15449,15705,15705,15705,15705,15705,15705,15705,15705,15705,15705,15705,15705,15706,15707,15708,15705,15706,15707,15708,15709,15710,15711,15712,42638,42639,42640,42641,42642,42637,15449,15450,15451,15452,15453,15454,15455,15456,42641,42642,15449,15450,15451,15452,15453,15454,15455,15456,42641,42642,42643,42644,15705,15706,15707,15708,15709,15710,15711,15712,15452,15453,15454,15455,15456,15449,15450,15451,15452,15453,15454,15455,15456,15449,15450,15451,15452,15453,15454,15455,15456,15451,15452,15453,15454,15455,15456,15456,42637,42638,42639,42637,42638,42639,15449,15450,15451,15452,15453,15454,15455,15705,15706,15707,15708,15709,15710,15711,15712,42637,42638,15705,15706,15707,15708,15709,15710,15711,15712,42640,15449,15450,15451,15452,15453,15454,15455,15456,15449,15450,15451,15452,15453,15454,15455,15456,15449,15450,15451,15452,15453,15705,15706,15707,15708,15709,15710,15711,15712,42642,42643,42637,15449,15450,15451,15452,15453,15454,15455,15456,42640,42641,42642,42643,42637,42638,42639,42640,42641,15449,15450,15451,15452,15453,15454,15449,15450,15451,15452,15453,15454,15455,15450,15451,15452,15453,15454,15455,
15705,15706,15707,15708,15709,15710,15711,15961,15962,15963,15964,15965,15966,15967,15968,15964,15965,15966,15967,15968,15962,15963,15964,15965,15966,15967,15968,42893,42894,42895,42896,42897,42893,42893,42894,42895,42896,42897,42898,42899,42893,42894,15705,15706,15707,15708,15709,15710,15711,15712,42896,42897,42898,42893,42894,42893,42893,42894,15705,15706,15707,15708,15709,15710,15711,15712,15708,15709,15710,15711,15712,42894,42895,42896,42897,42893,42894,42895,42896,42897,42898,42899,42893,42894,42895,42896,42897,42893,42893,42894,42895,42896,42897,42898,42899,15961,15962,15963,15964,15965,15966,15967,15968,42894,42895,42896,42897,42898,42893,42894,42895,42896,42897,42893,42894,42895,42896,42897,42898,42899,15705,15961,15961,15961,15961,15961,15961,15961,15961,15961,15961,15961,15961,15962,15963,15964,15961,15962,15963,15964,15965,15966,15967,15968,42894,42895,42896,42897,42898,42893,15705,15706,15707,15708,15709,15710,15711,15712,42897,42898,15705,15706,15707,15708,15709,15710,15711,15712,42897,42898,42899,42900,15961,15962,15963,15964,15965,15966,15967,15968,15708,15709,15710,15711,15712,15705,15706,15707,15708,15709,15710,15711,15712,15705,15706,15707,15708,15709,15710,15711,15712,15707,15708,15709,15710,15711,15712,15712,42893,42894,42895,42893,42894,42895,15705,15706,15707,15708,15709,15710,15711,15961,15962,15963,15964,15965,15966,15967,15968,42893,42894,15961,15962,15963,15964,15965,15966,15967,15968,42896,15705,15706,15707,15708,15709,15710,15711,15712,15705,15706,15707,15708,15709,15710,15711,15712,15705,15706,15707,15708,15709,15961,15962,15963,15964,15965,15966,15967,15968,42898,42899,42893,15705,15706,15707,15708,15709,15710,15711,15712,42896,42897,42898,42899,42893,42894,42895,42896,42897,15705,15706,15707,15708,15709,15710,15705,15706,15707,15708,15709,15710,15711,15706,15707,15708,15709,15710,15711,
15961,15962,15963,15964,15965,15966,15967,15968,43149,43150,43151,43152,43153,43154,43155,43149,43150,43151,43152,43153,43149,43150,43151,43152,43153,43154,43155,43149,43150,43151,43152,43153,43149,43149,43150,43151,43152,43153,43154,43155,43149,43150,15961,15962,15963,15964,15965,15966,15967,15968,43152,43153,43154,43149,43150,43149,43149,43150,15961,15962,15963,15964,15965,15966,15967,15968,15964,15965,15966,15967,15968,43150,43151,43152,43153,43149,43150,43151,43152,43153,43154,43155,43149,43150,43151,43152,43153,43149,43149,43150,43151,43152,43153,43154,43155,43149,43150,43151,43152,43153,43154,43155,43149,43150,43151,43152,43153,43154,43149,43150,43151,43152,43153,43149,43150,43151,43152,43153,43154,43155,15961,15961,15962,15963,15964,15965,15966,15967,15968,43149,43150,43151,43152,43153,43154,43155,43149,43150,43151,43152,43153,43154,43155,43149,43150,43151,43152,43153,43154,43149,15961,15962,15963,15964,15965,15966,15967,15968,43153,43154,15961,15962,15963,15964,15965,15966,15967,15968,43153,43154,43155,43156,43150,43151,43152,43153,43154,15961,15962,15963,15964,15965,15966,15967,15968,15961,15962,15963,15964,15965,15966,15967,15968,15961,15962,15963,15964,15965,15966,15967,15968,15963,15964,15965,15966,15967,15968,15968,43149,43150,43151,43149,43150,43151,15961,15962,15963,15964,15965,15966,15967,15968,43149,43150,43151,43152,43153,43154,43155,43149,43150,43151,43152,43153,43154,43155,43149,43150,43151,43152,15961,15962,15963,15964,15965,15966,15967,15968,15961,15962,15963,15964,15965,15966,15967,15968,15961,15962,15963,15964,15965,15966,15967,15968,43156,43150,43151,43152,43153,43154,43155,43149,15961,15962,15963,15964,15965,15966,15967,15968,43152,43153,43154,43155,43149,43150,43151,43152,43153,15961,15962,15963,15964,15965,15966,15961,15962,15963,15964,15965,15966,15967,15962,15963,15964,15965,15966,15967
</data>
 </layer>
</map>
